;FLAVOR:Marlin
;TIME:1388
;Filament used: 0.410127m
;Layer height: 0.3
;MINX:99.019
;MINY:97.186
;MINZ:0.3
;MAXX:124.395
;MAXY:121.56
;MAXZ:12
;Generated with Cura_SteamEngine 4.12.0
M140 S60
M105
M190 S60
M104 S224
M105
M109 S224
M82 ;absolute extrusion mode
G1 Z15.0 F2000 ;Move the platform
G28 ;Home
G29 ; Autolevel
;G92 X-4 Y-10 Z0; custom offset ??? Looks it does not work.
G92 E0
G92 E0
G1 F1500 E-6.5
;LAYER_COUNT:40
;LAYER:0
M107
M204 S1000
G0 F6000 X99.577 Y103.318 Z0.3
;TYPE:SKIRT
G1 F1500 E0
G1 F1200 X99.88 Y103.03 E0.02086
G1 X100.223 Y102.768 E0.04239
G1 X100.578 Y102.555 E0.06304
G1 X100.962 Y102.377 E0.08416
G1 X101.356 Y102.243 E0.10492
G1 X101.784 Y102.149 E0.12678
G1 X102.191 Y102.106 E0.1472
G1 X102.624 Y102.106 E0.1688
G1 X103.039 Y102.153 E0.18964
G1 X103.44 Y102.242 E0.21013
G1 X103.854 Y102.381 E0.23192
G1 X104.233 Y102.559 E0.25281
G1 X104.452 Y102.686 E0.26544
G1 X104.452 Y99.649 E0.41696
G1 X104.492 Y99.272 E0.43587
G1 X104.61 Y98.912 E0.45477
G1 X104.831 Y98.526 E0.47696
G1 X105.064 Y98.227 E0.49588
G1 X105.354 Y97.984 E0.51475
G1 X105.689 Y97.806 E0.53368
G1 X105.931 Y97.729 E0.54635
G1 X106.025 Y97.706 E0.55118
G1 X106.453 Y97.654 E0.57269
G1 X106.657 Y97.654 E0.58286
G1 X107.034 Y97.694 E0.60178
G1 X107.394 Y97.812 E0.62068
G1 X107.668 Y97.964 E0.63631
G1 X108.006 Y97.737 E0.65662
G1 X108.38 Y97.54 E0.67771
G1 X108.777 Y97.384 E0.69899
G1 X109.174 Y97.274 E0.71955
G1 X109.615 Y97.206 E0.74181
G1 X110.009 Y97.186 E0.76149
G1 X110.448 Y97.212 E0.78343
G1 X110.86 Y97.283 E0.80429
G1 X111.248 Y97.391 E0.82438
G1 X111.663 Y97.56 E0.84674
G1 X112.023 Y97.754 E0.86714
G1 X112.368 Y97.989 E0.88796
G1 X112.693 Y98.27 E0.9094
G1 X112.945 Y98.554 E0.92834
G1 X113.069 Y98.728 E0.939
G1 X113.255 Y99.058 E0.9579
G1 X113.368 Y99.42 E0.97682
G1 X113.403 Y99.797 E0.99571
G1 X113.358 Y100.174 E1.01465
G1 X113.282 Y100.423 E1.02764
G1 X113.121 Y100.786 E1.04745
G1 X113.372 Y100.762 E1.06003
G1 X113.748 Y100.806 E1.07892
G1 X114.008 Y100.885 E1.09247
G1 X114.213 Y100.965 E1.10345
G1 X114.55 Y101.139 E1.12238
G1 X114.843 Y101.38 E1.1413
G1 X115.078 Y101.677 E1.1602
G1 X115.259 Y102.066 E1.1816
G1 X122.4 Y102.066 E1.53787
G1 X122.673 Y102.086 E1.55152
G1 X123.041 Y102.175 E1.57041
G1 X123.383 Y102.339 E1.58934
G1 X123.731 Y102.619 E1.61162
G1 X123.885 Y102.778 E1.62266
G1 X124.118 Y103.076 E1.64154
G1 X124.284 Y103.417 E1.66046
G1 X124.385 Y103.876 E1.6839
G1 X124.395 Y104.271 E1.70362
G1 X124.355 Y104.648 E1.72253
G1 X124.237 Y105.008 E1.74143
G1 X124.016 Y105.394 E1.76362
G1 X123.783 Y105.693 E1.78253
G1 X123.493 Y105.936 E1.80141
G1 X123.422 Y105.973 E1.80541
G1 X123.578 Y106.31 E1.82393
G1 X123.715 Y106.712 E1.84512
G1 X123.81 Y107.148 E1.86738
G1 X123.851 Y107.547 E1.88739
G1 X123.852 Y107.972 E1.9086
G1 X123.805 Y108.394 E1.92978
G1 X123.718 Y108.79 E1.95001
G1 X123.577 Y109.209 E1.97207
G1 X123.403 Y109.583 E1.99264
G1 X123.182 Y109.948 E2.01393
G1 X122.95 Y110.256 E2.03317
G1 X122.621 Y110.6 E2.05692
G1 X122.325 Y110.836 E2.0758
G1 X121.986 Y111.005 E2.0947
G1 X121.572 Y111.106 E2.11596
G1 X121.357 Y111.132 E2.12677
G1 X120.978 Y111.138 E2.14568
G1 X120.607 Y111.064 E2.16455
G1 X120.259 Y110.914 E2.18346
G1 X119.95 Y110.694 E2.20238
G1 X119.615 Y110.3 E2.22818
G1 X119.503 Y110.121 E2.23872
G1 X119.374 Y109.857 E2.25338
G1 X116.645 Y109.857 E2.38953
G1 X116.755 Y110.102 E2.40293
G1 X116.892 Y110.504 E2.42411
G1 X116.987 Y110.939 E2.44633
G1 X117.028 Y111.338 E2.46634
G1 X117.029 Y111.765 E2.48764
G1 X116.982 Y112.184 E2.50868
G1 X116.893 Y112.589 E2.52937
G1 X116.755 Y112.997 E2.55085
G1 X116.577 Y113.379 E2.57188
G1 X116.359 Y113.738 E2.59283
G1 X116.103 Y114.074 E2.61391
G1 X116.009 Y114.185 E2.62116
G1 X116.11 Y114.64 E2.64442
G1 X116.12 Y114.949 E2.65984
G1 X116.19 Y114.97 E2.66349
G1 X116.522 Y115.153 E2.6824
G1 X116.765 Y115.356 E2.6982
G1 X117.059 Y115.666 E2.71951
G1 X117.312 Y116 E2.74042
G1 X117.528 Y116.358 E2.76128
G1 X117.706 Y116.742 E2.78239
G1 X117.84 Y117.137 E2.8032
G1 X117.934 Y117.563 E2.82497
G1 X117.977 Y117.971 E2.84543
G1 X117.977 Y118.405 E2.86709
G1 X117.931 Y118.814 E2.88762
G1 X117.842 Y119.222 E2.90845
G1 X117.701 Y119.637 E2.93032
G1 X117.53 Y120.003 E2.95048
G1 X117.307 Y120.373 E2.97203
G1 X117.075 Y120.681 E2.99127
G1 X116.758 Y121.015 E3.01424
G1 X116.463 Y121.253 E3.03315
G1 X116.125 Y121.424 E3.05205
G1 X115.696 Y121.53 E3.07409
G1 X115.476 Y121.556 E3.08515
G1 X115.097 Y121.56 E3.10406
G1 X114.726 Y121.485 E3.12294
G1 X114.378 Y121.334 E3.14187
G1 X114.07 Y121.114 E3.16075
G1 X113.736 Y120.718 E3.18659
G1 X113.626 Y120.541 E3.19699
G1 X113.501 Y120.282 E3.21134
G1 X106.35 Y120.282 E3.5681
G1 X105.973 Y120.242 E3.58702
G1 X105.613 Y120.124 E3.60592
G1 X105.224 Y119.901 E3.62829
G1 X104.925 Y119.667 E3.64723
G1 X104.682 Y119.377 E3.66611
G1 X104.505 Y119.042 E3.68501
G1 X104.427 Y118.797 E3.69784
G1 X104.405 Y118.706 E3.70251
G1 X104.355 Y118.283 E3.72376
G1 X104.355 Y118.164 E3.7297
G1 X104.27 Y118.138 E3.73413
G1 X103.94 Y117.952 E3.75303
G1 X103.71 Y117.758 E3.76804
G1 X103.421 Y117.454 E3.78897
G1 X103.163 Y117.117 E3.81014
G1 X102.94 Y116.746 E3.83174
G1 X102.771 Y116.38 E3.85185
G1 X102.634 Y115.979 E3.87299
G1 X102.571 Y115.719 E3.88634
G1 X102.288 Y115.728 E3.90046
G1 X101.912 Y115.686 E3.91934
G1 X101.552 Y115.567 E3.93826
G1 X101.177 Y115.352 E3.95982
G1 X100.878 Y115.12 E3.9787
G1 X100.633 Y114.83 E3.99764
G1 X100.455 Y114.496 E4.01652
G1 X100.374 Y114.244 E4.02973
G1 X100.352 Y114.153 E4.0344
G1 X100.302 Y113.73 E4.05565
G1 X100.302 Y106.588 E4.41197
G1 X100.251 Y106.571 E4.41465
G1 X99.95 Y106.4 E4.43192
G1 X99.77 Y106.273 E4.44291
G1 X99.485 Y106.023 E4.46183
G1 X99.259 Y105.719 E4.48072
G1 X99.101 Y105.374 E4.49965
G1 X99.019 Y105.004 E4.51856
G1 X99.043 Y104.451 E4.54618
G1 X99.085 Y104.24 E4.55691
G1 X99.197 Y103.878 E4.57582
G1 X99.383 Y103.548 E4.59471
G1 X99.577 Y103.318 E4.60973
G0 F6000 X99.86 Y103.601
G1 F1200 X100.131 Y103.341 E4.62846
G1 X100.437 Y103.106 E4.64771
G1 X100.756 Y102.913 E4.66631
G1 X101.1 Y102.752 E4.68526
G1 X101.453 Y102.631 E4.70388
G1 X101.835 Y102.545 E4.72341
G1 X102.202 Y102.505 E4.74183
G1 X102.588 Y102.504 E4.76109
G1 X102.962 Y102.545 E4.77986
G1 X103.323 Y102.624 E4.7983
G1 X103.693 Y102.747 E4.81775
G1 X104.034 Y102.906 E4.83652
G1 X104.349 Y103.095 E4.85485
G1 X104.662 Y103.331 E4.8744
G1 X104.852 Y103.51 E4.88743
G1 X104.852 Y99.649 E5.08005
G1 X104.892 Y99.317 E5.09674
G1 X105.063 Y98.909 E5.11881
G1 X105.17 Y98.737 E5.12891
G1 X105.379 Y98.477 E5.14556
G1 X105.644 Y98.273 E5.16224
G1 X106.026 Y98.117 E5.18283
G1 X106.12 Y98.094 E5.18766
G1 X106.453 Y98.054 E5.20439
G1 X106.657 Y98.054 E5.21457
G1 X106.989 Y98.094 E5.23125
G1 X107.397 Y98.265 E5.25332
G1 X107.686 Y98.466 E5.27088
G1 X107.912 Y98.281 E5.28545
G1 X108.221 Y98.074 E5.30401
G1 X108.558 Y97.898 E5.32298
G1 X108.914 Y97.76 E5.34203
G1 X109.271 Y97.662 E5.3605
G1 X109.664 Y97.603 E5.38032
G1 X110.021 Y97.586 E5.39815
G1 X110.413 Y97.61 E5.41775
G1 X110.783 Y97.675 E5.43649
G1 X111.132 Y97.774 E5.45459
G1 X111.501 Y97.926 E5.4745
G1 X111.825 Y98.102 E5.49289
G1 X112.134 Y98.314 E5.51159
G1 X112.424 Y98.566 E5.53076
G1 X112.619 Y98.787 E5.54546
G1 X112.743 Y98.961 E5.55612
G1 X112.903 Y99.254 E5.57277
G1 X112.989 Y99.577 E5.58945
G1 X112.996 Y99.911 E5.60612
G1 X112.909 Y100.279 E5.62498
G1 X112.83 Y100.483 E5.6359
G1 X112.673 Y100.777 E5.65253
G1 X112.45 Y101.027 E5.66924
G1 X112.175 Y101.216 E5.68589
G1 X111.839 Y101.347 E5.70388
G1 X111.7 Y101.369 E5.7109
G1 X111.7 Y102.313 E5.758
G1 X111.9 Y102.027 E5.77541
G1 X112.144 Y101.746 E5.79397
G1 X112.363 Y101.55 E5.80864
G1 X112.537 Y101.425 E5.81933
G1 X112.83 Y101.264 E5.83601
G1 X113.152 Y101.177 E5.85265
G1 X113.486 Y101.168 E5.86932
G1 X113.863 Y101.258 E5.88865
G1 X114.068 Y101.338 E5.89963
G1 X114.362 Y101.496 E5.91628
G1 X114.611 Y101.718 E5.93293
G1 X114.8 Y101.994 E5.94961
G1 X114.931 Y102.339 E5.96803
G1 X114.95 Y102.466 E5.97443
G1 X122.4 Y102.466 E6.34611
G1 X122.621 Y102.483 E6.35717
G1 X122.944 Y102.566 E6.37381
G1 X123.239 Y102.723 E6.39048
G1 X123.444 Y102.897 E6.4039
G1 X123.598 Y103.056 E6.41494
G1 X123.8 Y103.322 E6.4316
G1 X123.933 Y103.628 E6.44825
G1 X123.987 Y103.91 E6.46258
G1 X123.995 Y104.271 E6.48059
G1 X123.955 Y104.603 E6.49727
G1 X123.784 Y105.011 E6.51934
G1 X123.677 Y105.183 E6.52945
G1 X123.468 Y105.443 E6.54609
G1 X123.203 Y105.647 E6.56278
G1 X122.85 Y105.791 E6.5818
G1 X123.046 Y106.114 E6.60065
G1 X123.203 Y106.449 E6.6191
G1 X123.327 Y106.809 E6.6381
G1 X123.413 Y107.197 E6.65793
G1 X123.452 Y107.558 E6.67604
G1 X123.453 Y107.939 E6.69505
G1 X123.413 Y108.317 E6.71402
G1 X123.335 Y108.674 E6.73225
G1 X123.211 Y109.048 E6.7519
G1 X123.055 Y109.385 E6.77043
G1 X122.858 Y109.713 E6.78952
G1 X122.648 Y109.993 E6.80698
G1 X122.34 Y110.315 E6.82921
G1 X122.076 Y110.52 E6.84589
G1 X121.771 Y110.656 E6.86255
G1 X121.524 Y110.709 E6.87515
G1 X121.309 Y110.735 E6.88596
G1 X120.975 Y110.735 E6.90262
G1 X120.65 Y110.656 E6.91931
G1 X120.354 Y110.503 E6.93593
G1 X120.102 Y110.283 E6.95262
G1 X119.842 Y109.909 E6.97534
G1 X119.7 Y109.606 E6.99204
G1 X119.676 Y109.457 E6.99957
G1 X115.936 Y109.457 E7.18616
G1 X116.149 Y109.774 E7.20521
G1 X116.323 Y110.109 E7.22404
G1 X116.459 Y110.454 E7.24254
G1 X116.559 Y110.821 E7.26152
G1 X116.618 Y111.213 E7.2813
G1 X116.635 Y111.576 E7.29943
G1 X116.611 Y111.955 E7.31838
G1 X116.546 Y112.331 E7.33741
G1 X116.444 Y112.687 E7.35589
G1 X116.298 Y113.045 E7.37518
G1 X116.116 Y113.379 E7.39415
G1 X115.904 Y113.685 E7.41273
G1 X115.658 Y113.968 E7.43143
G1 X115.528 Y114.097 E7.44057
G1 X115.658 Y114.396 E7.45684
G1 X115.712 Y114.675 E7.47101
G1 X115.72 Y115.038 E7.48913
G1 X115.695 Y115.242 E7.49938
G1 X115.753 Y115.253 E7.50233
G1 X116.071 Y115.354 E7.51897
G1 X116.357 Y115.528 E7.53568
G1 X116.642 Y115.799 E7.5553
G1 X116.888 Y116.094 E7.57446
G1 X117.096 Y116.405 E7.59313
G1 X117.271 Y116.74 E7.61198
G1 X117.409 Y117.093 E7.63089
G1 X117.507 Y117.454 E7.64955
G1 X117.566 Y117.838 E7.66894
G1 X117.584 Y118.209 E7.68747
G1 X117.559 Y118.595 E7.70676
G1 X117.495 Y118.96 E7.72525
G1 X117.393 Y119.32 E7.74392
G1 X117.243 Y119.683 E7.76352
G1 X117.07 Y120.004 E7.78171
G1 X116.85 Y120.321 E7.80096
G1 X116.633 Y120.574 E7.81759
G1 X116.475 Y120.732 E7.82874
G1 X116.212 Y120.938 E7.8454
G1 X115.908 Y121.077 E7.86208
G1 X115.649 Y121.132 E7.87529
G1 X115.429 Y121.158 E7.88634
G1 X115.095 Y121.158 E7.903
G1 X114.771 Y121.078 E7.91965
G1 X114.475 Y120.924 E7.9363
G1 X114.223 Y120.703 E7.95302
G1 X113.966 Y120.33 E7.97562
G1 X113.825 Y120.027 E7.9923
G1 X113.802 Y119.882 E7.99962
G1 X106.35 Y119.882 E8.3714
G1 X106.018 Y119.842 E8.38808
G1 X105.609 Y119.67 E8.41022
G1 X105.436 Y119.562 E8.4204
G1 X105.175 Y119.352 E8.43711
G1 X104.972 Y119.087 E8.45376
G1 X104.816 Y118.703 E8.47444
G1 X104.794 Y118.612 E8.47911
G1 X104.755 Y118.283 E8.49564
G1 X104.78 Y117.872 E8.51618
G1 X104.71 Y117.858 E8.51975
G1 X104.392 Y117.754 E8.53644
G1 X103.993 Y117.475 E8.56073
G1 X103.732 Y117.203 E8.57953
G1 X103.5 Y116.902 E8.59849
G1 X103.3 Y116.571 E8.61779
G1 X103.146 Y116.241 E8.63596
G1 X103.022 Y115.882 E8.65491
G1 X102.936 Y115.494 E8.67473
G1 X102.908 Y115.27 E8.68599
G1 X102.844 Y115.286 E8.68929
G1 X102.494 Y115.329 E8.70688
G1 X102.29 Y115.328 E8.71706
G1 X101.959 Y115.287 E8.7337
G1 X101.561 Y115.119 E8.75525
G1 X101.388 Y115.012 E8.7654
G1 X101.126 Y114.803 E8.78212
G1 X100.922 Y114.539 E8.79876
G1 X100.763 Y114.15 E8.81973
G1 X100.741 Y114.059 E8.8244
G1 X100.702 Y113.73 E8.84093
G1 X100.702 Y106.295 E9.21186
G1 X100.656 Y106.289 E9.21418
G1 X100.344 Y106.172 E9.2308
G1 X100.001 Y105.946 E9.25129
G1 X99.753 Y105.722 E9.26797
G1 X99.565 Y105.446 E9.28463
G1 X99.448 Y105.133 E9.3013
G1 X99.408 Y104.801 E9.31798
G1 X99.435 Y104.529 E9.33162
G1 X99.477 Y104.318 E9.34235
G1 X99.581 Y104 E9.35904
G1 X99.86 Y103.601 E9.38333
G0 F6000 X100.143 Y103.884
G1 F1200 X100.382 Y103.653 E9.39992
G1 X100.651 Y103.444 E9.41691
G1 X100.933 Y103.272 E9.43339
G1 X101.237 Y103.128 E9.45017
G1 X101.55 Y103.019 E9.46671
G1 X101.886 Y102.942 E9.48391
G1 X102.212 Y102.905 E9.50028
G1 X102.553 Y102.903 E9.51729
G1 X102.885 Y102.938 E9.53394
G1 X103.206 Y103.007 E9.55032
G1 X103.532 Y103.114 E9.56744
G1 X103.835 Y103.253 E9.58407
G1 X104.116 Y103.42 E9.60038
G1 X104.392 Y103.626 E9.61756
G1 X104.692 Y103.93 E9.63887
G1 X104.817 Y104.104 E9.64956
G1 X104.948 Y104.354 E9.66364
G1 X105.003 Y104.63 E9.67768
G1 X104.98 Y104.911 E9.69175
G1 X104.859 Y105.252 E9.7098
G1 X104.721 Y105.498 E9.72387
G1 X104.519 Y105.696 E9.73798
G1 X104.233 Y105.843 E9.75403
G1 X104.115 Y105.881 E9.76021
G1 X103.808 Y105.929 E9.77571
G1 X103.702 Y105.929 E9.781
G1 X103.702 Y113.399 E10.15368
G1 X103.949 Y113.029 E10.17588
G1 X104.162 Y112.785 E10.19204
G1 X104.495 Y112.518 E10.21333
G1 X104.568 Y112.48 E10.21744
G1 X104.485 Y112.41 E10.22285
G1 X104.328 Y112.175 E10.23695
G1 X104.236 Y111.893 E10.25175
G1 X104.206 Y111.444 E10.2742
G1 X104.246 Y111.165 E10.28826
G1 X104.357 Y110.916 E10.30187
G1 X104.464 Y110.744 E10.31197
G1 X104.645 Y110.528 E10.32603
G1 X104.88 Y110.371 E10.34013
G1 X105.169 Y110.278 E10.35528
G1 X105.382 Y110.252 E10.36598
G1 X105.12 Y110.132 E10.38036
G1 X104.831 Y109.96 E10.39714
G1 X104.562 Y109.756 E10.41398
G1 X104.262 Y109.453 E10.43525
G1 X104.137 Y109.279 E10.44594
G1 X104.006 Y109.029 E10.46002
G1 X103.951 Y108.753 E10.47406
G1 X103.974 Y108.472 E10.48813
G1 X104.097 Y108.127 E10.5064
G1 X104.236 Y107.882 E10.52046
G1 X104.438 Y107.684 E10.53457
G1 X104.725 Y107.538 E10.55063
G1 X104.841 Y107.501 E10.55671
G1 X105.145 Y107.454 E10.57206
G1 X105.252 Y107.454 E10.57739
G1 X105.252 Y99.649 E10.96679
G1 X105.292 Y99.37 E10.98085
G1 X105.403 Y99.121 E10.99445
G1 X105.51 Y98.949 E11.00456
G1 X105.691 Y98.733 E11.01861
G1 X105.926 Y98.576 E11.03271
G1 X106.215 Y98.483 E11.04786
G1 X106.657 Y98.454 E11.06996
G1 X106.936 Y98.494 E11.08402
G1 X107.185 Y98.605 E11.09762
G1 X107.357 Y98.712 E11.10773
G1 X107.573 Y98.893 E11.12179
G1 X107.68 Y99.053 E11.13139
G1 X107.9 Y98.81 E11.14775
G1 X108.161 Y98.594 E11.16465
G1 X108.437 Y98.411 E11.18117
G1 X108.735 Y98.257 E11.1979
G1 X109.051 Y98.135 E11.2148
G1 X109.368 Y98.05 E11.23118
G1 X109.714 Y98 E11.24862
G1 X110.033 Y97.985 E11.26455
G1 X110.378 Y98.009 E11.2818
G1 X110.706 Y98.068 E11.29843
G1 X111.016 Y98.157 E11.31452
G1 X111.34 Y98.291 E11.33201
G1 X111.628 Y98.449 E11.3484
G1 X111.9 Y98.638 E11.36493
G1 X112.154 Y98.861 E11.38179
G1 X112.417 Y99.193 E11.40292
G1 X112.547 Y99.443 E11.41698
G1 X112.602 Y99.72 E11.43107
G1 X112.536 Y100.134 E11.45198
G1 X112.457 Y100.338 E11.4629
G1 X112.319 Y100.584 E11.47697
G1 X112.117 Y100.782 E11.49108
G1 X111.833 Y100.928 E11.50701
G1 X111.716 Y100.966 E11.51315
G1 X111.407 Y101.015 E11.52876
G1 X111.3 Y101.015 E11.5341
G1 X111.3 Y106.936 E11.8295
G1 X111.468 Y106.736 E11.84253
G1 X111.703 Y106.579 E11.85663
G1 X111.992 Y106.486 E11.87178
G1 X112.23 Y106.457 E11.88374
G1 X112.594 Y106.457 E11.9019
G1 X112.394 Y106.27 E11.91556
G1 X112.174 Y106.004 E11.93278
G1 X111.989 Y105.722 E11.94961
G1 X111.839 Y105.432 E11.96589
G1 X111.716 Y105.115 E11.98286
G1 X111.631 Y104.798 E11.99923
G1 X111.58 Y104.455 E12.01653
G1 X111.566 Y104.129 E12.03281
G1 X111.59 Y103.788 E12.04987
G1 X111.647 Y103.464 E12.06628
G1 X111.739 Y103.146 E12.08279
G1 X111.872 Y102.826 E12.10008
G1 X112.029 Y102.541 E12.11632
G1 X112.223 Y102.262 E12.13327
G1 X112.44 Y102.015 E12.14967
G1 X112.771 Y101.75 E12.17083
G1 X113.021 Y101.619 E12.18491
G1 X113.297 Y101.564 E12.19895
G1 X113.578 Y101.587 E12.21302
G1 X113.923 Y101.71 E12.23129
G1 X114.168 Y101.849 E12.24534
G1 X114.366 Y102.051 E12.25945
G1 X114.513 Y102.343 E12.27576
G1 X114.549 Y102.458 E12.28178
G1 X114.595 Y102.757 E12.29687
G1 X114.595 Y102.866 E12.30231
G1 X122.4 Y102.866 E12.6917
G1 X122.568 Y102.88 E12.70011
G1 X122.84 Y102.955 E12.71419
G1 X123.156 Y103.175 E12.7334
G1 X123.31 Y103.334 E12.74444
G1 X123.476 Y103.563 E12.75855
G1 X123.588 Y103.945 E12.77841
G1 X123.595 Y104.271 E12.79468
G1 X123.555 Y104.55 E12.80874
G1 X123.444 Y104.799 E12.82234
