;FLAVOR:Marlin
;TIME:3429
;Filament used: 2.85531m
;Layer height: 0.3
;MINX:81.643
;MINY:79.206
;MINZ:0.3
;MAXX:128.926
;MAXY:143.102
;MAXZ:12.6
;Generated with Cura_SteamEngine 4.12.0
M140 S60
M105
M190 S60
M104 S224
M105
M109 S224
M82 ;absolute extrusion mode
G1 Z15.0 F2000 ;Move the platform
G28 ;Home
G29 ; Autolevel
;G92 X-4 Y-10 Z0; custom offset ??? Looks it does not work.
G92 E0
G92 E0
G1 F1500 E-6.5
;LAYER_COUNT:42
;LAYER:0
M107
M204 S1000
G0 F6000 X104.624 Y91.89 Z0.3
;TYPE:SKIRT
G1 F1500 E0
G1 F1200 X105.631 Y90.975 E0.06788
G1 X105.936 Y90.751 E0.08676
G1 X106.282 Y90.596 E0.10568
G1 X106.841 Y90.507 E0.13392
G1 X107.862 Y90.507 E0.18485
G1 X108.239 Y90.547 E0.20377
G1 X108.599 Y90.665 E0.22267
G1 X108.922 Y90.852 E0.24129
G1 X109.527 Y91.293 E0.27864
G1 X109.808 Y91.548 E0.29757
G1 X109.832 Y91.582 E0.29965
G1 X116.458 Y80.106 E0.96077
G1 X116.681 Y79.8 E0.97966
G1 X116.963 Y79.547 E0.99856
G1 X117.292 Y79.358 E1.01749
G1 X117.653 Y79.243 E1.03639
G1 X118.03 Y79.206 E1.05529
G1 X118.407 Y79.249 E1.07422
G1 X118.766 Y79.369 E1.09311
G1 X119.092 Y79.562 E1.11201
G1 X119.483 Y79.962 E1.13991
G1 X120.402 Y81.252 E1.21893
G1 X121.297 Y82.568 E1.29833
G1 X122.154 Y83.884 E1.37668
G1 X122.994 Y85.237 E1.45614
G1 X123.795 Y86.588 E1.53449
G1 X124.566 Y87.952 E1.61266
G1 X125.293 Y89.301 E1.68912
G1 X125.348 Y89.413 E1.69534
G1 X125.818 Y90.454 E1.75232
G1 X126.245 Y91.484 E1.80795
G1 X126.643 Y92.527 E1.86365
G1 X127.012 Y93.584 E1.9195
G1 X127.347 Y94.65 E1.97525
G1 X127.65 Y95.724 E2.03092
G1 X127.923 Y96.809 E2.08674
G1 X128.163 Y97.9 E2.14247
G1 X128.361 Y98.946 E2.19558
G1 X128.545 Y100.103 E2.25403
G1 X128.686 Y101.209 E2.30966
G1 X128.796 Y102.32 E2.36536
G1 X128.873 Y103.438 E2.42127
G1 X128.915 Y104.55 E2.47678
G1 X128.926 Y105.671 E2.53271
G1 X128.902 Y106.785 E2.5883
G1 X128.847 Y107.9 E2.644
G1 X128.767 Y108.93 E2.69554
G1 X128.635 Y110.131 E2.75582
G1 X128.48 Y111.232 E2.81129
G1 X128.293 Y112.335 E2.8671
G1 X128.073 Y113.431 E2.92288
G1 X127.821 Y114.512 E2.97825
G1 X127.539 Y115.586 E3.03365
G1 X127.209 Y116.702 E3.09171
G1 X126.885 Y117.691 E3.14363
G1 X126.5 Y118.76 E3.20032
G1 X126.072 Y119.846 E3.25856
G1 X125.7 Y120.713 E3.30562
G1 X125.395 Y121.387 E3.34253
G1 X125.22 Y121.753 E3.36277
G1 X125.008 Y122.178 E3.38647
G1 X124.817 Y122.547 E3.4072
G1 X124.638 Y122.884 E3.42623
G1 X124.279 Y123.537 E3.46341
G1 X123.918 Y124.174 E3.49994
G1 X123.604 Y124.713 E3.53106
G1 X123.234 Y125.334 E3.56713
G1 X122.947 Y125.803 E3.59456
G1 X122.675 Y126.233 E3.61994
G1 X122.309 Y126.791 E3.65323
G1 X122.081 Y127.119 E3.67316
G1 X121.727 Y127.614 E3.70352
G1 X121.129 Y128.416 E3.75344
G1 X121.005 Y128.577 E3.76357
G1 X120.418 Y129.316 E3.81066
G1 X119.625 Y130.254 E3.87194
G1 X118.879 Y131.084 E3.92761
G1 X118.107 Y131.892 E3.98337
G1 X117.324 Y132.665 E4.03826
G1 X116.505 Y133.431 E4.09421
G1 X115.666 Y134.165 E4.14982
G1 X114.815 Y134.87 E4.20496
G1 X113.927 Y135.56 E4.26106
G1 X113.036 Y136.212 E4.31614
G1 X112.113 Y136.847 E4.37204
G1 X111.23 Y137.419 E4.42453
G1 X110.238 Y138.018 E4.48234
G1 X109.259 Y138.572 E4.53846
G1 X108.282 Y139.085 E4.59351
G1 X107.274 Y139.579 E4.64952
G1 X106.315 Y140.015 E4.70207
G1 X105.229 Y140.469 E4.7608
G1 X104.193 Y140.866 E4.81615
G1 X103.146 Y141.233 E4.8715
G1 X102.088 Y141.569 E4.92688
G1 X101.012 Y141.877 E4.98272
G1 X99.991 Y142.136 E5.03527
G1 X98.851 Y142.391 E5.09355
G1 X97.758 Y142.6 E5.14907
G1 X96.658 Y142.777 E5.20466
G1 X95.545 Y142.924 E5.26067
G1 X94.509 Y143.029 E5.31262
G1 X94.385 Y143.037 E5.31882
G1 X92.963 Y143.083 E5.3898
G1 X91.565 Y143.102 E5.45955
G1 X90.165 Y143.096 E5.5294
G1 X88.766 Y143.062 E5.59921
G1 X87.366 Y143.004 E5.66912
G1 X85.972 Y142.918 E5.7388
G1 X84.579 Y142.809 E5.80851
G1 X83.269 Y142.682 E5.87417
G1 X82.898 Y142.606 E5.89306
G1 X82.551 Y142.453 E5.91198
G1 X82.243 Y142.232 E5.9309
G1 X81.989 Y141.951 E5.94979
G1 X81.799 Y141.623 E5.96871
G1 X81.682 Y141.263 E5.98759
G1 X81.643 Y140.886 E6.0065
G1 X81.684 Y140.509 E6.02542
G1 X81.884 Y139.99 E6.05317
G1 X86.176 Y132.557 E6.48138
G1 X85.971 Y132.535 E6.49167
G1 X85.611 Y132.417 E6.51057
G1 X85.289 Y132.23 E6.52915
G1 X84.462 Y131.628 E6.58018
G1 X84.18 Y131.374 E6.59912
G1 X83.959 Y131.067 E6.61799
G1 X83.809 Y130.73 E6.63639
G1 X83.493 Y129.759 E6.68734
G1 X83.415 Y129.388 E6.70625
G1 X83.415 Y129.009 E6.72516
G1 X83.544 Y128.509 E6.75092
G1 X84.034 Y127.335 E6.81439
G1 X84.16 Y127.089 E6.82818
G1 X84.869 Y125.929 E6.896
G1 X85.562 Y124.735 E6.96488
G1 X87.65 Y121.107 E7.17372
G1 X87.722 Y120.993 E7.18044
G1 X88.502 Y119.846 E7.24965
G1 X89.239 Y118.369 E7.332
G1 X89.291 Y118.273 E7.33744
G1 X93.918 Y110.262 E7.79899
G1 X94.58 Y109.112 E7.86519
G1 X95.249 Y107.66 E7.94495
G1 X95.318 Y107.526 E7.95247
G1 X95.982 Y106.353 E8.01972
G1 X96.202 Y106.045 E8.0386
G1 X96.487 Y105.786 E8.05781
G1 X96.56 Y105.733 E8.06231
G1 X97.161 Y104.345 E8.13778
G1 X97.749 Y103.101 E8.20642
G1 X98.296 Y101.825 E8.27568
G1 X98.563 Y101.388 E8.30123
G1 X99.103 Y100.735 E8.34351
G1 X99.205 Y100.421 E8.35998
G1 X99.36 Y100.075 E8.3789
G1 X99.584 Y99.769 E8.39781
G1 X99.858 Y99.523 E8.41619
G1 X100.114 Y99.337 E8.43197
G1 X100.521 Y98.477 E8.47944
G1 X100.709 Y98.167 E8.49753
G1 X101.428 Y97.21 E8.55725
G1 X102.141 Y96.07 E8.62433
G1 X102.76 Y95.012 E8.68548
G1 X103.547 Y93.583 E8.76687
G1 X104.275 Y92.322 E8.83952
G1 X104.624 Y91.89 E8.86722
G0 F6000 X104.893 Y92.186
G1 F1200 X105.9 Y91.271 E8.93511
G1 X106.172 Y91.077 E8.95177
G1 X106.482 Y90.954 E8.96841
G1 X106.841 Y90.907 E8.98648
G1 X107.862 Y90.907 E9.03741
G1 X108.194 Y90.947 E9.0541
G1 X108.506 Y91.064 E9.07072
G1 X108.687 Y91.176 E9.08134
G1 X109.292 Y91.617 E9.11869
G1 X109.536 Y91.844 E9.13532
G1 X109.72 Y92.123 E9.15199
G1 X109.82 Y92.404 E9.16687
G1 X116.805 Y80.306 E9.86382
G1 X117.005 Y80.039 E9.88047
G1 X117.263 Y79.826 E9.89716
G1 X117.564 Y79.681 E9.91383
G1 X117.891 Y79.612 E9.9305
G1 X118.224 Y79.621 E9.94712
G1 X118.547 Y79.71 E9.96383
G1 X118.839 Y79.872 E9.98049
G1 X119.157 Y80.194 E10.00307
G1 X120.071 Y81.477 E10.08166
G1 X120.962 Y82.786 E10.16066
G1 X121.814 Y84.095 E10.23858
G1 X122.65 Y85.441 E10.31763
G1 X123.447 Y86.784 E10.39555
G1 X124.213 Y88.142 E10.47333
G1 X124.94 Y89.491 E10.54979
G1 X124.983 Y89.578 E10.55463
G1 X125.449 Y90.608 E10.61103
G1 X125.872 Y91.627 E10.66607
G1 X126.266 Y92.659 E10.72118
G1 X126.63 Y93.704 E10.77639
G1 X126.962 Y94.759 E10.83157
G1 X127.263 Y95.822 E10.88669
G1 X127.532 Y96.895 E10.94188
G1 X127.77 Y97.975 E10.99705
G1 X127.974 Y99.06 E11.05213
G1 X128.149 Y100.153 E11.10736
G1 X128.288 Y101.249 E11.16247
G1 X128.397 Y102.348 E11.21757
G1 X128.473 Y103.453 E11.27283
G1 X128.515 Y104.555 E11.32785
G1 X128.526 Y105.663 E11.38313
G1 X128.502 Y106.765 E11.43812
G1 X128.448 Y107.869 E11.49327
G1 X128.364 Y108.943 E11.54701
G1 X128.239 Y110.075 E11.60383
G1 X128.085 Y111.166 E11.6588
G1 X127.901 Y112.256 E11.71395
G1 X127.684 Y113.34 E11.76911
G1 X127.434 Y114.41 E11.82393
G1 X127.155 Y115.473 E11.87876
G1 X126.829 Y116.578 E11.93623
G1 X126.509 Y117.556 E11.98757
G1 X126.128 Y118.614 E12.04367
G1 X125.704 Y119.688 E12.10128
G1 X125.335 Y120.549 E12.14801
G1 X125.034 Y121.214 E12.18443
G1 X124.861 Y121.575 E12.2044
G1 X124.652 Y121.995 E12.22781
G1 X124.464 Y122.36 E12.24829
G1 X124.288 Y122.691 E12.26699
G1 X123.931 Y123.34 E12.30395
G1 X123.573 Y123.973 E12.34023
G1 X123.26 Y124.509 E12.3712
G1 X122.893 Y125.125 E12.40697
G1 X122.608 Y125.589 E12.43414
G1 X122.341 Y126.014 E12.45918
G1 X121.98 Y126.563 E12.49196
G1 X121.756 Y126.886 E12.51157
G1 X121.406 Y127.375 E12.54157
G1 X120.812 Y128.172 E12.59116
G1 X120.692 Y128.328 E12.60098
G1 X120.109 Y129.062 E12.64774
G1 X120.012 Y129.179 E12.65533
G1 X119.327 Y129.987 E12.70818
G1 X118.589 Y130.808 E12.76325
G1 X117.826 Y131.608 E12.81841
G1 X117.05 Y132.373 E12.87277
G1 X116.241 Y133.13 E12.92805
G1 X115.41 Y133.857 E12.98313
G1 X114.569 Y134.555 E13.03766
G1 X113.691 Y135.238 E13.09315
G1 X112.81 Y135.882 E13.1476
G1 X111.895 Y136.511 E13.20299
G1 X110.975 Y137.106 E13.25765
G1 X110.041 Y137.67 E13.31209
G1 X109.073 Y138.218 E13.36758
G1 X108.106 Y138.726 E13.42208
G1 X107.108 Y139.214 E13.4775
G1 X106.111 Y139.667 E13.53214
G1 X105.086 Y140.096 E13.58757
G1 X104.061 Y140.489 E13.64234
G1 X103.025 Y140.852 E13.69711
G1 X101.977 Y141.185 E13.75197
G1 X100.913 Y141.489 E13.80718
G1 X99.854 Y141.757 E13.86168
G1 X98.776 Y141.998 E13.91679
G1 X97.694 Y142.205 E13.97175
G1 X96.605 Y142.381 E14.02678
G1 X95.504 Y142.526 E14.08218
G1 X94.468 Y142.631 E14.13414
G1 X94.372 Y142.637 E14.13893
G1 X92.957 Y142.683 E14.20957
G1 X91.567 Y142.702 E14.27892
G1 X90.174 Y142.696 E14.34842
G1 X88.783 Y142.663 E14.41783
G1 X87.39 Y142.604 E14.48739
G1 X86.003 Y142.52 E14.55672
G1 X84.618 Y142.41 E14.62603
G1 X83.308 Y142.283 E14.6917
G1 X82.982 Y142.212 E14.70834
G1 X82.682 Y142.065 E14.72501
G1 X82.425 Y141.851 E14.74169
G1 X82.226 Y141.582 E14.75839
G1 X82.097 Y141.274 E14.77505
G1 X82.044 Y140.945 E14.79167
G1 X82.071 Y140.612 E14.80834
G1 X82.231 Y140.19 E14.83086
G1 X86.895 Y132.112 E15.29622
G1 X86.513 Y132.175 E15.31554
G1 X86.348 Y132.175 E15.32377
G1 X86.016 Y132.135 E15.34045
G1 X85.704 Y132.018 E15.35707
G1 X85.524 Y131.907 E15.36763
G1 X84.697 Y131.305 E15.41866
G1 X84.452 Y131.077 E15.43536
G1 X84.269 Y130.799 E15.45196
G1 X84.19 Y130.606 E15.46236
G1 X83.874 Y129.635 E15.51331
G1 X83.809 Y129.308 E15.52994
G1 X83.824 Y128.974 E15.54662
G1 X83.913 Y128.663 E15.56276
G1 X84.403 Y127.489 E15.62623
G1 X84.501 Y127.297 E15.63698
G1 X85.232 Y126.102 E15.70687
G1 X85.908 Y124.936 E15.77411
G1 X87.997 Y121.307 E15.98302
G1 X88.052 Y121.218 E15.98824
G1 X88.851 Y120.043 E16.05913
G1 X89.597 Y118.548 E16.14249
G1 X89.638 Y118.473 E16.14675
G1 X94.265 Y110.462 E16.6083
G1 X94.931 Y109.305 E16.6749
G1 X95.612 Y107.827 E16.75609
G1 X95.666 Y107.723 E16.76193
G1 X96.33 Y106.55 E16.82918
G1 X96.528 Y106.281 E16.84584
G1 X96.723 Y106.109 E16.85882
G1 X96.884 Y105.992 E16.86875
G1 X97.547 Y104.462 E16.95194
G1 X98.114 Y103.262 E17.01815
G1 X98.663 Y101.983 E17.08759
G1 X98.871 Y101.643 E17.10748
G1 X99.461 Y100.93 E17.15365
G1 X99.586 Y100.545 E17.17384
G1 X99.726 Y100.242 E17.19049
G1 X99.935 Y99.98 E17.20721
G1 X100.093 Y99.846 E17.21755
G1 X100.433 Y99.598 E17.23855
G1 X100.883 Y98.649 E17.29094
G1 X101.029 Y98.407 E17.30505
G1 X101.757 Y97.439 E17.36547
G1 X102.482 Y96.278 E17.43376
G1 X103.105 Y95.213 E17.49532
G1 X103.894 Y93.783 E17.5768
G1 X104.622 Y92.522 E17.64944
G1 X104.893 Y92.186 E17.67098
G0 F6000 X105.162 Y92.482
G1 F1200 X106.169 Y91.567 E17.73886
G1 X106.402 Y91.409 E17.7529
G1 X106.67 Y91.322 E17.76696
G1 X106.841 Y91.307 E17.77553
G1 X107.862 Y91.307 E17.82646
G1 X108.141 Y91.347 E17.84053
G1 X108.451 Y91.499 E17.85775
G1 X109.056 Y91.94 E17.8951
G1 X109.258 Y92.137 E17.90918
G1 X109.398 Y92.382 E17.92326
G1 X109.463 Y92.656 E17.93731
G1 X109.449 Y92.938 E17.95139
G1 X109.333 Y93.248 E17.96791
G1 X87.379 Y131.275 E20.15855
G1 X87.205 Y131.497 E20.17262
G1 X86.976 Y131.662 E20.18671
G1 X86.71 Y131.755 E20.20076
G1 X86.348 Y131.775 E20.21885
G1 X86.069 Y131.735 E20.23291
G1 X85.759 Y131.583 E20.25014
G1 X84.932 Y130.981 E20.30117
G1 X84.73 Y130.785 E20.31521
G1 X84.57 Y130.482 E20.33231
G1 X84.254 Y129.511 E20.38325
G1 X84.205 Y129.234 E20.39729
G1 X84.236 Y128.953 E20.41139
G1 X84.282 Y128.817 E20.41855
G1 X84.772 Y127.643 E20.48202
G1 X84.842 Y127.506 E20.4897
G1 X85.573 Y126.311 E20.55959
G1 X86.254 Y125.136 E20.62734
G1 X88.343 Y121.506 E20.83629
G1 X88.383 Y121.443 E20.84001
G1 X89.195 Y120.249 E20.91205
G1 X89.955 Y118.726 E20.99697
G1 X95.292 Y109.481 E21.52954
G1 X95.976 Y107.995 E21.61116
G1 X96.014 Y107.92 E21.61535
G1 X96.678 Y106.747 E21.6826
G1 X96.85 Y106.524 E21.69665
G1 X96.959 Y106.432 E21.70376
G1 X97.207 Y106.251 E21.71908
G1 X97.909 Y104.633 E21.80707
G1 X98.481 Y103.423 E21.87385
G1 X99.031 Y102.141 E21.94344
G1 X99.179 Y101.898 E21.95764
G1 X99.817 Y101.127 E22.00757
G1 X99.966 Y100.668 E22.03164
G1 X100.09 Y100.415 E22.0457
G1 X100.329 Y100.169 E22.06281
G1 X100.75 Y99.863 E22.08878
G1 X101.244 Y98.82 E22.14635
G1 X101.348 Y98.647 E22.15642
G1 X102.09 Y97.659 E22.21807
G1 X102.829 Y96.477 E22.28762
G1 X103.453 Y95.41 E22.34928
G1 X104.24 Y93.983 E22.43059
G1 X104.968 Y92.722 E22.50323
G1 X105.162 Y92.482 E22.51862
G0 F6000 X105.431 Y92.778
G1 F1200 X106.438 Y91.863 E22.58651
G1 X106.623 Y91.748 E22.59737
G1 X106.841 Y91.707 E22.60844
G1 X107.862 Y91.707 E22.65938
G1 X108.077 Y91.747 E22.67029
G1 X108.215 Y91.822 E22.67812
G1 X108.82 Y92.263 E22.71548
G1 X108.97 Y92.422 E22.72638
G1 X109.054 Y92.623 E22.73725
G1 X109.06 Y92.841 E22.74813
G1 X108.987 Y93.048 E22.75908
G1 X87.033 Y131.075 E24.94973
G1 X86.891 Y131.241 E24.96063
G1 X86.699 Y131.345 E24.97152
G1 X86.348 Y131.375 E24.98909
G1 X86.133 Y131.335 E25.00001
G1 X85.995 Y131.26 E25.00784
G1 X85.168 Y130.658 E25.05887
G1 X85.018 Y130.5 E25.06974
G1 X84.95 Y130.359 E25.07755
G1 X84.634 Y129.388 E25.1285
G1 X84.606 Y129.171 E25.13941
G1 X84.651 Y128.971 E25.14964
G1 X85.141 Y127.797 E25.21311
G1 X85.183 Y127.715 E25.21771
G1 X85.914 Y126.52 E25.28759
G1 X86.6 Y125.337 E25.35582
G1 X88.69 Y121.706 E25.56484
G1 X88.714 Y121.668 E25.56708
G1 X89.541 Y120.451 E25.64049
G1 X90.33 Y118.873 E25.72851
G1 X95.647 Y109.665 E26.25898
G1 X96.339 Y108.162 E26.34153
G1 X96.362 Y108.117 E26.34405
G1 X97.026 Y106.944 E26.4113
G1 X97.194 Y106.755 E26.42392
G1 X97.531 Y106.509 E26.44473
G1 X98.271 Y104.804 E26.53746
G1 X98.843 Y103.594 E26.60423
G1 X99.399 Y102.298 E26.67459
G1 X99.488 Y102.153 E26.68308
G1 X100.172 Y101.325 E26.73666
G1 X100.346 Y100.792 E26.76463
G1 X100.451 Y100.601 E26.77551
G1 X100.564 Y100.493 E26.78331
G1 X101.068 Y100.126 E26.81441
G1 X101.606 Y98.991 E26.87707
G1 X101.668 Y98.888 E26.88307
G1 X102.416 Y97.893 E26.94518
G1 X103.168 Y96.689 E27.016
G1 X103.811 Y95.59 E27.07952
G1 X104.586 Y94.183 E27.15966
G1 X105.314 Y92.922 E27.2323
G1 X105.431 Y92.778 E27.24156
G0 F6000 X105.7 Y93.074
G1 F1200 X106.707 Y92.159 E27.30944
G1 X106.841 Y92.107 E27.31661
G1 X107.862 Y92.107 E27.36755
G1 X107.98 Y92.145 E27.37374
G1 X108.585 Y92.586 E27.41109
G1 X108.658 Y92.688 E27.41735
G1 X108.64 Y92.848 E27.42538
G1 X86.686 Y130.875 E29.61602
G1 X86.593 Y130.958 E29.62224
G1 X86.348 Y130.975 E29.6345
G1 X86.23 Y130.937 E29.64068
G1 X85.403 Y130.335 E29.69171
G1 X85.331 Y130.235 E29.69786
G1 X85.015 Y129.264 E29.74881
G1 X85.02 Y129.125 E29.75574
G1 X85.51 Y127.951 E29.81921
G1 X85.524 Y127.924 E29.82073
G1 X86.255 Y126.729 E29.89062
G1 X86.946 Y125.538 E29.95931
G1 X89.045 Y121.893 E30.16916
G1 X89.888 Y120.654 E30.24393
G1 X90.677 Y119.073 E30.33208
G1 X95.998 Y109.858 E30.86296
G1 X96.71 Y108.314 E30.94778
G1 X97.374 Y107.141 E31.01503
G1 X97.43 Y107.078 E31.01924
G1 X97.855 Y106.768 E31.04548
G1 X98.632 Y104.975 E31.14297
G1 X99.213 Y103.746 E31.21079
G1 X99.766 Y102.456 E31.28081
G1 X99.796 Y102.408 E31.28364
G1 X100.531 Y101.52 E31.34115
G1 X100.727 Y100.916 E31.37283
G1 X100.799 Y100.816 E31.37898
G1 X101.386 Y100.389 E31.41519
G1 X101.967 Y99.162 E31.48292
G1 X101.988 Y99.128 E31.48492
G1 X102.745 Y98.121 E31.54777
G1 X103.507 Y96.901 E31.61953
G1 X104.156 Y95.792 E31.68364
G1 X104.933 Y94.383 E31.76391
G1 X105.661 Y93.122 E31.83655
G1 X105.7 Y93.074 E31.83964
G0 F6000 X105.99 Y93.352
G1 F1200 X106.92 Y92.507 E31.90233
G1 X107.796 Y92.507 E31.94603
G1 X108.204 Y92.804 E31.97121
G1 X86.402 Y130.566 E34.14662
G1 X85.691 Y130.049 E34.19047
G1 X85.418 Y129.212 E34.2344
G1 X85.876 Y128.117 E34.29361
G1 X86.599 Y126.933 E34.36283
G1 X87.292 Y125.738 E34.43174
G1 X89.383 Y122.105 E34.64087
G1 X90.241 Y120.84 E34.71713
G1 X91.029 Y119.262 E34.80513
G1 X95.65 Y111.262 E35.26605
G1 X96.36 Y110.029 E35.33703
G1 X97.067 Y108.496 E35.42126
G1 X97.7 Y107.377 E35.4854
G1 X98.135 Y107.06 E35.51225
G1 X98.201 Y106.977 E35.51754
G1 X98.994 Y105.145 E35.61713
G1 X99.578 Y103.91 E35.68529
G1 X100.124 Y102.638 E35.75435
G1 X100.863 Y101.744 E35.81222
G1 X100.899 Y101.679 E35.81593
G1 X101.087 Y101.102 E35.8462
G1 X101.663 Y100.683 E35.88174
G1 X101.726 Y100.607 E35.88666
