;FLAVOR:Marlin
;TIME:3930
;Filament used: 2.81194m
;Layer height: 0.3
;MINX:81.938
;MINY:80.186
;MINZ:0.3
;MAXX:137.696
;MAXY:137.841
;MAXZ:24
;Generated with Cura_SteamEngine 4.12.0
M140 S60
M105
M190 S60
M104 S224
M105
M109 S224
M82 ;absolute extrusion mode
G1 Z15.0 F2000 ;Move the platform
G28 ;Home
G29 ; Autolevel
;G92 X-4 Y-10 Z0; custom offset ??? Looks it does not work.
G92 E0
G92 E0
G1 F1500 E-6.5
;LAYER_COUNT:80
;LAYER:0
M107
M204 S1000
G0 F6000 X96.111 Y103.21 Z0.3
;TYPE:SKIRT
G1 F1500 E0
G1 F1200 X97.767 Y101.742 E0.11041
G1 X98.755 Y100.763 E0.1798
G1 X99.051 Y100.526 E0.19872
G1 X99.389 Y100.356 E0.21759
G1 X99.756 Y100.261 E0.23651
G1 X100.022 Y100.241 E0.24981
G1 X100.85 Y100.241 E0.29112
G1 X101.227 Y100.281 E0.31004
G1 X101.587 Y100.399 E0.32894
G1 X101.911 Y100.587 E0.34763
G1 X102.58 Y101.075 E0.38894
G1 X102.861 Y101.329 E0.40784
G1 X103.082 Y101.637 E0.42675
G1 X103.231 Y101.974 E0.44513
G1 X103.252 Y102.037 E0.44845
G1 X104.53 Y100.772 E0.53816
G1 X104.47 Y100.748 E0.54138
G1 X104.249 Y100.611 E0.55435
G1 X103.696 Y100.208 E0.58849
G1 X103.415 Y99.954 E0.60739
G1 X103.193 Y99.646 E0.62633
G1 X103.044 Y99.31 E0.64467
G1 X102.788 Y98.524 E0.68591
G1 X102.71 Y98.154 E0.70478
G1 X102.71 Y97.775 E0.72368
G1 X102.789 Y97.409 E0.74236
G1 X103.045 Y96.624 E0.78356
G1 X103.199 Y96.278 E0.80245
G1 X103.423 Y95.972 E0.82137
G1 X103.706 Y95.72 E0.84028
G1 X103.971 Y95.562 E0.85567
G1 X104.304 Y95.401 E0.87412
G1 X104.428 Y95.123 E0.88931
G1 X104.652 Y94.817 E0.90823
G1 X105.06 Y94.483 E0.93454
G1 X105.474 Y94.235 E0.95861
G1 X105.521 Y94.091 E0.96617
G1 X105.676 Y93.745 E0.98508
G1 X105.9 Y93.439 E1.004
G1 X106.173 Y93.194 E1.0223
G1 X106.841 Y92.707 E1.06355
G1 X107.169 Y92.517 E1.08246
G1 X107.336 Y92.463 E1.09122
G1 X107.352 Y92.413 E1.09383
G1 X107.506 Y92.067 E1.11273
G1 X107.73 Y91.761 E1.13165
G1 X108.002 Y91.517 E1.14988
G1 X108.671 Y91.029 E1.19119
G1 X108.915 Y90.888 E1.20525
G1 X108.946 Y90.756 E1.21202
G1 X109.108 Y90.414 E1.2309
G1 X109.339 Y90.113 E1.24982
G1 X109.583 Y89.898 E1.26605
G1 X110.252 Y89.41 E1.30736
G1 X110.58 Y89.22 E1.32627
G1 X110.797 Y89.15 E1.33765
G1 X110.894 Y88.853 E1.35324
G1 X111.049 Y88.507 E1.37215
G1 X111.273 Y88.201 E1.39107
G1 X111.545 Y87.956 E1.40933
G1 X112.214 Y87.468 E1.45065
G1 X112.368 Y87.379 E1.45952
G1 X112.511 Y87.059 E1.47701
G1 X112.735 Y86.753 E1.49593
G1 X113.007 Y86.508 E1.51419
G1 X113.676 Y86.02 E1.5555
G1 X114.007 Y85.829 E1.57457
G1 X114.022 Y85.759 E1.57814
G1 X114.176 Y85.412 E1.59708
G1 X114.399 Y85.106 E1.61597
G1 X114.681 Y84.853 E1.63487
G1 X114.943 Y84.696 E1.65011
G1 X115.255 Y84.543 E1.66745
G1 X115.413 Y84.187 E1.68688
G1 X115.637 Y83.881 E1.7058
G1 X115.909 Y83.636 E1.72406
G1 X116.578 Y83.148 E1.76537
G1 X116.906 Y82.958 E1.78429
G1 X116.944 Y82.945 E1.78629
G1 X117.026 Y82.762 E1.79629
G1 X117.25 Y82.456 E1.81521
G1 X117.499 Y82.229 E1.83202
G1 X119.385 Y80.806 E1.9499
G1 X119.71 Y80.611 E1.9688
G1 X120.247 Y80.457 E1.99668
G1 X122.368 Y80.193 E2.10331
G1 X122.747 Y80.186 E2.12222
G1 X123.03 Y80.234 E2.13654
G1 X124.944 Y80.717 E2.23502
G1 X127.017 Y81.204 E2.34126
G1 X127.398 Y81.34 E2.36145
G1 X128.343 Y81.804 E2.41397
G1 X129.929 Y81.807 E2.49309
G1 X130.305 Y81.848 E2.51196
G1 X130.665 Y81.966 E2.53086
G1 X131.056 Y82.207 E2.55378
G1 X132.537 Y83.403 E2.64875
G1 X132.805 Y83.67 E2.66763
G1 X132.999 Y83.966 E2.68528
G1 X133.329 Y84.595 E2.72072
G1 X134.302 Y85.037 E2.77404
G1 X135.083 Y84.984 E2.81309
G1 X135.462 Y84.998 E2.83201
G1 X135.829 Y85.092 E2.85091
G1 X136.169 Y85.26 E2.86983
G1 X136.465 Y85.495 E2.88869
G1 X136.661 Y85.722 E2.90365
G1 X137.352 Y86.673 E2.9623
G1 X137.541 Y87.001 E2.98118
G1 X137.658 Y87.362 E3.00012
G1 X137.696 Y87.739 E3.01902
G1 X137.654 Y88.116 E3.03795
G1 X137.535 Y88.475 E3.05682
G1 X137.352 Y88.79 E3.07499
G1 X136.661 Y89.74 E3.1336
G1 X136.407 Y90.021 E3.1525
G1 X136.1 Y90.243 E3.1714
G1 X135.94 Y90.314 E3.18013
G1 X135.376 Y91.677 E3.25372
G1 X135.276 Y91.882 E3.2651
G1 X134.174 Y93.811 E3.37594
G1 X133.952 Y94.118 E3.39484
G1 X133.671 Y94.373 E3.41377
G1 X133.169 Y94.629 E3.44188
G1 X132.05 Y94.994 E3.5006
G1 X131.862 Y95.034 E3.51019
G1 X131.862 Y95.583 E3.53758
G1 X131.822 Y95.96 E3.5565
G1 X131.704 Y96.32 E3.5754
G1 X131.514 Y96.647 E3.59427
G1 X131.144 Y97.021 E3.62051
G1 X129.486 Y98.268 E3.72402
G1 X128.876 Y98.93 E3.76893
G1 X128.591 Y99.18 E3.78784
G1 X128.26 Y99.365 E3.80676
G1 X128.051 Y99.439 E3.81782
G1 X127.793 Y99.513 E3.83121
G1 X126.579 Y100.727 E3.91686
G1 X126.285 Y100.965 E3.93574
G1 X125.947 Y101.137 E3.95466
G1 X125.58 Y101.233 E3.97358
G1 X125.251 Y101.253 E3.99003
G1 X125.183 Y101.484 E4.00204
G1 X124.77 Y102.583 E4.06061
G1 X124.6 Y102.922 E4.07953
G1 X124.363 Y103.218 E4.09845
G1 X124.069 Y103.457 E4.11735
G1 X123.643 Y103.661 E4.14092
G1 X122.526 Y104.025 E4.19953
G1 X122.155 Y104.104 E4.21845
G1 X121.776 Y104.104 E4.23736
G1 X121.656 Y104.078 E4.24349
G1 X121.412 Y104.189 E4.25686
G1 X121.042 Y104.271 E4.27577
G1 X120.786 Y104.272 E4.28854
G1 X120.839 Y104.387 E4.29486
G1 X120.922 Y104.757 E4.31378
G1 X120.934 Y104.965 E4.32417
G1 X120.934 Y106.139 E4.38274
G1 X120.894 Y106.516 E4.40166
G1 X120.776 Y106.876 E4.42056
G1 X120.586 Y107.203 E4.43943
G1 X120.331 Y107.484 E4.45836
G1 X120.162 Y107.617 E4.46909
G1 X119.437 Y108.122 E4.51317
G1 X118.923 Y108.829 E4.55677
G1 X118.669 Y109.11 E4.57567
G1 X118.362 Y109.332 E4.59457
G1 X118.015 Y109.485 E4.61349
G1 X117.644 Y109.562 E4.6324
G1 X117.451 Y109.565 E4.64203
G1 X117.41 Y109.941 E4.6609
G1 X117.29 Y110.301 E4.67983
G1 X117.163 Y110.535 E4.69311
G1 X116.548 Y111.487 E4.74966
G1 X116.31 Y111.782 E4.76857
G1 X116.026 Y112.013 E4.78683
G1 X114.259 Y113.177 E4.89239
G1 X113.813 Y113.39 E4.91705
G1 X112.004 Y113.963 E5.01172
G1 X111.91 Y113.991 E5.01662
G1 X111.887 Y114.149 E5.02458
G1 X111.755 Y114.505 E5.04353
G1 X111.552 Y114.824 E5.06239
G1 X111.286 Y115.094 E5.0813
G1 X110.97 Y115.303 E5.1002
G1 X110.7 Y115.416 E5.1148
G1 X110.346 Y115.531 E5.13337
G1 X110.192 Y115.792 E5.14849
G1 X109.501 Y116.743 E5.20714
G1 X109.247 Y117.024 E5.22604
G1 X108.94 Y117.247 E5.24497
G1 X108.594 Y117.399 E5.26382
G1 X108.597 Y117.492 E5.26846
G1 X108.609 Y117.871 E5.28738
G1 X108.543 Y118.244 E5.30628
G1 X108.399 Y118.594 E5.32516
G1 X108.271 Y118.799 E5.33722
G1 X107.58 Y119.751 E5.39591
G1 X107.326 Y120.033 E5.41484
G1 X107.019 Y120.255 E5.43374
G1 X106.54 Y120.445 E5.45945
G1 X105.128 Y120.781 E5.53186
G1 X105.041 Y120.931 E5.54052
G1 X104.332 Y121.906 E5.60066
G1 X104.165 Y122.091 E5.61309
G1 X104.138 Y122.333 E5.62524
G1 X104.019 Y122.692 E5.64411
G1 X103.836 Y123.006 E5.66224
G1 X103.145 Y123.957 E5.72089
G1 X102.891 Y124.238 E5.73979
G1 X102.584 Y124.461 E5.75872
G1 X102.187 Y124.628 E5.78021
G1 X101.861 Y125.077 E5.80789
G1 X101.607 Y125.359 E5.82682
G1 X101.3 Y125.581 E5.84572
G1 X101.031 Y125.7 E5.8604
G1 X101.021 Y125.787 E5.86477
G1 X100.902 Y126.146 E5.88364
G1 X100.719 Y126.46 E5.90177
G1 X100.028 Y127.411 E5.96042
G1 X99.774 Y127.692 E5.97931
G1 X99.467 Y127.915 E5.99824
G1 X99.256 Y128.018 E6.00996
G1 X97.946 Y128.556 E6.08061
G1 X97.171 Y129.738 E6.15113
G1 X96.931 Y130.031 E6.17002
G1 X96.635 Y130.268 E6.18894
G1 X96.223 Y130.463 E6.21168
G1 X95.105 Y130.827 E6.27034
G1 X94.735 Y130.905 E6.28921
G1 X94.356 Y130.905 E6.30811
G1 X93.985 Y130.825 E6.32705
G1 X93.899 Y130.791 E6.33166
G1 X93.544 Y131.059 E6.35385
G1 X93.823 Y131.442 E6.37749
G1 X94.013 Y131.77 E6.39641
G1 X94.129 Y132.131 E6.41532
G1 X94.168 Y132.508 E6.43423
G1 X94.127 Y132.884 E6.4531
G1 X94.007 Y133.244 E6.47203
G1 X93.903 Y133.442 E6.48319
G1 X93.282 Y134.455 E6.54247
G1 X93.051 Y134.755 E6.56136
G1 X92.788 Y134.982 E6.57869
G1 X91.205 Y136.105 E6.67552
G1 X91.023 Y136.219 E6.68624
G1 X90.527 Y136.488 E6.71439
G1 X90.077 Y137.108 E6.75261
G1 X89.824 Y137.389 E6.77147
G1 X89.517 Y137.611 E6.79038
G1 X89.17 Y137.764 E6.8093
G1 X88.799 Y137.841 E6.8282
G1 X88.42 Y137.839 E6.84711
G1 X88.062 Y137.761 E6.86539
G1 X86.944 Y137.396 E6.92406
G1 X86.599 Y137.241 E6.94293
G1 X86.293 Y137.017 E6.96185
G1 X86.041 Y136.734 E6.98076
G1 X85.853 Y136.405 E6.99966
G1 X85.781 Y136.21 E7.01003
G1 X85.559 Y135.482 E7.048
G1 X85.493 Y135.445 E7.05178
G1 X85.183 Y135.227 E7.07069
G1 X84.926 Y134.949 E7.08957
G1 X84.733 Y134.623 E7.10847
G1 X84.657 Y134.428 E7.11892
G1 X84.451 Y133.793 E7.15222
G1 X84.372 Y133.423 E7.1711
G1 X84.374 Y133.044 E7.19
G1 X84.508 Y132.529 E7.21655
G1 X84.621 Y132.264 E7.23093
G1 X84.075 Y131.906 E7.2635
G1 X83.781 Y131.666 E7.28243
G1 X83.516 Y131.322 E7.3041
G1 X82.325 Y129.323 E7.42019
G1 X82.166 Y128.979 E7.4391
G1 X82.076 Y128.54 E7.46145
G1 X81.938 Y126.749 E7.55107
G1 X81.949 Y126.37 E7.56999
G1 X82.022 Y126.053 E7.58622
G1 X82.268 Y125.298 E7.62583
G1 X82.422 Y124.952 E7.64473
G1 X82.646 Y124.647 E7.66361
G1 X82.878 Y124.432 E7.67939
G1 X84.562 Y123.13 E7.78558
G1 X84.885 Y122.931 E7.80451
G1 X85.281 Y122.8 E7.82532
G1 X85.633 Y122.435 E7.85062
G1 X85.871 Y122.228 E7.86636
G1 X87.342 Y121.161 E7.95702
G1 X87.707 Y120.956 E7.9779
G1 X88.106 Y120.79 E7.99946
G1 X87.881 Y120.49 E8.01817
G1 X87.688 Y120.19 E8.03597
G1 X87.518 Y119.868 E8.05414
G1 X87.391 Y119.54 E8.07168
G1 X87.309 Y119.244 E8.08701
G1 X87.247 Y118.87 E8.10592
G1 X87.265 Y118.491 E8.12485
G1 X87.326 Y118.227 E8.13837
G1 X87.384 Y118.041 E8.14809
G1 X87.534 Y117.693 E8.16699
G1 X87.836 Y117.298 E8.1918
G1 X94.377 Y110.824 E8.65095
G1 X94.109 Y110.67 E8.66637
G1 X94.097 Y110.661 E8.66712
G1 X93.819 Y110.403 E8.68604
G1 X93.602 Y110.093 E8.70492
G1 X93.465 Y109.778 E8.72205
G1 X93.209 Y108.992 E8.76329
G1 X93.131 Y108.622 E8.78216
G1 X93.131 Y108.243 E8.80107
G1 X93.209 Y107.878 E8.81969
G1 X93.465 Y107.092 E8.86093
G1 X93.62 Y106.746 E8.87985
G1 X93.844 Y106.44 E8.89877
G1 X94.209 Y106.131 E8.92262
G1 X94.269 Y106.093 E8.92617
G1 X94.307 Y105.808 E8.94051
G1 X94.396 Y105.44 E8.9594
G1 X94.561 Y105.099 E8.9783
G1 X94.793 Y104.8 E8.99718
G1 X95.025 Y104.597 E9.01256
G1 X95.516 Y104.236 E9.04297
G1 X95.593 Y104 E9.05535
G1 X95.748 Y103.654 E9.07427
G1 X95.972 Y103.348 E9.09319
G1 X96.111 Y103.21 E9.10296
G0 F6000 X96.376 Y103.509
G1 F1200 X98.04 Y102.034 E9.21389
G1 X99.036 Y101.047 E9.28385
G1 X99.3 Y100.842 E9.30053
G1 X99.605 Y100.705 E9.31721
G1 X100.022 Y100.641 E9.33826
G1 X100.85 Y100.641 E9.37956
G1 X101.182 Y100.681 E9.39625
G1 X101.494 Y100.798 E9.41287
G1 X101.675 Y100.91 E9.42349
G1 X102.344 Y101.398 E9.4648
G1 X102.589 Y101.626 E9.4815
G1 X102.772 Y101.905 E9.49815
G1 X102.851 Y102.097 E9.50851
G1 X102.944 Y102.384 E9.52356
G1 X103.008 Y102.712 E9.54023
G1 X103.002 Y102.847 E9.54697
G1 X105.323 Y100.549 E9.70992
G1 X105.063 Y100.534 E9.72291
G1 X104.744 Y100.437 E9.73955
G1 X104.484 Y100.287 E9.75452
G1 X103.931 Y99.884 E9.78866
G1 X103.687 Y99.657 E9.80529
G1 X103.503 Y99.378 E9.82196
G1 X103.425 Y99.187 E9.83226
G1 X103.169 Y98.401 E9.8735
G1 X103.104 Y98.073 E9.89018
G1 X103.119 Y97.739 E9.90686
G1 X103.169 Y97.533 E9.91744
G1 X103.425 Y96.748 E9.95863
G1 X103.566 Y96.445 E9.9753
G1 X103.774 Y96.184 E9.99195
G1 X104.145 Y95.922 E10.01461
G1 X104.621 Y95.691 E10.04101
G1 X104.653 Y95.593 E10.04615
G1 X104.794 Y95.29 E10.06283
G1 X105.003 Y95.029 E10.07951
G1 X105.265 Y94.827 E10.09601
G1 X105.808 Y94.502 E10.12758
G1 X105.902 Y94.214 E10.1427
G1 X106.042 Y93.911 E10.15935
G1 X106.251 Y93.65 E10.17603
G1 X106.408 Y93.517 E10.1863
G1 X107.076 Y93.03 E10.22754
G1 X107.368 Y92.867 E10.24423
G1 X107.65 Y92.788 E10.25884
G1 X107.732 Y92.537 E10.27201
G1 X107.873 Y92.234 E10.28868
G1 X108.081 Y91.973 E10.30533
G1 X108.238 Y91.84 E10.3156
G1 X108.907 Y91.352 E10.35691
G1 X109.198 Y91.189 E10.37355
G1 X109.256 Y91.173 E10.37655
G1 X109.337 Y90.851 E10.39312
G1 X109.493 Y90.556 E10.40977
G1 X109.819 Y90.221 E10.43309
G1 X110.488 Y89.733 E10.4744
G1 X110.779 Y89.57 E10.49104
G1 X111.101 Y89.48 E10.50772
G1 X111.111 Y89.479 E10.50822
G1 X111.275 Y88.976 E10.53462
G1 X111.415 Y88.673 E10.55127
G1 X111.624 Y88.412 E10.56795
G1 X111.781 Y88.279 E10.57822
G1 X112.45 Y87.791 E10.61953
G1 X112.692 Y87.667 E10.6331
G1 X112.737 Y87.528 E10.64039
G1 X112.877 Y87.225 E10.65704
G1 X113.086 Y86.964 E10.67372
G1 X113.243 Y86.831 E10.68399
G1 X113.912 Y86.343 E10.7253
G1 X114.203 Y86.18 E10.74194
G1 X114.349 Y86.139 E10.7495
G1 X114.415 Y85.844 E10.76459
G1 X114.564 Y85.545 E10.78125
G1 X114.779 Y85.289 E10.79793
G1 X115.119 Y85.055 E10.81852
G1 X115.584 Y84.827 E10.84436
G1 X115.639 Y84.657 E10.85327
G1 X115.779 Y84.353 E10.86997
G1 X115.988 Y84.092 E10.88665
G1 X116.145 Y83.959 E10.89692
G1 X116.814 Y83.471 E10.93823
G1 X117.105 Y83.308 E10.95487
G1 X117.241 Y83.266 E10.96197
G1 X117.252 Y83.232 E10.96376
G1 X117.393 Y82.929 E10.98043
G1 X117.601 Y82.668 E10.99708
G1 X117.74 Y82.548 E11.00624
G1 X119.626 Y81.125 E11.12411
G1 X119.915 Y80.957 E11.14079
G1 X120.296 Y80.854 E11.16048
G1 X122.417 Y80.59 E11.26711
G1 X122.751 Y80.588 E11.28378
G1 X122.933 Y80.622 E11.29302
G1 X124.852 Y81.106 E11.39175
G1 X126.925 Y81.593 E11.49799
G1 X127.222 Y81.699 E11.51372
G1 X128.25 Y82.204 E11.57087
G1 X129.928 Y82.207 E11.65458
G1 X130.259 Y82.248 E11.67122
G1 X130.572 Y82.365 E11.68789
G1 X130.805 Y82.518 E11.7018
G1 X132.286 Y83.714 E11.79677
G1 X132.519 Y83.953 E11.81342
G1 X132.645 Y84.152 E11.82517
G1 X133.04 Y84.903 E11.86751
G1 X134.227 Y85.443 E11.93257
G1 X135.11 Y85.383 E11.97672
G1 X135.444 Y85.4 E11.99341
G1 X135.764 Y85.496 E12.01007
G1 X136.052 Y85.665 E12.02673
G1 X136.338 Y85.957 E12.04713
G1 X137.029 Y86.908 E12.10577
G1 X137.191 Y87.2 E12.12243
G1 X137.28 Y87.522 E12.1391
G1 X137.29 Y87.856 E12.15577
G1 X137.221 Y88.183 E12.17244
G1 X137.028 Y88.555 E12.19335
G1 X136.337 Y89.505 E12.25196
G1 X136.11 Y89.749 E12.26859
G1 X135.831 Y89.933 E12.28526
G1 X135.639 Y89.995 E12.29533
G1 X135.007 Y91.524 E12.37787
G1 X134.929 Y91.683 E12.3867
G1 X133.827 Y93.612 E12.49754
G1 X133.627 Y93.881 E12.51426
G1 X133.37 Y94.094 E12.53092
G1 X133.045 Y94.249 E12.54888
G1 X131.926 Y94.614 E12.6076
G1 X131.598 Y94.679 E12.62428
G1 X131.462 Y94.673 E12.63108
G1 X131.462 Y95.583 E12.67648
G1 X131.422 Y95.915 E12.69316
G1 X131.305 Y96.227 E12.70978
G1 X131.117 Y96.504 E12.72649
G1 X130.904 Y96.702 E12.74099
G1 X129.211 Y97.976 E12.8467
G1 X128.581 Y98.659 E12.89306
G1 X128.327 Y98.876 E12.90973
G1 X127.94 Y99.055 E12.931
G1 X127.584 Y99.158 E12.94949
G1 X126.297 Y100.444 E13.04026
G1 X126.034 Y100.651 E13.05696
G1 X125.73 Y100.789 E13.07361
G1 X125.263 Y100.853 E13.09713
G1 X124.888 Y100.841 E13.11585
G1 X124.892 Y100.976 E13.12258
G1 X124.809 Y101.343 E13.14136
G1 X124.396 Y102.442 E13.19993
G1 X124.242 Y102.739 E13.21662
G1 X124.022 Y102.99 E13.23327
G1 X123.749 Y103.183 E13.24995
G1 X123.519 Y103.281 E13.26242
G1 X122.402 Y103.645 E13.32104
G1 X122.074 Y103.71 E13.33772
G1 X121.74 Y103.695 E13.3544
G1 X121.594 Y103.653 E13.36198
G1 X121.519 Y103.707 E13.36659
G1 X121.21 Y103.833 E13.38324
G1 X120.879 Y103.881 E13.39992
G1 X120.408 Y103.813 E13.42367
G1 X119.262 Y103.44 E13.48379
G1 X118.959 Y103.3 E13.50044
G1 X118.698 Y103.091 E13.51713
G1 X118.493 Y102.827 E13.5338
G1 X118.357 Y102.522 E13.55046
G1 X118.326 Y102.388 E13.55732
G1 X117.635 Y102.183 E13.59328
G1 X117.494 Y102.616 E13.616
G1 X117.358 Y102.909 E13.63212
G1 X117.789 Y102.948 E13.65371
G1 X118.208 Y103.053 E13.67526
G1 X119.68 Y103.676 E13.755
G1 X119.97 Y103.842 E13.77168
G1 X120.212 Y104.072 E13.78833
G1 X120.393 Y104.352 E13.80497
G1 X120.502 Y104.668 E13.82164
G1 X120.534 Y104.965 E13.83655
G1 X120.534 Y106.139 E13.89512
G1 X120.494 Y106.471 E13.9118
G1 X120.377 Y106.783 E13.92842
G1 X120.189 Y107.06 E13.94513
G1 X119.934 Y107.288 E13.96219
G1 X119.153 Y107.832 E14.00968
G1 X118.599 Y108.594 E14.05668
G1 X118.372 Y108.839 E14.07334
G1 X118.093 Y109.023 E14.09002
G1 X117.779 Y109.136 E14.10666
G1 X117.446 Y109.171 E14.12337
G1 X117.033 Y109.102 E14.14426
G1 X116.96 Y109.078 E14.14809
G1 X117.035 Y109.348 E14.16207
G1 X117.046 Y109.682 E14.17875
G1 X116.976 Y110.009 E14.19543
G1 X116.827 Y110.318 E14.21254
G1 X116.212 Y111.27 E14.26909
G1 X115.999 Y111.527 E14.28574
G1 X115.806 Y111.679 E14.298
