;FLAVOR:Marlin
;TIME:682
;Filament used: 0.519117m
;Layer height: 0.3
;MINX:90.933
;MINY:97.197
;MINZ:0.3
;MAXX:129.038
;MAXY:120.627
;MAXZ:3.3
;Generated with Cura_SteamEngine 4.12.0
M140 S60
M105
M190 S60
M104 S224
M105
M109 S224
M82 ;absolute extrusion mode
G1 Z15.0 F2000 ;Move the platform
G28 ;Home
G29 ; Autolevel
;G92 X-4 Y-10 Z0; custom offset ??? Looks it does not work.
G92 E0
G92 E0
G1 F1500 E-6.5
;LAYER_COUNT:11
;LAYER:0
M107
M204 S1000
G0 F6000 X91.949 Y100.022 Z0.3
;TYPE:SKIRT
G1 F1500 E0
G1 F1200 X92.157 Y99.865 E0.013
G1 X92.565 Y99.634 E0.03639
G1 X92.807 Y99.536 E0.04942
G1 X93.248 Y99.419 E0.07218
G1 X93.499 Y99.386 E0.08481
G1 X93.734 Y99.371 E0.09656
G1 X102.243 Y99.371 E0.52108
G1 X102.499 Y99.389 E0.53388
G1 X102.757 Y99.426 E0.54688
G1 X103.002 Y99.494 E0.55957
G1 X103.005 Y99.475 E0.56053
G1 X103.13 Y99.026 E0.58378
G1 X103.232 Y98.786 E0.59679
G1 X103.47 Y98.383 E0.62014
G1 X103.63 Y98.178 E0.63311
G1 X103.965 Y97.848 E0.65657
G1 X104.173 Y97.691 E0.66958
G1 X104.584 Y97.459 E0.69312
G1 X104.827 Y97.361 E0.70619
G1 X105.264 Y97.245 E0.72875
G1 X105.514 Y97.212 E0.74133
G1 X105.75 Y97.197 E0.75313
G1 X114.259 Y97.198 E1.17764
G1 X114.515 Y97.216 E1.19045
G1 X114.773 Y97.253 E1.20345
G1 X115.224 Y97.38 E1.22683
G1 X115.465 Y97.483 E1.2399
G1 X115.862 Y97.716 E1.26287
G1 X116.068 Y97.876 E1.27588
G1 X116.405 Y98.219 E1.29987
G1 X116.56 Y98.426 E1.31277
G1 X116.787 Y98.829 E1.33585
G1 X116.885 Y99.071 E1.34887
G1 X117.002 Y99.512 E1.37164
G1 X117.018 Y99.636 E1.37788
G1 X117.252 Y99.574 E1.38995
G1 X117.502 Y99.541 E1.40253
G1 X117.738 Y99.526 E1.41433
G1 X126.247 Y99.527 E1.83885
G1 X126.503 Y99.545 E1.85165
G1 X126.761 Y99.582 E1.86465
G1 X127.209 Y99.707 E1.88786
G1 X127.449 Y99.809 E1.90087
G1 X127.852 Y100.047 E1.92422
G1 X128.057 Y100.207 E1.93719
G1 X128.387 Y100.542 E1.96065
G1 X128.544 Y100.75 E1.97365
G1 X128.775 Y101.158 E1.99705
G1 X128.873 Y101.4 E2.01007
G1 X128.99 Y101.841 E2.03283
G1 X129.023 Y102.092 E2.04546
G1 X129.038 Y102.327 E2.05721
G1 X129.037 Y117.835 E2.83091
G1 X129.019 Y118.09 E2.84366
G1 X128.982 Y118.349 E2.85672
G1 X128.857 Y118.798 E2.87997
G1 X128.755 Y119.038 E2.89298
G1 X128.52 Y119.437 E2.91608
G1 X128.361 Y119.642 E2.92902
G1 X128.02 Y119.978 E2.95291
G1 X127.811 Y120.135 E2.96595
G1 X127.543 Y120.302 E2.9817
G1 X127.464 Y120.342 E2.98612
G1 X127.181 Y120.456 E3.00134
G1 X126.931 Y120.533 E3.01439
G1 X126.554 Y120.606 E3.03355
G1 X126.237 Y120.627 E3.0494
G1 X117.728 Y120.626 E3.47392
G1 X117.472 Y120.608 E3.48672
G1 X117.215 Y120.571 E3.49967
G1 X116.766 Y120.445 E3.52294
G1 X116.524 Y120.342 E3.53606
G1 X116.117 Y120.102 E3.55963
G1 X115.912 Y119.941 E3.57264
G1 X115.59 Y119.613 E3.59557
G1 X115.433 Y119.406 E3.60853
G1 X115.195 Y118.984 E3.6327
G1 X115.099 Y118.743 E3.64565
G1 X114.987 Y118.32 E3.66748
G1 X114.969 Y118.188 E3.67412
G1 X114.743 Y118.248 E3.68579
G1 X114.493 Y118.282 E3.69838
G1 X114.25 Y118.298 E3.71053
G1 X105.741 Y118.297 E4.13504
G1 X105.485 Y118.279 E4.14784
G1 X105.227 Y118.242 E4.16085
G1 X104.981 Y118.173 E4.17359
G1 X104.978 Y118.194 E4.17465
G1 X104.853 Y118.642 E4.19786
G1 X104.751 Y118.882 E4.21087
G1 X104.512 Y119.286 E4.23429
G1 X104.351 Y119.492 E4.24733
G1 X104.016 Y119.821 E4.27076
G1 X103.809 Y119.977 E4.28369
G1 X103.547 Y120.142 E4.29913
G1 X103.469 Y120.182 E4.30351
G1 X103.176 Y120.301 E4.31928
G1 X102.925 Y120.378 E4.33238
G1 X102.55 Y120.45 E4.35143
G1 X102.233 Y120.471 E4.36728
G1 X93.725 Y120.471 E4.79175
G1 X93.469 Y120.453 E4.80455
G1 X93.211 Y120.416 E4.81756
G1 X92.765 Y120.291 E4.84066
G1 X92.522 Y120.188 E4.85383
G1 X92.109 Y119.944 E4.87776
G1 X91.905 Y119.783 E4.89073
G1 X91.583 Y119.454 E4.9137
G1 X91.426 Y119.246 E4.9267
G1 X91.194 Y118.836 E4.9502
G1 X91.097 Y118.596 E4.96312
G1 X90.981 Y118.158 E4.98572
G1 X90.948 Y117.908 E4.9983
G1 X90.933 Y117.672 E5.0101
G1 X90.934 Y102.162 E5.7839
G1 X90.952 Y101.906 E5.7967
G1 X90.989 Y101.648 E5.8097
G1 X91.114 Y101.2 E5.83291
G1 X91.216 Y100.96 E5.84592
G1 X91.454 Y100.557 E5.86927
G1 X91.614 Y100.352 E5.88224
G1 X91.949 Y100.022 E5.9057
G0 F6000 X92.19 Y100.342
G1 F1200 X92.398 Y100.185 E5.9187
G1 X92.716 Y100.004 E5.93696
G1 X92.958 Y99.906 E5.94998
G1 X93.301 Y99.816 E5.96768
G1 X93.552 Y99.783 E5.98031
G1 X93.734 Y99.771 E5.98941
G1 X102.243 Y99.771 E6.41392
G1 X102.442 Y99.785 E6.42387
G1 X102.7 Y99.822 E6.43688
G1 X103.049 Y99.92 E6.45496
G1 X103.289 Y100.022 E6.46797
G1 X103.35 Y100.058 E6.47151
G1 X103.364 Y99.791 E6.48485
G1 X103.401 Y99.532 E6.4979
G1 X103.499 Y99.182 E6.51603
G1 X103.601 Y98.942 E6.52904
G1 X103.785 Y98.629 E6.54716
G1 X103.945 Y98.424 E6.56013
G1 X104.206 Y98.168 E6.57837
G1 X104.414 Y98.011 E6.59137
G1 X104.733 Y97.83 E6.60967
G1 X104.976 Y97.732 E6.62274
G1 X105.317 Y97.642 E6.64034
G1 X105.567 Y97.609 E6.65292
G1 X105.75 Y97.597 E6.66207
G1 X114.259 Y97.598 E7.08658
G1 X114.458 Y97.612 E7.09653
G1 X114.716 Y97.649 E7.10954
G1 X115.067 Y97.748 E7.12773
G1 X115.308 Y97.851 E7.14081
G1 X115.617 Y98.032 E7.15867
G1 X115.823 Y98.192 E7.17169
G1 X116.085 Y98.459 E7.19035
G1 X116.24 Y98.666 E7.20325
G1 X116.417 Y98.98 E7.22124
G1 X116.515 Y99.222 E7.23426
G1 X116.605 Y99.565 E7.25195
G1 X116.638 Y99.816 E7.26458
G1 X116.65 Y100.199 E7.2837
G1 X116.721 Y100.159 E7.28777
G1 X116.964 Y100.061 E7.30084
G1 X117.305 Y99.971 E7.31843
G1 X117.555 Y99.938 E7.33101
G1 X117.738 Y99.926 E7.34016
G1 X126.247 Y99.927 E7.76468
G1 X126.446 Y99.941 E7.77463
G1 X126.704 Y99.978 E7.78764
G1 X127.053 Y100.076 E7.80572
G1 X127.293 Y100.178 E7.81873
G1 X127.606 Y100.362 E7.83684
G1 X127.811 Y100.522 E7.84982
G1 X128.067 Y100.783 E7.86806
G1 X128.224 Y100.991 E7.88106
G1 X128.405 Y101.309 E7.89931
G1 X128.503 Y101.551 E7.91234
G1 X128.593 Y101.894 E7.93003
G1 X128.626 Y102.145 E7.94266
G1 X128.638 Y102.327 E7.95176
G1 X128.637 Y117.835 E8.72546
G1 X128.623 Y118.033 E8.73536
G1 X128.586 Y118.292 E8.74841
G1 X128.488 Y118.642 E8.76655
G1 X128.386 Y118.882 E8.77956
G1 X128.204 Y119.192 E8.79749
G1 X128.045 Y119.397 E8.81044
G1 X127.78 Y119.658 E8.82899
G1 X127.571 Y119.815 E8.84203
G1 X127.283 Y119.985 E8.85872
G1 X127.063 Y120.074 E8.87056
G1 X126.813 Y120.151 E8.88361
G1 X126.52 Y120.208 E8.8985
G1 X126.237 Y120.227 E8.91265
G1 X117.728 Y120.226 E9.33717
G1 X117.529 Y120.212 E9.34712
G1 X117.272 Y120.175 E9.36007
G1 X116.923 Y120.077 E9.37816
G1 X116.681 Y119.974 E9.39128
G1 X116.364 Y119.787 E9.40964
G1 X116.159 Y119.626 E9.42265
G1 X115.909 Y119.371 E9.44046
G1 X115.752 Y119.164 E9.45342
G1 X115.566 Y118.836 E9.47224
G1 X115.47 Y118.595 E9.48518
G1 X115.384 Y118.266 E9.50214
G1 X115.35 Y118.016 E9.51473
G1 X115.337 Y117.625 E9.53425
G1 X115.262 Y117.667 E9.53854
G1 X115.019 Y117.764 E9.55159
G1 X114.689 Y117.851 E9.56862
G1 X114.439 Y117.885 E9.58121
G1 X114.25 Y117.898 E9.59066
G1 X105.741 Y117.897 E10.01517
G1 X105.542 Y117.883 E10.02513
G1 X105.284 Y117.846 E10.03813
G1 X104.935 Y117.748 E10.05621
G1 X104.693 Y117.645 E10.06934
G1 X104.633 Y117.61 E10.0728
G1 X104.619 Y117.879 E10.08624
G1 X104.582 Y118.137 E10.09924
G1 X104.484 Y118.486 E10.11733
G1 X104.382 Y118.726 E10.13034
G1 X104.197 Y119.04 E10.14852
G1 X104.036 Y119.246 E10.16156
G1 X103.776 Y119.502 E10.17977
G1 X103.569 Y119.658 E10.1927
G1 X103.287 Y119.826 E10.20908
G1 X103.059 Y119.918 E10.22134
G1 X102.808 Y119.995 E10.23444
G1 X102.516 Y120.052 E10.24928
G1 X102.233 Y120.071 E10.26343
G1 X93.725 Y120.071 E10.6879
G1 X93.526 Y120.057 E10.69785
G1 X93.268 Y120.02 E10.71086
G1 X92.921 Y119.923 E10.72883
G1 X92.678 Y119.82 E10.742
G1 X92.357 Y119.63 E10.76061
G1 X92.153 Y119.469 E10.77357
G1 X91.903 Y119.213 E10.79143
G1 X91.746 Y119.005 E10.80443
G1 X91.565 Y118.687 E10.82268
G1 X91.468 Y118.447 E10.8356
G1 X91.378 Y118.105 E10.85324
G1 X91.345 Y117.855 E10.86582
G1 X91.333 Y117.672 E10.87497
G1 X91.334 Y102.162 E11.64877
G1 X91.348 Y101.963 E11.65872
G1 X91.385 Y101.705 E11.67172
G1 X91.483 Y101.356 E11.68981
G1 X91.585 Y101.116 E11.70282
G1 X91.769 Y100.803 E11.72093
G1 X91.929 Y100.598 E11.73391
G1 X92.19 Y100.342 E11.75215
G0 F6000 X92.431 Y100.661
G1 F1200 X92.639 Y100.504 E11.76515
G1 X92.866 Y100.375 E11.77817
G1 X93.108 Y100.277 E11.7912
G1 X93.353 Y100.213 E11.80383
G1 X93.604 Y100.18 E11.81646
G1 X93.734 Y100.171 E11.82296
G1 X102.243 Y100.171 E12.24748
G1 X102.385 Y100.181 E12.25458
G1 X102.643 Y100.218 E12.26759
G1 X102.892 Y100.288 E12.28049
G1 X103.132 Y100.39 E12.2935
G1 X103.356 Y100.522 E12.30647
G1 X103.561 Y100.682 E12.31945
G1 X103.75 Y100.876 E12.33296
G1 X103.75 Y99.989 E12.37721
G1 X103.76 Y99.848 E12.38426
G1 X103.797 Y99.589 E12.39732
G1 X103.867 Y99.339 E12.41027
G1 X103.969 Y99.099 E12.42328
G1 X104.101 Y98.875 E12.43625
G1 X104.261 Y98.67 E12.44922
G1 X104.447 Y98.487 E12.46224
G1 X104.655 Y98.33 E12.47524
G1 X104.883 Y98.201 E12.48831
G1 X105.126 Y98.103 E12.50138
G1 X105.369 Y98.039 E12.51392
G1 X105.619 Y98.006 E12.5265
G1 X105.75 Y97.997 E12.53305
G1 X114.259 Y97.998 E12.95757
G1 X114.401 Y98.008 E12.96467
G1 X114.659 Y98.045 E12.97767
G1 X114.91 Y98.115 E12.99067
G1 X115.151 Y98.218 E13.00375
G1 X115.371 Y98.348 E13.0165
G1 X115.577 Y98.508 E13.02951
G1 X115.764 Y98.699 E13.04285
G1 X115.919 Y98.906 E13.05575
G1 X116.046 Y99.13 E13.0686
G1 X116.144 Y99.372 E13.08162
G1 X116.208 Y99.617 E13.09425
G1 X116.241 Y99.868 E13.10688
G1 X116.25 Y99.998 E13.11339
G1 X116.25 Y100.999 E13.16333
G1 X116.435 Y100.816 E13.17631
G1 X116.641 Y100.66 E13.1892
G1 X116.871 Y100.53 E13.20238
G1 X117.114 Y100.432 E13.21545
G1 X117.357 Y100.368 E13.22799
G1 X117.607 Y100.335 E13.24057
G1 X117.738 Y100.326 E13.24712
G1 X126.247 Y100.327 E13.67164
G1 X126.389 Y100.337 E13.67874
G1 X126.647 Y100.374 E13.69174
G1 X126.896 Y100.444 E13.70465
G1 X127.136 Y100.546 E13.71766
G1 X127.36 Y100.678 E13.73063
G1 X127.565 Y100.838 E13.7436
G1 X127.748 Y101.024 E13.75662
G1 X127.905 Y101.232 E13.76962
G1 X128.034 Y101.459 E13.78265
G1 X128.132 Y101.701 E13.79567
G1 X128.196 Y101.946 E13.80831
G1 X128.229 Y102.197 E13.82094
G1 X128.238 Y102.327 E13.82744
G1 X128.237 Y117.835 E14.60114
G1 X128.227 Y117.976 E14.60819
G1 X128.19 Y118.235 E14.62124
G1 X128.12 Y118.485 E14.63419
G1 X128.018 Y118.725 E14.6472
G1 X127.888 Y118.947 E14.66004
G1 X127.729 Y119.152 E14.67298
G1 X127.54 Y119.339 E14.68625
G1 X127.331 Y119.496 E14.69929
G1 X127.103 Y119.628 E14.71243
G1 X126.945 Y119.692 E14.72094
G1 X126.695 Y119.769 E14.73399
G1 X126.322 Y119.823 E14.75279
G1 X126.237 Y119.827 E14.75703
G1 X117.728 Y119.826 E15.18155
G1 X117.586 Y119.816 E15.18865
G1 X117.329 Y119.779 E15.20161
G1 X117.079 Y119.709 E15.21456
G1 X116.837 Y119.606 E15.22768
G1 X116.611 Y119.472 E15.24079
G1 X116.406 Y119.311 E15.25379
G1 X116.227 Y119.129 E15.26653
G1 X116.07 Y118.922 E15.27949
G1 X115.938 Y118.688 E15.29289
G1 X115.842 Y118.447 E15.30584
G1 X115.78 Y118.212 E15.31796
G1 X115.746 Y117.962 E15.33055
G1 X115.737 Y117.827 E15.3373
G1 X115.737 Y116.826 E15.38724
G1 X115.553 Y117.008 E15.40015
G1 X115.347 Y117.164 E15.41304
G1 X115.114 Y117.296 E15.4264
G1 X114.871 Y117.393 E15.43946
G1 X114.635 Y117.455 E15.45163
G1 X114.385 Y117.489 E15.46422
G1 X114.25 Y117.498 E15.47097
G1 X105.741 Y117.497 E15.89548
G1 X105.599 Y117.487 E15.90259
G1 X105.341 Y117.45 E15.91559
G1 X105.091 Y117.38 E15.92854
G1 X104.849 Y117.277 E15.94166
G1 X104.623 Y117.143 E15.95477
G1 X104.418 Y116.982 E15.96777
G1 X104.233 Y116.793 E15.98097
G1 X104.233 Y117.68 E16.02522
G1 X104.223 Y117.822 E16.03232
G1 X104.186 Y118.08 E16.04533
G1 X104.116 Y118.329 E16.05823
G1 X104.014 Y118.569 E16.07124
G1 X103.882 Y118.794 E16.08426
G1 X103.721 Y119 E16.0973
G1 X103.535 Y119.183 E16.11032
G1 X103.328 Y119.339 E16.12325
G1 X103.104 Y119.47 E16.1362
G1 X102.941 Y119.536 E16.14497
G1 X102.69 Y119.613 E16.15807
G1 X102.318 Y119.667 E16.17682
G1 X102.233 Y119.671 E16.18107
G1 X93.725 Y119.671 E16.60553
G1 X93.583 Y119.661 E16.61263
G1 X93.325 Y119.624 E16.62564
G1 X93.077 Y119.555 E16.63848
G1 X92.834 Y119.452 E16.65165
G1 X92.604 Y119.316 E16.66498
G1 X92.4 Y119.155 E16.67794
G1 X92.222 Y118.972 E16.69068
G1 X92.065 Y118.764 E16.70368
G1 X91.936 Y118.537 E16.71671
G1 X91.839 Y118.297 E16.72962
G1 X91.775 Y118.053 E16.74221
G1 X91.742 Y117.803 E16.75479
G1 X91.733 Y117.672 E16.76134
G1 X91.734 Y102.162 E17.53514
G1 X91.744 Y102.02 E17.54224
G1 X91.781 Y101.762 E17.55524
G1 X91.851 Y101.513 E17.56815
G1 X91.953 Y101.273 E17.58116
G1 X92.085 Y101.049 E17.59413
G1 X92.245 Y100.844 E17.6071
G1 X92.431 Y100.661 E17.62012
G0 F6000 X92.672 Y100.98
G1 F1200 X92.88 Y100.823 E17.63312
G1 X93.016 Y100.746 E17.64092
G1 X93.258 Y100.648 E17.65394
G1 X93.405 Y100.609 E17.66153
G1 X93.656 Y100.576 E17.67416
G1 X93.734 Y100.571 E17.67806
G1 X102.243 Y100.571 E18.10258
G1 X102.328 Y100.577 E18.10683
G1 X102.586 Y100.614 E18.11983
G1 X102.736 Y100.656 E18.1276
G1 X102.976 Y100.758 E18.14061
G1 X103.11 Y100.837 E18.14837
G1 X103.315 Y100.997 E18.16135
G1 X103.425 Y101.109 E18.16918
G1 X103.582 Y101.317 E18.18218
G1 X103.659 Y101.454 E18.19002
G1 X103.757 Y101.697 E18.20309
G1 X103.796 Y101.842 E18.21058
G1 X103.829 Y102.091 E18.22312
G1 X103.834 Y102.17 E18.22706
G1 X103.833 Y117.68 E19.00086
G1 X103.827 Y117.765 E19.00511
G1 X103.79 Y118.023 E19.01812
G1 X103.748 Y118.173 E19.02589
G1 X103.646 Y118.413 E19.0389
G1 X103.567 Y118.547 E19.04666
G1 X103.406 Y118.753 E19.0597
G1 X103.294 Y118.863 E19.06753
G1 X103.087 Y119.019 E19.08047
G1 X102.824 Y119.154 E19.09521
G1 X102.573 Y119.231 E19.10831
G1 X102.284 Y119.269 E19.12286
G1 X102.233 Y119.271 E19.1254
G1 X93.725 Y119.271 E19.54987
G1 X93.64 Y119.265 E19.55412
G1 X93.382 Y119.228 E19.56712
G1 X93.233 Y119.186 E19.57485
G1 X92.99 Y119.083 E19.58801
G1 X92.852 Y119.002 E19.596
G1 X92.648 Y118.841 E19.60896
G1 X92.541 Y118.731 E19.61662
G1 X92.384 Y118.523 E19.62962
G1 X92.307 Y118.387 E19.63742
G1 X92.21 Y118.147 E19.65033
G1 X92.171 Y118.001 E19.65787
G1 X92.138 Y117.751 E19.67045
G1 X92.133 Y117.672 E19.6744
G1 X92.134 Y102.162 E20.4482
G1 X92.14 Y102.077 E20.45245
G1 X92.177 Y101.819 E20.46545
G1 X92.219 Y101.669 E20.47322
G1 X92.321 Y101.429 E20.48623
G1 X92.4 Y101.295 E20.49399
G1 X92.56 Y101.09 E20.50697
G1 X92.672 Y100.98 E20.5148
G0 F6000 X92.913 Y101.299
G1 F1200 X93.121 Y101.142 E20.5278
G1 X93.166 Y101.117 E20.53037
G1 X93.408 Y101.019 E20.5434
G1 X93.457 Y101.006 E20.54592
G1 X93.734 Y100.971 E20.55985
G1 X102.243 Y100.971 E20.98437
G1 X102.271 Y100.973 E20.98577
G1 X102.529 Y101.01 E20.99877
G1 X102.579 Y101.024 E21.00136
G1 X102.819 Y101.126 E21.01437
G1 X102.864 Y101.152 E21.01697
G1 X103.069 Y101.312 E21.02994
G1 X103.106 Y101.35 E21.03259
G1 X103.263 Y101.558 E21.04559
G1 X103.288 Y101.603 E21.04816
G1 X103.386 Y101.846 E21.06123
G1 X103.399 Y101.895 E21.06376
G1 X103.434 Y102.17 E21.07759
G1 X103.433 Y117.68 E21.85139
G1 X103.431 Y117.708 E21.85279
G1 X103.394 Y117.966 E21.86579
G1 X103.38 Y118.016 E21.86838
G1 X103.278 Y118.256 E21.88139
G1 X103.252 Y118.301 E21.88398
G1 X103.091 Y118.507 E21.89703
G1 X103.053 Y118.544 E21.89967
G1 X102.846 Y118.7 E21.9126
G1 X102.707 Y118.771 E21.92039
G1 X102.456 Y118.848 E21.93349
G1 X102.233 Y118.871 E21.94467
G1 X93.725 Y118.871 E22.36914
G1 X93.697 Y118.869 E22.37054
G1 X93.439 Y118.832 E22.38354
G1 X93.389 Y118.818 E22.38613
G1 X93.146 Y118.715 E22.3993
G1 X93.1 Y118.688 E22.40196
G1 X92.896 Y118.527 E22.41493
G1 X92.86 Y118.49 E22.4175
G1 X92.703 Y118.282 E22.43051
G1 X92.678 Y118.237 E22.43307
G1 X92.581 Y117.997 E22.44599
G1 X92.568 Y117.948 E22.44852
G1 X92.533 Y117.672 E22.4624
G1 X92.534 Y102.162 E23.23619
G1 X92.536 Y102.134 E23.23759
G1 X92.573 Y101.876 E23.2506
G1 X92.587 Y101.826 E23.25319
G1 X92.689 Y101.586 E23.2662
G1 X92.715 Y101.541 E23.26879
G1 X92.875 Y101.336 E23.28177
G1 X92.913 Y101.299 E23.28441
G1 F1500 E16.78441
G0 F6000 X92.916 Y100.722
G0 X93.409 Y100.548
G0 X104.085 Y99.989
G0 X104.15 Y99.989
G1 F1500 E23.28441
G1 F1200 X104.156 Y99.904 E23.28866
G1 X104.193 Y99.645 E23.30172
G1 X104.235 Y99.495 E23.30949
G1 X104.337 Y99.255 E23.3225
G1 X104.416 Y99.121 E23.33026
G1 X104.576 Y98.916 E23.34323
G1 X104.688 Y98.806 E23.35106
