;FLAVOR:Marlin
;TIME:2422
;Filament used: 1.84683m
;Layer height: 0.3
;MINX:79.15
;MINY:84.35
;MINZ:0.3
;MAXX:128.95
;MAXY:132.5
;MAXZ:6.3
;Generated with Cura_SteamEngine 4.12.0
M140 S60
M105
M190 S60
M104 S224
M105
M109 S224
M82 ;absolute extrusion mode
G1 Z15.0 F2000 ;Move the platform
G28 ;Home
G29 ; Autolevel
;G92 X-4 Y-10 Z0; custom offset ??? Looks it does not work.
G92 E0
G92 E0
G1 F1500 E-6.5
;LAYER_COUNT:21
;LAYER:0
M107
M204 S1000
G0 F6000 X80.275 Y99.963 Z0.3
;TYPE:SKIRT
G1 F1500 E0
G1 F1200 X80.503 Y99.809 E0.01373
G1 X80.952 Y99.59 E0.03865
G1 X81.215 Y99.504 E0.05245
G1 X81.621 Y99.422 E0.07312
G1 X81.95 Y99.4 E0.08957
G1 X90.458 Y99.4 E0.51404
G1 X90.724 Y99.42 E0.52734
G1 X90.998 Y99.461 E0.54117
G1 X91.471 Y99.6 E0.56576
G1 X91.724 Y99.714 E0.57961
G1 X92.151 Y99.984 E0.60481
G1 X92.175 Y99.963 E0.6064
G1 X92.403 Y99.809 E0.62013
G1 X92.852 Y99.59 E0.64505
G1 X93.115 Y99.504 E0.65886
G1 X93.521 Y99.422 E0.67952
G1 X93.85 Y99.4 E0.69597
G1 X102.358 Y99.4 E1.12044
G1 X102.624 Y99.42 E1.13375
G1 X102.898 Y99.461 E1.14757
G1 X102.95 Y99.476 E1.15027
G1 X102.95 Y99.042 E1.17192
G1 X102.97 Y98.776 E1.18523
G1 X103.011 Y98.502 E1.19905
G1 X103.026 Y98.45 E1.20175
G1 X102.192 Y98.45 E1.24336
G1 X101.926 Y98.43 E1.25667
G1 X101.652 Y98.389 E1.27049
G1 X101.179 Y98.25 E1.29509
G1 X100.926 Y98.136 E1.30893
G1 X100.501 Y97.868 E1.334
G1 X100.291 Y97.69 E1.34773
G1 X99.962 Y97.323 E1.37232
G1 X99.807 Y97.093 E1.38616
G1 X99.588 Y96.644 E1.41108
G1 X99.503 Y96.383 E1.42478
G1 X99.422 Y95.979 E1.44533
G1 X99.4 Y95.65 E1.46178
G1 X99.4 Y87.142 E1.88625
G1 X99.42 Y86.876 E1.89956
G1 X99.461 Y86.602 E1.91338
G1 X99.599 Y86.132 E1.93782
G1 X99.712 Y85.88 E1.9516
G1 X99.981 Y85.452 E1.97682
G1 X100.16 Y85.241 E1.99062
G1 X100.525 Y84.913 E2.0151
G1 X100.753 Y84.759 E2.02883
G1 X101.202 Y84.54 E2.05375
G1 X101.465 Y84.454 E2.06756
G1 X101.871 Y84.372 E2.08822
G1 X102.2 Y84.35 E2.10467
G1 X117.708 Y84.35 E2.87837
G1 X117.974 Y84.37 E2.89168
G1 X118.248 Y84.411 E2.9055
G1 X118.721 Y84.55 E2.9301
G1 X118.974 Y84.664 E2.94394
G1 X119.399 Y84.932 E2.96901
G1 X119.609 Y85.11 E2.98274
G1 X119.937 Y85.475 E3.00722
G1 X120.091 Y85.703 E3.02095
G1 X120.31 Y86.152 E3.04587
G1 X120.396 Y86.415 E3.05968
G1 X120.478 Y86.821 E3.08034
G1 X120.5 Y87.15 E3.09679
G1 X120.5 Y95.658 E3.52126
G1 X120.48 Y95.924 E3.53457
G1 X120.439 Y96.198 E3.54839
G1 X120.355 Y96.536 E3.56577
G1 X120.324 Y96.623 E3.57037
G1 X120.197 Y96.901 E3.58562
G1 X120.062 Y97.141 E3.59936
G1 X119.749 Y97.548 E3.62497
G1 X119.55 Y97.742 E3.63884
G1 X119.159 Y98.032 E3.66313
G1 X118.918 Y98.164 E3.67684
G1 X118.461 Y98.338 E3.70123
G1 X118.199 Y98.399 E3.71465
G1 X117.87 Y98.444 E3.73122
G1 X117.7 Y98.45 E3.73971
G1 X116.973 Y98.45 E3.77598
G1 X117.028 Y98.721 E3.78977
G1 X117.05 Y99.05 E3.80622
G1 X117.05 Y99.477 E3.82753
G1 X117.321 Y99.422 E3.84132
G1 X117.65 Y99.4 E3.85777
G1 X126.158 Y99.4 E4.28224
G1 X126.424 Y99.42 E4.29555
G1 X126.698 Y99.461 E4.30937
G1 X127.171 Y99.6 E4.33396
G1 X127.424 Y99.714 E4.34781
G1 X127.849 Y99.982 E4.37288
G1 X128.059 Y100.16 E4.38661
G1 X128.387 Y100.525 E4.41109
G1 X128.541 Y100.753 E4.42482
G1 X128.76 Y101.202 E4.44974
G1 X128.846 Y101.465 E4.46355
G1 X128.928 Y101.871 E4.48421
G1 X128.95 Y102.2 E4.50066
G1 X128.95 Y117.708 E5.27436
G1 X128.93 Y117.974 E5.28767
G1 X128.889 Y118.248 E5.30149
G1 X128.805 Y118.586 E5.31887
G1 X128.774 Y118.673 E5.32347
G1 X128.647 Y118.951 E5.33872
G1 X128.512 Y119.191 E5.35246
G1 X128.199 Y119.598 E5.37808
G1 X128 Y119.792 E5.39194
G1 X127.609 Y120.082 E5.41623
G1 X127.368 Y120.214 E5.42994
G1 X126.911 Y120.388 E5.45433
G1 X126.649 Y120.449 E5.46775
G1 X126.32 Y120.494 E5.48432
G1 X126.15 Y120.5 E5.49281
G1 X120.403 Y120.5 E5.77953
G1 X120.478 Y120.871 E5.79841
G1 X120.5 Y121.2 E5.81486
G1 X120.5 Y129.708 E6.23933
G1 X120.48 Y129.974 E6.25263
G1 X120.439 Y130.248 E6.26646
G1 X120.355 Y130.586 E6.28383
G1 X120.324 Y130.673 E6.28844
G1 X120.197 Y130.951 E6.30369
G1 X120.062 Y131.191 E6.31743
G1 X119.749 Y131.598 E6.34304
G1 X119.55 Y131.792 E6.35691
G1 X119.159 Y132.082 E6.38119
G1 X118.918 Y132.214 E6.3949
G1 X118.461 Y132.388 E6.4193
G1 X118.199 Y132.449 E6.43272
G1 X117.87 Y132.494 E6.44929
G1 X117.7 Y132.5 E6.45777
G1 X102.192 Y132.5 E7.23147
G1 X101.926 Y132.48 E7.24478
G1 X101.652 Y132.439 E7.2586
G1 X101.179 Y132.3 E7.2832
G1 X100.926 Y132.186 E7.29704
G1 X100.501 Y131.918 E7.32211
G1 X100.291 Y131.74 E7.33584
G1 X99.962 Y131.373 E7.36043
G1 X99.807 Y131.143 E7.37427
G1 X99.588 Y130.694 E7.39919
G1 X99.503 Y130.433 E7.41289
G1 X99.422 Y130.029 E7.43344
G1 X99.4 Y129.7 E7.44989
G1 X99.4 Y121.192 E7.87436
G1 X99.42 Y120.926 E7.88767
G1 X99.461 Y120.652 E7.90149
G1 X99.506 Y120.5 E7.9094
G1 X93.842 Y120.5 E8.19198
G1 X93.576 Y120.48 E8.20529
G1 X93.302 Y120.439 E8.21911
G1 X92.829 Y120.3 E8.2437
G1 X92.576 Y120.186 E8.25755
G1 X92.141 Y119.91 E8.28325
G1 X91.909 Y120.082 E8.29766
G1 X91.668 Y120.214 E8.31137
G1 X91.211 Y120.388 E8.33576
G1 X90.949 Y120.449 E8.34919
G1 X90.62 Y120.494 E8.36575
G1 X90.45 Y120.5 E8.37424
G1 X81.942 Y120.5 E8.7987
G1 X81.676 Y120.48 E8.81201
G1 X81.402 Y120.439 E8.82583
G1 X80.929 Y120.3 E8.85043
G1 X80.676 Y120.186 E8.86427
G1 X80.251 Y119.918 E8.88934
G1 X80.041 Y119.74 E8.90308
G1 X79.712 Y119.373 E8.92767
G1 X79.557 Y119.143 E8.9415
G1 X79.338 Y118.694 E8.96643
G1 X79.253 Y118.433 E8.98012
G1 X79.172 Y118.029 E9.00068
G1 X79.15 Y117.7 E9.01713
G1 X79.15 Y102.192 E9.79083
G1 X79.17 Y101.926 E9.80413
G1 X79.211 Y101.652 E9.81796
G1 X79.349 Y101.182 E9.84239
G1 X79.462 Y100.93 E9.85617
G1 X79.731 Y100.502 E9.88139
G1 X79.91 Y100.291 E9.8952
G1 X80.275 Y99.963 E9.91968
G0 F6000 X80.499 Y100.295
G1 F1200 X80.727 Y100.141 E9.93341
G1 X81.076 Y99.97 E9.9528
G1 X81.339 Y99.884 E9.9666
G1 X81.655 Y99.82 E9.98269
G1 X81.95 Y99.8 E9.99744
G1 X90.458 Y99.8 E10.4219
G1 X90.665 Y99.815 E10.43226
G1 X90.939 Y99.856 E10.44608
G1 X91.307 Y99.965 E10.46523
G1 X91.56 Y100.079 E10.47907
G1 X91.89 Y100.287 E10.49853
G1 X92.1 Y100.465 E10.51227
G1 X92.149 Y100.519 E10.51591
G1 X92.399 Y100.295 E10.53265
G1 X92.627 Y100.141 E10.54638
G1 X92.976 Y99.97 E10.56577
G1 X93.239 Y99.884 E10.57957
G1 X93.555 Y99.82 E10.59566
G1 X93.85 Y99.8 E10.61041
G1 X102.358 Y99.8 E11.03488
G1 X102.565 Y99.815 E11.04523
G1 X102.839 Y99.856 E11.05905
G1 X103.207 Y99.965 E11.0782
G1 X103.35 Y100.029 E11.08602
G1 X103.35 Y99.042 E11.13526
G1 X103.365 Y98.835 E11.14561
G1 X103.406 Y98.561 E11.15943
G1 X103.514 Y98.195 E11.17847
G1 X103.579 Y98.05 E11.1864
G1 X102.192 Y98.05 E11.2556
G1 X101.985 Y98.035 E11.26595
G1 X101.711 Y97.994 E11.27977
G1 X101.343 Y97.885 E11.29892
G1 X101.09 Y97.771 E11.31277
G1 X100.76 Y97.563 E11.33223
G1 X100.55 Y97.385 E11.34596
G1 X100.294 Y97.099 E11.36511
G1 X100.139 Y96.869 E11.37895
G1 X99.969 Y96.521 E11.39827
G1 X99.884 Y96.26 E11.41197
G1 X99.82 Y95.945 E11.428
G1 X99.8 Y95.65 E11.44275
G1 X99.8 Y87.142 E11.86722
G1 X99.815 Y86.935 E11.87757
G1 X99.856 Y86.661 E11.8914
G1 X99.964 Y86.295 E11.91043
G1 X100.077 Y86.043 E11.92421
G1 X100.286 Y85.71 E11.94383
G1 X100.465 Y85.499 E11.95763
G1 X100.749 Y85.245 E11.97664
G1 X100.977 Y85.091 E11.99037
G1 X101.326 Y84.92 E12.00976
G1 X101.589 Y84.834 E12.02356
G1 X101.905 Y84.77 E12.03965
G1 X102.2 Y84.75 E12.0544
G1 X117.708 Y84.75 E12.8281
G1 X117.915 Y84.765 E12.83845
G1 X118.189 Y84.806 E12.85227
G1 X118.557 Y84.915 E12.87142
G1 X118.81 Y85.029 E12.88526
G1 X119.14 Y85.237 E12.90473
G1 X119.35 Y85.415 E12.91846
G1 X119.605 Y85.699 E12.9375
G1 X119.759 Y85.927 E12.95123
G1 X119.93 Y86.276 E12.97062
G1 X120.016 Y86.539 E12.98442
G1 X120.08 Y86.855 E13.00051
G1 X120.1 Y87.15 E13.01526
G1 X120.1 Y95.658 E13.43973
G1 X120.085 Y95.865 E13.45008
G1 X120.044 Y96.139 E13.4639
G1 X119.978 Y96.402 E13.47743
G1 X119.848 Y96.705 E13.49388
G1 X119.713 Y96.945 E13.50762
G1 X119.47 Y97.261 E13.52751
G1 X119.271 Y97.455 E13.54137
G1 X118.967 Y97.681 E13.56027
G1 X118.726 Y97.813 E13.57398
G1 X118.37 Y97.949 E13.59299
G1 X118.108 Y98.01 E13.60641
G1 X117.852 Y98.045 E13.6193
G1 X117.7 Y98.05 E13.62689
G1 X116.418 Y98.05 E13.69085
G1 X116.48 Y98.176 E13.69786
G1 X116.566 Y98.439 E13.71166
G1 X116.63 Y98.755 E13.72775
G1 X116.65 Y99.05 E13.7425
G1 X116.65 Y100.032 E13.79149
G1 X116.776 Y99.97 E13.79849
G1 X117.039 Y99.884 E13.8123
G1 X117.355 Y99.82 E13.82839
G1 X117.65 Y99.8 E13.84314
G1 X126.158 Y99.8 E14.2676
G1 X126.365 Y99.815 E14.27796
G1 X126.639 Y99.856 E14.29178
G1 X127.007 Y99.965 E14.31093
G1 X127.26 Y100.079 E14.32477
G1 X127.59 Y100.287 E14.34423
G1 X127.8 Y100.465 E14.35797
G1 X128.055 Y100.749 E14.37701
G1 X128.209 Y100.977 E14.39074
G1 X128.38 Y101.326 E14.41012
G1 X128.466 Y101.589 E14.42393
G1 X128.53 Y101.905 E14.44002
G1 X128.55 Y102.2 E14.45477
G1 X128.55 Y117.708 E15.22846
G1 X128.535 Y117.915 E15.23882
G1 X128.494 Y118.189 E15.25264
G1 X128.428 Y118.452 E15.26617
G1 X128.298 Y118.755 E15.28262
G1 X128.163 Y118.995 E15.29636
G1 X127.92 Y119.311 E15.31624
G1 X127.721 Y119.505 E15.33011
G1 X127.417 Y119.731 E15.34901
G1 X127.176 Y119.863 E15.36272
G1 X126.82 Y119.999 E15.38173
G1 X126.558 Y120.06 E15.39515
G1 X126.302 Y120.095 E15.40804
G1 X126.15 Y120.1 E15.41563
G1 X119.819 Y120.1 E15.73148
G1 X119.93 Y120.326 E15.74404
G1 X120.016 Y120.589 E15.75785
G1 X120.08 Y120.905 E15.77393
G1 X120.1 Y121.2 E15.78869
G1 X120.1 Y129.708 E16.21315
G1 X120.085 Y129.915 E16.22351
G1 X120.044 Y130.189 E16.23733
G1 X119.978 Y130.452 E16.25086
G1 X119.848 Y130.755 E16.26731
G1 X119.713 Y130.995 E16.28104
G1 X119.47 Y131.311 E16.30093
G1 X119.271 Y131.505 E16.3148
G1 X118.967 Y131.731 E16.33369
G1 X118.726 Y131.863 E16.3474
G1 X118.37 Y131.999 E16.36642
G1 X118.108 Y132.06 E16.37984
G1 X117.852 Y132.095 E16.39273
G1 X117.7 Y132.1 E16.40032
G1 X102.192 Y132.1 E17.17401
G1 X101.985 Y132.085 E17.18437
G1 X101.711 Y132.044 E17.19819
G1 X101.343 Y131.935 E17.21734
G1 X101.09 Y131.821 E17.23118
G1 X100.76 Y131.613 E17.25064
G1 X100.55 Y131.435 E17.26438
G1 X100.294 Y131.149 E17.28353
G1 X100.139 Y130.919 E17.29736
G1 X99.969 Y130.571 E17.31669
G1 X99.884 Y130.31 E17.33038
G1 X99.82 Y129.995 E17.34642
G1 X99.8 Y129.7 E17.36117
G1 X99.8 Y121.192 E17.78564
G1 X99.815 Y120.985 E17.79599
G1 X99.856 Y120.711 E17.80981
G1 X99.964 Y120.345 E17.82885
G1 X100.074 Y120.1 E17.84225
G1 X93.842 Y120.1 E18.15316
G1 X93.635 Y120.085 E18.16352
G1 X93.361 Y120.044 E18.17734
G1 X92.993 Y119.935 E18.19649
G1 X92.74 Y119.821 E18.21033
G1 X92.41 Y119.613 E18.22979
G1 X92.2 Y119.435 E18.24353
G1 X92.15 Y119.379 E18.24727
G1 X92.021 Y119.505 E18.25627
G1 X91.717 Y119.731 E18.27517
G1 X91.476 Y119.863 E18.28888
G1 X91.12 Y119.999 E18.30789
G1 X90.858 Y120.06 E18.32131
G1 X90.602 Y120.095 E18.3342
G1 X90.45 Y120.1 E18.34179
G1 X81.942 Y120.1 E18.76626
G1 X81.735 Y120.085 E18.77661
G1 X81.461 Y120.044 E18.79043
G1 X81.093 Y119.935 E18.80958
G1 X80.84 Y119.821 E18.82342
G1 X80.51 Y119.613 E18.84289
G1 X80.3 Y119.435 E18.85662
G1 X80.044 Y119.149 E18.87577
G1 X79.889 Y118.919 E18.88961
G1 X79.719 Y118.571 E18.90893
G1 X79.634 Y118.31 E18.92262
G1 X79.57 Y117.995 E18.93866
G1 X79.55 Y117.7 E18.95341
G1 X79.55 Y102.192 E19.72711
G1 X79.565 Y101.985 E19.73746
G1 X79.606 Y101.711 E19.75129
G1 X79.714 Y101.345 E19.77032
G1 X79.827 Y101.093 E19.7841
G1 X80.036 Y100.76 E19.80372
G1 X80.215 Y100.549 E19.81752
G1 X80.499 Y100.295 E19.83653
G0 F6000 X80.723 Y100.626
G1 F1200 X80.951 Y100.472 E19.85026
G1 X81.2 Y100.351 E19.86407
G1 X81.463 Y100.265 E19.87787
G1 X81.865 Y100.204 E19.89816
G1 X81.95 Y100.2 E19.9024
G1 X90.458 Y100.2 E20.32687
G1 X90.606 Y100.211 E20.33427
G1 X90.88 Y100.252 E20.3481
G1 X91.143 Y100.329 E20.36177
G1 X91.396 Y100.443 E20.37561
G1 X91.632 Y100.592 E20.38954
G1 X91.842 Y100.77 E20.40327
G1 X92.024 Y100.973 E20.41687
G1 X92.152 Y101.162 E20.42826
G1 X92.241 Y101.019 E20.43666
G1 X92.42 Y100.808 E20.45047
G1 X92.623 Y100.626 E20.46407
G1 X92.851 Y100.472 E20.4778
G1 X93.1 Y100.351 E20.49161
G1 X93.363 Y100.265 E20.50541
G1 X93.765 Y100.204 E20.5257
G1 X93.85 Y100.2 E20.52995
G1 X102.358 Y100.2 E20.95441
G1 X102.506 Y100.211 E20.96182
G1 X102.78 Y100.252 E20.97564
G1 X103.043 Y100.329 E20.98931
G1 X103.296 Y100.443 E21.00315
G1 X103.532 Y100.592 E21.01708
G1 X103.742 Y100.77 E21.03081
G1 X103.75 Y100.779 E21.03141
G1 X103.75 Y99.042 E21.11807
G1 X103.761 Y98.894 E21.12548
G1 X103.802 Y98.62 E21.1393
G1 X103.879 Y98.359 E21.15287
G1 X103.992 Y98.107 E21.16665
G1 X104.141 Y97.869 E21.18066
G1 X104.32 Y97.658 E21.19447
G1 X104.329 Y97.65 E21.19507
G1 X102.192 Y97.65 E21.30168
G1 X102.044 Y97.639 E21.30909
G1 X101.77 Y97.598 E21.32291
G1 X101.507 Y97.521 E21.33658
G1 X101.254 Y97.407 E21.35043
G1 X101.018 Y97.258 E21.36435
G1 X100.808 Y97.08 E21.37808
G1 X100.626 Y96.876 E21.39172
G1 X100.471 Y96.646 E21.40556
G1 X100.349 Y96.397 E21.41939
G1 X100.264 Y96.136 E21.43309
G1 X100.204 Y95.735 E21.45332
G1 X100.2 Y95.65 E21.45756
G1 X100.2 Y87.142 E21.88203
G1 X100.211 Y86.994 E21.88943
G1 X100.252 Y86.72 E21.90325
G1 X100.329 Y86.459 E21.91683
G1 X100.442 Y86.207 E21.93061
G1 X100.591 Y85.969 E21.94462
G1 X100.77 Y85.758 E21.95842
G1 X100.973 Y85.576 E21.97202
G1 X101.201 Y85.422 E21.98575
G1 X101.45 Y85.301 E21.99956
G1 X101.713 Y85.215 E22.01337
G1 X102.115 Y85.154 E22.03365
G1 X102.2 Y85.15 E22.0379
G1 X117.708 Y85.15 E22.8116
G1 X117.856 Y85.161 E22.819
G1 X118.13 Y85.202 E22.83282
G1 X118.393 Y85.279 E22.84649
G1 X118.646 Y85.393 E22.86034
G1 X118.882 Y85.542 E22.87426
G1 X119.092 Y85.72 E22.888
G1 X119.274 Y85.923 E22.9016
G1 X119.428 Y86.151 E22.91533
G1 X119.549 Y86.4 E22.92914
G1 X119.635 Y86.663 E22.94294
G1 X119.696 Y87.065 E22.96323
G1 X119.7 Y87.15 E22.96747
G1 X119.7 Y95.658 E23.39194
G1 X119.689 Y95.806 E23.39934
G1 X119.648 Y96.08 E23.41317
G1 X119.57 Y96.355 E23.42743
G1 X119.5 Y96.509 E23.43587
G1 X119.365 Y96.749 E23.4496
G1 X119.191 Y96.975 E23.46383
G1 X118.992 Y97.169 E23.4777
G1 X118.774 Y97.33 E23.49122
G1 X118.533 Y97.462 E23.50493
G1 X118.28 Y97.559 E23.51845
G1 X118.018 Y97.62 E23.53187
G1 X117.744 Y97.649 E23.54561
G1 X115.669 Y97.65 E23.64914
G1 X115.824 Y97.823 E23.66072
G1 X115.978 Y98.051 E23.67445
G1 X116.099 Y98.3 E23.68826
G1 X116.185 Y98.563 E23.70207
G1 X116.246 Y98.965 E23.72235
G1 X116.25 Y99.05 E23.7266
G1 X116.25 Y100.781 E23.81296
G1 X116.423 Y100.626 E23.82455
G1 X116.651 Y100.472 E23.83827
G1 X116.9 Y100.351 E23.85209
G1 X117.163 Y100.265 E23.86589
G1 X117.565 Y100.204 E23.88618
G1 X117.65 Y100.2 E23.89042
G1 X126.158 Y100.2 E24.31489
G1 X126.306 Y100.211 E24.32229
G1 X126.58 Y100.252 E24.33611
G1 X126.843 Y100.329 E24.34978
G1 X127.096 Y100.443 E24.36363
G1 X127.332 Y100.592 E24.37755
G1 X127.542 Y100.77 E24.39129
G1 X127.724 Y100.973 E24.40489
G1 X127.878 Y101.201 E24.41862
G1 X127.999 Y101.45 E24.43243
G1 X128.085 Y101.713 E24.44623
G1 X128.146 Y102.115 E24.46652
G1 X128.15 Y102.2 E24.47076
G1 X128.15 Y117.708 E25.24446
G1 X128.139 Y117.856 E25.25187
G1 X128.098 Y118.13 E25.26569
G1 X128.02 Y118.405 E25.27995
G1 X127.95 Y118.559 E25.28839
G1 X127.815 Y118.799 E25.30213
G1 X127.641 Y119.025 E25.31636
G1 X127.442 Y119.219 E25.33022
G1 X127.224 Y119.38 E25.34374
G1 X126.983 Y119.512 E25.35745
G1 X126.73 Y119.609 E25.37097
G1 X126.468 Y119.67 E25.38439
G1 X126.194 Y119.699 E25.39814
G1 X119.009 Y119.7 E25.7566
G1 X119.092 Y119.77 E25.76201
G1 X119.274 Y119.973 E25.77562
G1 X119.428 Y120.201 E25.78934
G1 X119.549 Y120.45 E25.80315
G1 X119.635 Y120.713 E25.81696
G1 X119.696 Y121.115 E25.83724
G1 X119.7 Y121.2 E25.84149
G1 X119.7 Y129.708 E26.26596
G1 X119.689 Y129.856 E26.27336
G1 X119.648 Y130.13 E26.28718
G1 X119.57 Y130.405 E26.30144
G1 X119.5 Y130.559 E26.30988
G1 X119.365 Y130.799 E26.32362
G1 X119.191 Y131.025 E26.33785
G1 X118.992 Y131.219 E26.35172
G1 X118.774 Y131.38 E26.36524
G1 X118.533 Y131.512 E26.37894
G1 X118.28 Y131.609 E26.39246
G1 X118.018 Y131.67 E26.40588
G1 X117.744 Y131.699 E26.41963
G1 X102.192 Y131.7 E27.19552
G1 X102.044 Y131.689 E27.20293
G1 X101.77 Y131.648 E27.21675
G1 X101.507 Y131.571 E27.23042
G1 X101.254 Y131.457 E27.24427
G1 X101.018 Y131.308 E27.25819
