;FLAVOR:Marlin
;TIME:1171
;Filament used: 0.906577m
;Layer height: 0.3
;MINX:91.05
;MINY:96.25
;MINZ:0.3
;MAXX:128.95
;MAXY:120.5
;MAXZ:6.3
;Generated with Cura_SteamEngine 4.12.0
M140 S60
M105
M190 S60
M104 S224
M105
M109 S224
M82 ;absolute extrusion mode
G1 Z15.0 F2000 ;Move the platform
G28 ;Home
G29 ; Autolevel
;G92 X-4 Y-10 Z0; custom offset ??? Looks it does not work.
G92 E0
G92 E0
G1 F1500 E-6.5
;LAYER_COUNT:21
;LAYER:0
M107
M204 S1000
G0 F6000 X91.81 Y100.291 Z0.3
;TYPE:SKIRT
G1 F1500 E0
G1 F1200 X92.175 Y99.963 E0.02448
G1 X92.403 Y99.809 E0.03821
G1 X92.852 Y99.59 E0.06313
G1 X93.115 Y99.504 E0.07694
G1 X93.521 Y99.422 E0.0976
G1 X93.85 Y99.4 E0.11405
G1 X102.358 Y99.4 E0.53852
G1 X102.624 Y99.42 E0.55183
G1 X102.898 Y99.461 E0.56565
G1 X102.95 Y99.476 E0.56835
G1 X102.95 Y99.042 E0.59
G1 X102.97 Y98.776 E0.60331
G1 X103.011 Y98.502 E0.61713
G1 X103.149 Y98.032 E0.64157
G1 X103.262 Y97.78 E0.65535
G1 X103.531 Y97.352 E0.68057
G1 X103.71 Y97.141 E0.69437
G1 X104.075 Y96.813 E0.71885
G1 X104.303 Y96.659 E0.73258
G1 X104.752 Y96.44 E0.7575
G1 X105.015 Y96.354 E0.77131
G1 X105.421 Y96.272 E0.79197
G1 X105.75 Y96.25 E0.80842
G1 X114.258 Y96.25 E1.23289
G1 X114.524 Y96.27 E1.2462
G1 X114.798 Y96.311 E1.26002
G1 X115.271 Y96.45 E1.28462
G1 X115.524 Y96.564 E1.29846
G1 X115.949 Y96.832 E1.32353
G1 X116.159 Y97.01 E1.33726
G1 X116.487 Y97.375 E1.36174
G1 X116.641 Y97.603 E1.37547
G1 X116.86 Y98.052 E1.40039
G1 X116.946 Y98.315 E1.4142
G1 X117.028 Y98.721 E1.43486
G1 X117.05 Y99.05 E1.45131
G1 X117.05 Y99.477 E1.47262
G1 X117.321 Y99.422 E1.48641
G1 X117.65 Y99.4 E1.50286
G1 X126.158 Y99.4 E1.92733
G1 X126.424 Y99.42 E1.94064
G1 X126.698 Y99.461 E1.95446
G1 X127.171 Y99.6 E1.97906
G1 X127.424 Y99.714 E1.9929
G1 X127.849 Y99.982 E2.01797
G1 X128.059 Y100.16 E2.0317
G1 X128.387 Y100.525 E2.05618
G1 X128.541 Y100.753 E2.06991
G1 X128.76 Y101.202 E2.09483
G1 X128.846 Y101.465 E2.10864
G1 X128.928 Y101.871 E2.1293
G1 X128.95 Y102.2 E2.14575
G1 X128.95 Y117.708 E2.91945
G1 X128.93 Y117.974 E2.93276
G1 X128.889 Y118.248 E2.94658
G1 X128.805 Y118.586 E2.96396
G1 X128.774 Y118.673 E2.96856
G1 X128.647 Y118.951 E2.98381
G1 X128.512 Y119.191 E2.99755
G1 X128.199 Y119.598 E3.02317
G1 X128 Y119.792 E3.03703
G1 X127.609 Y120.082 E3.06132
G1 X127.368 Y120.214 E3.07503
G1 X126.911 Y120.388 E3.09942
G1 X126.649 Y120.449 E3.11284
G1 X126.32 Y120.494 E3.12941
G1 X126.15 Y120.5 E3.1379
G1 X117.642 Y120.5 E3.56236
G1 X117.376 Y120.48 E3.57567
G1 X117.102 Y120.439 E3.58949
G1 X116.629 Y120.3 E3.61409
G1 X116.376 Y120.186 E3.62793
G1 X115.951 Y119.918 E3.653
G1 X115.741 Y119.74 E3.66674
G1 X115.412 Y119.373 E3.69133
G1 X115.257 Y119.143 E3.70516
G1 X115.038 Y118.694 E3.73009
G1 X114.953 Y118.433 E3.74378
G1 X114.872 Y118.029 E3.76434
G1 X114.85 Y117.7 E3.78079
G1 X114.85 Y117.275 E3.80199
G1 X114.749 Y117.299 E3.80717
G1 X114.42 Y117.344 E3.82374
G1 X114.25 Y117.35 E3.83222
G1 X105.742 Y117.35 E4.25669
G1 X105.476 Y117.33 E4.27
G1 X105.202 Y117.289 E4.28382
G1 X105.15 Y117.274 E4.28652
G1 X105.15 Y117.708 E4.30817
G1 X105.13 Y117.974 E4.32148
G1 X105.089 Y118.248 E4.3353
G1 X105.005 Y118.586 E4.35268
G1 X104.974 Y118.673 E4.35729
G1 X104.847 Y118.951 E4.37253
G1 X104.712 Y119.191 E4.38627
G1 X104.399 Y119.598 E4.41189
G1 X104.2 Y119.792 E4.42575
G1 X103.809 Y120.082 E4.45004
G1 X103.568 Y120.214 E4.46375
G1 X103.111 Y120.388 E4.48815
G1 X102.849 Y120.449 E4.50157
G1 X102.52 Y120.494 E4.51813
G1 X102.35 Y120.5 E4.52662
G1 X93.842 Y120.5 E4.95109
G1 X93.576 Y120.48 E4.96439
G1 X93.302 Y120.439 E4.97822
G1 X92.829 Y120.3 E5.00281
G1 X92.576 Y120.186 E5.01666
G1 X92.151 Y119.918 E5.04172
G1 X91.941 Y119.74 E5.05546
G1 X91.612 Y119.373 E5.08005
G1 X91.457 Y119.143 E5.09388
G1 X91.238 Y118.694 E5.11881
G1 X91.153 Y118.433 E5.1325
G1 X91.072 Y118.029 E5.15306
G1 X91.05 Y117.7 E5.16951
G1 X91.05 Y102.192 E5.94321
G1 X91.07 Y101.926 E5.95651
G1 X91.111 Y101.652 E5.97034
G1 X91.249 Y101.182 E5.99477
G1 X91.362 Y100.93 E6.00855
G1 X91.631 Y100.502 E6.03377
G1 X91.81 Y100.291 E6.04758
G0 F6000 X92.115 Y100.549
G1 F1200 X92.399 Y100.295 E6.06659
G1 X92.627 Y100.141 E6.08031
G1 X92.976 Y99.97 E6.0997
G1 X93.239 Y99.884 E6.11351
G1 X93.555 Y99.82 E6.12959
G1 X93.85 Y99.8 E6.14434
G1 X102.358 Y99.8 E6.56881
G1 X102.565 Y99.815 E6.57916
G1 X102.839 Y99.856 E6.59299
G1 X103.207 Y99.965 E6.61214
G1 X103.35 Y100.029 E6.61995
G1 X103.35 Y99.042 E6.66919
G1 X103.365 Y98.835 E6.67955
G1 X103.406 Y98.561 E6.69337
G1 X103.514 Y98.195 E6.71241
G1 X103.627 Y97.943 E6.72619
G1 X103.836 Y97.61 E6.7458
G1 X104.015 Y97.399 E6.75961
G1 X104.299 Y97.145 E6.77861
G1 X104.527 Y96.991 E6.79234
G1 X104.876 Y96.82 E6.81173
G1 X105.139 Y96.734 E6.82553
G1 X105.455 Y96.67 E6.84162
G1 X105.75 Y96.65 E6.85637
G1 X114.258 Y96.65 E7.28084
G1 X114.465 Y96.665 E7.29119
G1 X114.739 Y96.706 E7.30501
G1 X115.107 Y96.815 E7.32416
G1 X115.36 Y96.929 E7.33801
G1 X115.69 Y97.137 E7.35747
G1 X115.9 Y97.315 E7.3712
G1 X116.155 Y97.599 E7.39024
G1 X116.309 Y97.827 E7.40397
G1 X116.48 Y98.176 E7.42336
G1 X116.566 Y98.439 E7.43716
G1 X116.63 Y98.755 E7.45325
G1 X116.65 Y99.05 E7.468
G1 X116.65 Y100.032 E7.51699
G1 X116.776 Y99.97 E7.524
G1 X117.039 Y99.884 E7.5378
G1 X117.355 Y99.82 E7.55389
G1 X117.65 Y99.8 E7.56864
G1 X126.158 Y99.8 E7.99311
G1 X126.365 Y99.815 E8.00346
G1 X126.639 Y99.856 E8.01728
G1 X127.007 Y99.965 E8.03643
G1 X127.26 Y100.079 E8.05028
G1 X127.59 Y100.287 E8.06974
G1 X127.8 Y100.465 E8.08347
G1 X128.055 Y100.749 E8.10251
G1 X128.209 Y100.977 E8.11624
G1 X128.38 Y101.326 E8.13563
G1 X128.466 Y101.589 E8.14943
G1 X128.53 Y101.905 E8.16552
G1 X128.55 Y102.2 E8.18027
G1 X128.55 Y117.708 E8.95397
G1 X128.535 Y117.915 E8.96432
G1 X128.494 Y118.189 E8.97815
G1 X128.428 Y118.452 E8.99167
G1 X128.298 Y118.755 E9.00812
G1 X128.163 Y118.995 E9.02186
G1 X127.92 Y119.311 E9.04175
G1 X127.721 Y119.505 E9.05561
G1 X127.417 Y119.731 E9.07451
G1 X127.176 Y119.863 E9.08822
G1 X126.82 Y119.999 E9.10723
G1 X126.558 Y120.06 E9.12065
G1 X126.302 Y120.095 E9.13355
G1 X126.15 Y120.1 E9.14113
G1 X117.642 Y120.1 E9.5656
G1 X117.435 Y120.085 E9.57595
G1 X117.161 Y120.044 E9.58977
G1 X116.793 Y119.935 E9.60892
G1 X116.54 Y119.821 E9.62277
G1 X116.21 Y119.613 E9.64223
G1 X116 Y119.435 E9.65596
G1 X115.744 Y119.149 E9.67511
G1 X115.589 Y118.919 E9.68895
G1 X115.419 Y118.571 E9.70827
G1 X115.334 Y118.31 E9.72197
G1 X115.27 Y117.995 E9.738
G1 X115.25 Y117.7 E9.75275
G1 X115.25 Y116.723 E9.8015
G1 X114.92 Y116.849 E9.81912
G1 X114.658 Y116.91 E9.83254
G1 X114.402 Y116.945 E9.84543
G1 X114.25 Y116.95 E9.85302
G1 X105.742 Y116.95 E10.27749
G1 X105.535 Y116.935 E10.28784
G1 X105.261 Y116.894 E10.30166
G1 X104.893 Y116.785 E10.32081
G1 X104.75 Y116.721 E10.32863
G1 X104.75 Y117.708 E10.37787
G1 X104.735 Y117.915 E10.38822
G1 X104.694 Y118.189 E10.40204
G1 X104.628 Y118.452 E10.41557
G1 X104.498 Y118.755 E10.43202
G1 X104.363 Y118.995 E10.44576
G1 X104.12 Y119.311 E10.46565
G1 X103.921 Y119.505 E10.47951
G1 X103.617 Y119.731 E10.49841
G1 X103.376 Y119.863 E10.51212
G1 X103.02 Y119.999 E10.53113
G1 X102.758 Y120.06 E10.54455
G1 X102.502 Y120.095 E10.55744
G1 X102.35 Y120.1 E10.56503
G1 X93.842 Y120.1 E10.9895
G1 X93.635 Y120.085 E10.99985
G1 X93.361 Y120.044 E11.01367
G1 X92.993 Y119.935 E11.03282
G1 X92.74 Y119.821 E11.04667
G1 X92.41 Y119.613 E11.06613
G1 X92.2 Y119.435 E11.07986
G1 X91.944 Y119.149 E11.09901
G1 X91.789 Y118.919 E11.11285
G1 X91.619 Y118.571 E11.13217
G1 X91.534 Y118.31 E11.14587
G1 X91.47 Y117.995 E11.1619
G1 X91.45 Y117.7 E11.17665
G1 X91.45 Y102.192 E11.95035
G1 X91.465 Y101.985 E11.96071
G1 X91.506 Y101.711 E11.97453
G1 X91.614 Y101.345 E11.99357
G1 X91.727 Y101.093 E12.00734
G1 X91.936 Y100.76 E12.02696
G1 X92.115 Y100.549 E12.04076
G0 F6000 X92.42 Y100.808
G1 F1200 X92.623 Y100.626 E12.05437
G1 X92.851 Y100.472 E12.06809
G1 X93.1 Y100.351 E12.0819
G1 X93.363 Y100.265 E12.09571
G1 X93.765 Y100.204 E12.11599
G1 X93.85 Y100.2 E12.12024
G1 X102.358 Y100.2 E12.54471
G1 X102.506 Y100.211 E12.55211
G1 X102.78 Y100.252 E12.56593
G1 X103.043 Y100.329 E12.5796
G1 X103.296 Y100.443 E12.59345
G1 X103.532 Y100.592 E12.60737
G1 X103.742 Y100.77 E12.62111
G1 X103.75 Y100.779 E12.62171
G1 X103.75 Y99.042 E12.70837
G1 X103.761 Y98.894 E12.71577
G1 X103.802 Y98.62 E12.72959
G1 X103.879 Y98.359 E12.74317
G1 X103.992 Y98.107 E12.75695
G1 X104.141 Y97.869 E12.77096
G1 X104.32 Y97.658 E12.78476
G1 X104.523 Y97.476 E12.79836
G1 X104.751 Y97.322 E12.81209
G1 X105 Y97.201 E12.8259
G1 X105.263 Y97.115 E12.83971
G1 X105.665 Y97.054 E12.85999
G1 X105.75 Y97.05 E12.86424
G1 X114.258 Y97.05 E13.2887
G1 X114.406 Y97.061 E13.29611
G1 X114.68 Y97.102 E13.30993
G1 X114.943 Y97.179 E13.3236
G1 X115.196 Y97.293 E13.33745
G1 X115.432 Y97.442 E13.35137
G1 X115.642 Y97.62 E13.3651
G1 X115.824 Y97.823 E13.37871
G1 X115.978 Y98.051 E13.39243
G1 X116.099 Y98.3 E13.40624
G1 X116.185 Y98.563 E13.42005
G1 X116.246 Y98.965 E13.44033
G1 X116.25 Y99.05 E13.44458
G1 X116.25 Y100.781 E13.53094
G1 X116.423 Y100.626 E13.54253
G1 X116.651 Y100.472 E13.55625
G1 X116.9 Y100.351 E13.57007
G1 X117.163 Y100.265 E13.58387
G1 X117.565 Y100.204 E13.60416
G1 X117.65 Y100.2 E13.6084
G1 X126.158 Y100.2 E14.03287
G1 X126.306 Y100.211 E14.04027
G1 X126.58 Y100.252 E14.05409
G1 X126.843 Y100.329 E14.06777
G1 X127.096 Y100.443 E14.08161
G1 X127.332 Y100.592 E14.09553
G1 X127.542 Y100.77 E14.10927
G1 X127.724 Y100.973 E14.12287
G1 X127.878 Y101.201 E14.1366
G1 X127.999 Y101.45 E14.15041
G1 X128.085 Y101.713 E14.16421
G1 X128.146 Y102.115 E14.1845
G1 X128.15 Y102.2 E14.18875
G1 X128.15 Y117.708 E14.96244
G1 X128.139 Y117.856 E14.96985
G1 X128.098 Y118.13 E14.98367
G1 X128.02 Y118.405 E14.99793
G1 X127.95 Y118.559 E15.00637
G1 X127.815 Y118.799 E15.02011
G1 X127.641 Y119.025 E15.03434
G1 X127.442 Y119.219 E15.0482
G1 X127.224 Y119.38 E15.06172
G1 X126.983 Y119.512 E15.07543
G1 X126.73 Y119.609 E15.08895
G1 X126.468 Y119.67 E15.10237
G1 X126.194 Y119.699 E15.11612
G1 X117.642 Y119.7 E15.54278
G1 X117.494 Y119.689 E15.55018
G1 X117.22 Y119.648 E15.564
G1 X116.957 Y119.571 E15.57768
G1 X116.704 Y119.457 E15.59152
G1 X116.468 Y119.308 E15.60544
G1 X116.258 Y119.13 E15.61918
G1 X116.076 Y118.926 E15.63282
G1 X115.921 Y118.696 E15.64666
G1 X115.799 Y118.447 E15.66049
G1 X115.714 Y118.186 E15.67418
G1 X115.654 Y117.785 E15.69441
G1 X115.65 Y117.7 E15.69866
G1 X115.65 Y115.964 E15.78527
G1 X115.542 Y116.069 E15.79278
G1 X115.324 Y116.23 E15.8063
G1 X115.083 Y116.362 E15.82001
G1 X114.83 Y116.459 E15.83353
G1 X114.568 Y116.52 E15.84695
G1 X114.294 Y116.549 E15.8607
G1 X105.742 Y116.55 E16.28736
G1 X105.594 Y116.539 E16.29476
G1 X105.32 Y116.498 E16.30858
G1 X105.057 Y116.421 E16.32226
G1 X104.804 Y116.307 E16.3361
G1 X104.568 Y116.158 E16.35002
G1 X104.358 Y115.98 E16.36376
G1 X104.35 Y115.971 E16.36436
G1 X104.35 Y117.708 E16.45102
G1 X104.339 Y117.856 E16.45842
G1 X104.298 Y118.13 E16.47225
G1 X104.22 Y118.405 E16.48651
G1 X104.15 Y118.559 E16.49495
G1 X104.015 Y118.799 E16.50868
G1 X103.841 Y119.025 E16.52291
G1 X103.642 Y119.219 E16.53678
G1 X103.424 Y119.38 E16.5503
G1 X103.183 Y119.512 E16.56401
G1 X102.93 Y119.609 E16.57753
G1 X102.668 Y119.67 E16.59095
G1 X102.394 Y119.699 E16.60469
G1 X93.842 Y119.7 E17.03135
G1 X93.694 Y119.689 E17.03876
G1 X93.42 Y119.648 E17.05258
G1 X93.157 Y119.571 E17.06625
G1 X92.904 Y119.457 E17.0801
G1 X92.668 Y119.308 E17.09402
G1 X92.458 Y119.13 E17.10776
G1 X92.276 Y118.926 E17.1214
G1 X92.121 Y118.696 E17.13523
G1 X91.999 Y118.447 E17.14907
G1 X91.914 Y118.186 E17.16276
G1 X91.854 Y117.785 E17.18299
G1 X91.85 Y117.7 E17.18723
G1 X91.85 Y102.192 E17.96093
G1 X91.861 Y102.044 E17.96834
G1 X91.902 Y101.77 E17.98216
G1 X91.979 Y101.509 E17.99573
G1 X92.092 Y101.257 E18.00951
G1 X92.241 Y101.019 E18.02352
G1 X92.42 Y100.808 E18.03733
G0 F6000 X92.725 Y101.067
G1 F1200 X92.847 Y100.958 E18.04549
G1 X93.075 Y100.804 E18.05921
G1 X93.225 Y100.731 E18.06754
G1 X93.488 Y100.645 E18.08134
G1 X93.799 Y100.602 E18.09701
G1 X93.85 Y100.6 E18.09955
G1 X102.358 Y100.6 E18.52402
G1 X102.447 Y100.607 E18.52847
G1 X102.721 Y100.648 E18.54229
G1 X102.878 Y100.694 E18.55046
G1 X103.131 Y100.808 E18.5643
G1 X103.273 Y100.897 E18.57266
G1 X103.483 Y101.075 E18.5864
G1 X103.592 Y101.197 E18.59456
G1 X103.746 Y101.425 E18.60828
G1 X103.819 Y101.575 E18.61661
G1 X103.905 Y101.838 E18.63041
G1 X103.948 Y102.149 E18.64608
G1 X103.95 Y102.2 E18.64862
G1 X103.95 Y117.708 E19.42232
G1 X103.943 Y117.797 E19.42677
G1 X103.902 Y118.071 E19.44059
G1 X103.801 Y118.363 E19.45601
G1 X103.666 Y118.603 E19.46975
G1 X103.562 Y118.739 E19.47829
G1 X103.363 Y118.933 E19.49215
G1 X103.232 Y119.029 E19.50026
G1 X102.991 Y119.161 E19.51397
G1 X102.839 Y119.219 E19.52208
G1 X102.577 Y119.28 E19.5355
G1 X102.35 Y119.3 E19.54687
G1 X93.842 Y119.3 E19.97134
G1 X93.753 Y119.293 E19.97579
G1 X93.479 Y119.252 E19.98961
G1 X93.322 Y119.206 E19.99778
G1 X93.069 Y119.092 E20.01162
G1 X92.927 Y119.003 E20.01998
G1 X92.717 Y118.825 E20.03372
G1 X92.607 Y118.702 E20.04195
G1 X92.452 Y118.472 E20.05579
G1 X92.379 Y118.323 E20.06406
G1 X92.294 Y118.062 E20.07776
G1 X92.252 Y117.751 E20.09341
G1 X92.25 Y117.7 E20.09596
G1 X92.25 Y102.192 E20.86966
G1 X92.257 Y102.103 E20.87411
G1 X92.298 Y101.829 E20.88793
G1 X92.344 Y101.673 E20.89605
G1 X92.457 Y101.421 E20.90983
G1 X92.546 Y101.278 E20.91823
G1 X92.725 Y101.067 E20.93203
G0 F6000 X93.03 Y101.326
G1 F1200 X93.071 Y101.289 E20.93479
G1 X93.299 Y101.135 E20.94852
G1 X93.349 Y101.111 E20.95128
G1 X93.612 Y101.025 E20.96509
G1 X93.85 Y101 E20.97703
G1 X102.358 Y101 E21.40149
G1 X102.388 Y101.002 E21.40299
G1 X102.662 Y101.043 E21.41682
G1 X102.714 Y101.059 E21.41953
G1 X102.967 Y101.173 E21.43337
G1 X103.014 Y101.202 E21.43613
G1 X103.224 Y101.38 E21.44986
G1 X103.261 Y101.421 E21.45262
G1 X103.415 Y101.649 E21.46635
G1 X103.439 Y101.699 E21.46911
G1 X103.525 Y101.962 E21.48292
G1 X103.55 Y102.2 E21.49486
G1 X103.55 Y117.708 E22.26855
G1 X103.548 Y117.738 E22.27005
G1 X103.507 Y118.012 E22.28388
G1 X103.452 Y118.167 E22.29208
G1 X103.317 Y118.407 E22.30582
G1 X103.283 Y118.452 E22.30863
G1 X103.084 Y118.646 E22.3225
G1 X103.04 Y118.678 E22.32521
G1 X102.799 Y118.81 E22.33892
G1 X102.748 Y118.83 E22.34165
G1 X102.486 Y118.891 E22.35508
G1 X102.359 Y118.9 E22.36143
G1 X93.842 Y118.9 E22.78634
G1 X93.812 Y118.898 E22.78784
G1 X93.538 Y118.857 E22.80166
G1 X93.486 Y118.841 E22.80438
G1 X93.233 Y118.727 E22.81822
G1 X93.186 Y118.698 E22.82098
G1 X92.976 Y118.52 E22.83471
G1 X92.939 Y118.479 E22.83747
G1 X92.784 Y118.249 E22.85131
G1 X92.76 Y118.199 E22.85407
G1 X92.675 Y117.938 E22.86777
G1 X92.65 Y117.7 E22.87971
G1 X92.65 Y102.192 E23.6534
G1 X92.652 Y102.162 E23.6549
G1 X92.693 Y101.888 E23.66873
G1 X92.709 Y101.836 E23.67144
G1 X92.822 Y101.584 E23.68522
G1 X92.851 Y101.537 E23.68797
G1 X93.03 Y101.326 E23.70178
G1 F1500 E17.20178
G0 F6000 X92.986 Y100.778
G0 X93.446 Y100.604
G0 X104.085 Y99.042
G0 X104.15 Y99.042
G1 F1500 E23.70178
G1 F1200 X104.157 Y98.953 E23.70623
G1 X104.198 Y98.679 E23.72005
G1 X104.244 Y98.523 E23.72817
G1 X104.357 Y98.271 E23.74195
G1 X104.446 Y98.128 E23.75035
G1 X104.625 Y97.917 E23.76415
G1 X104.747 Y97.808 E23.77232
G1 X104.975 Y97.654 E23.78604
G1 X105.125 Y97.581 E23.79437
G1 X105.388 Y97.495 E23.80817
G1 X105.699 Y97.452 E23.82383
G1 X105.75 Y97.45 E23.82638
G1 X114.258 Y97.45 E24.25085
G1 X114.347 Y97.457 E24.2553
G1 X114.621 Y97.498 E24.26912
G1 X114.778 Y97.544 E24.27728
G1 X115.031 Y97.658 E24.29113
G1 X115.173 Y97.747 E24.29949
G1 X115.383 Y97.925 E24.31322
G1 X115.492 Y98.047 E24.32139
G1 X115.646 Y98.275 E24.33511
G1 X115.719 Y98.425 E24.34344
G1 X115.805 Y98.688 E24.35724
G1 X115.848 Y98.999 E24.3729
G1 X115.85 Y99.05 E24.37545
G1 X115.85 Y114.558 E25.14915
G1 X115.843 Y114.647 E25.1536
G1 X115.802 Y114.921 E25.16742
G1 X115.701 Y115.213 E25.18284
G1 X115.566 Y115.453 E25.19658
G1 X115.462 Y115.589 E25.20512
G1 X115.263 Y115.783 E25.21898
G1 X115.132 Y115.879 E25.22709
G1 X114.891 Y116.011 E25.24079
G1 X114.739 Y116.069 E25.24891
G1 X114.477 Y116.13 E25.26233
