;FLAVOR:Marlin
;TIME:6735
;Filament used: 6.81005m
;Layer height: 0.3
;MINX:11.516
;MINY:30.958
;MINZ:0.3
;MAXX:205.456
;MAXY:176.719
;MAXZ:1.8
;Generated with Cura_SteamEngine 4.12.0
M140 S60
M105
M190 S60
M104 S224
M105
M109 S224
M82 ;absolute extrusion mode
G1 Z15.0 F2000 ;Move the platform
G28 ;Home
G29 ; Autolevel
;G92 X-4 Y-10 Z0; custom offset ??? Looks it does not work.
G92 E0
G92 E0
G1 F1500 E-6.5
;LAYER_COUNT:6
;LAYER:0
M107
M204 S1000
G0 F9000 X39.841 Y68.567 Z0.3
;TYPE:SKIRT
G1 F1500 E0
G1 F3600 X58.582 Y57.747 E1.07963
G1 X58.928 Y57.593 E1.09853
G1 X59.299 Y57.515 E1.11744
G1 X59.678 Y57.517 E1.13635
G1 X59.947 Y57.567 E1.15
G1 X60.572 Y57.734 E1.18228
G1 X60.925 Y57.87 E1.20115
G1 X61.243 Y58.077 E1.22008
G1 X61.51 Y58.345 E1.23895
G1 X61.666 Y58.573 E1.25274
G1 X66.39 Y66.758 E1.72422
G1 X71.217 Y64.238 E1.99588
G1 X71.57 Y64.099 E2.01481
G1 X71.943 Y64.037 E2.03367
G1 X72.322 Y64.055 E2.0526
G1 X72.688 Y64.151 E2.07148
G1 X73.027 Y64.322 E2.09042
G1 X73.322 Y64.56 E2.10933
G1 X73.56 Y64.854 E2.1282
G1 X76.193 Y68.908 E2.36937
G1 X76.364 Y69.245 E2.38823
G1 X76.462 Y69.612 E2.40718
G1 X76.48 Y69.99 E2.42606
G1 X76.419 Y70.364 E2.44496
G1 X76.281 Y70.717 E2.46387
G1 X76.072 Y71.033 E2.48278
G1 X75.801 Y71.298 E2.50169
G1 X75.593 Y71.441 E2.51428
G1 X48.311 Y87.422 E4.09171
G1 X48.176 Y87.548 E4.10092
G1 X47.851 Y87.742 E4.1198
G1 X47.663 Y87.806 E4.12971
G1 X45.781 Y88.944 E4.23944
G1 X45.495 Y89.078 E4.25519
G1 X45.354 Y89.192 E4.26424
G1 X43.594 Y90.208 E4.36563
G1 X43.248 Y90.362 E4.38452
G1 X42.877 Y90.44 E4.40344
G1 X42.498 Y90.438 E4.42234
G1 X42.227 Y90.387 E4.4361
G1 X41.464 Y90.182 E4.47552
G1 X41.11 Y90.046 E4.49444
G1 X40.793 Y89.839 E4.51333
G1 X40.526 Y89.57 E4.53223
G1 X40.372 Y89.344 E4.54588
G1 X38.34 Y85.826 E4.74857
G1 X38.186 Y85.48 E4.76746
G1 X38.108 Y85.109 E4.78638
G1 X38.11 Y84.73 E4.80528
G1 X38.215 Y84.289 E4.8279
G1 X38.471 Y83.612 E4.86401
G1 X38.642 Y83.274 E4.88291
G1 X38.88 Y82.979 E4.90182
G1 X39.189 Y82.73 E4.92162
G1 X43.74 Y79.836 E5.19069
G1 X39.014 Y71.651 E5.66222
G1 X38.86 Y71.305 E5.68111
G1 X38.782 Y70.934 E5.70003
G1 X38.784 Y70.555 E5.71894
G1 X38.835 Y70.284 E5.73269
G1 X39.003 Y69.659 E5.76498
G1 X39.139 Y69.305 E5.7839
G1 X39.346 Y68.988 E5.80279
G1 X39.616 Y68.721 E5.82173
G1 X39.841 Y68.567 E5.83534
G0 F9000 X40.041 Y68.914
G1 F3600 X58.782 Y58.094 E6.91497
G1 X59.089 Y57.962 E6.93164
G1 X59.419 Y57.907 E6.94833
G1 X59.843 Y57.953 E6.96961
G1 X60.468 Y58.12 E7.00189
G1 X60.779 Y58.245 E7.01861
G1 X61.05 Y58.439 E7.03524
G1 X61.319 Y58.773 E7.05663
G1 X66.235 Y67.29 E7.54725
G1 X71.402 Y64.593 E7.83804
G1 X71.715 Y64.475 E7.85472
G1 X72.046 Y64.434 E7.87136
G1 X72.378 Y64.473 E7.88804
G1 X72.691 Y64.589 E7.90469
G1 X72.968 Y64.777 E7.9214
G1 X73.224 Y65.071 E7.94085
G1 X75.857 Y69.125 E8.18201
G1 X76.004 Y69.425 E8.19868
G1 X76.076 Y69.752 E8.21539
G1 X76.069 Y70.086 E8.23205
G1 X75.983 Y70.408 E8.24868
G1 X75.822 Y70.701 E8.26536
G1 X75.597 Y70.948 E8.28203
G1 X75.391 Y71.096 E8.29469
G1 X48.069 Y87.101 E9.87444
G1 X47.981 Y87.192 E9.88076
G1 X47.699 Y87.372 E9.89745
G1 X47.492 Y87.442 E9.90835
G1 X45.574 Y88.602 E10.02018
G1 X45.299 Y88.727 E10.03525
G1 X45.154 Y88.845 E10.04458
G1 X43.394 Y89.861 E10.14596
G1 X43.087 Y89.993 E10.16264
G1 X42.757 Y90.048 E10.17933
G1 X42.331 Y90.001 E10.20071
G1 X41.568 Y89.796 E10.24013
G1 X41.258 Y89.671 E10.2568
G1 X40.986 Y89.477 E10.27347
G1 X40.719 Y89.144 E10.29476
G1 X38.687 Y85.626 E10.49745
G1 X38.555 Y85.319 E10.51412
G1 X38.5 Y84.99 E10.53076
G1 X38.525 Y84.656 E10.54747
G1 X38.589 Y84.431 E10.55915
G1 X38.845 Y83.754 E10.59526
G1 X39 Y83.458 E10.61192
G1 X39.22 Y83.207 E10.62858
G1 X39.404 Y83.068 E10.64008
G1 X44.278 Y79.968 E10.92826
G1 X39.361 Y71.451 E11.41891
G1 X39.229 Y71.144 E11.43558
G1 X39.174 Y70.814 E11.45227
G1 X39.221 Y70.388 E11.47365
G1 X39.389 Y69.763 E11.50594
G1 X39.514 Y69.453 E11.52261
G1 X39.708 Y69.181 E11.53928
G1 X40.041 Y68.914 E11.56058
G0 F9000 X40.241 Y69.26
G1 F3600 X58.982 Y58.44 E12.64021
G1 X59.244 Y58.335 E12.65429
G1 X59.525 Y58.307 E12.66838
G1 X59.74 Y58.34 E12.67923
G1 X60.365 Y58.507 E12.71151
G1 X60.625 Y58.617 E12.72559
G1 X60.843 Y58.796 E12.73967
G1 X60.973 Y58.973 E12.75062
G1 X66.081 Y67.822 E13.26037
G1 X71.587 Y64.948 E13.57024
G1 X71.853 Y64.854 E13.58431
G1 X72.135 Y64.838 E13.5984
G1 X72.41 Y64.901 E13.61248
G1 X72.656 Y65.039 E13.62655
G1 X72.889 Y65.289 E13.6436
G1 X75.522 Y69.343 E13.88477
G1 X75.64 Y69.599 E13.89883
G1 X75.683 Y69.878 E13.91292
G1 X75.646 Y70.158 E13.92701
G1 X75.532 Y70.416 E13.94108
G1 X75.351 Y70.632 E13.95514
G1 X75.188 Y70.751 E13.96521
G1 X47.821 Y86.782 E15.54756
G1 X47.743 Y86.87 E15.55343
G1 X47.504 Y87.021 E15.56753
G1 X47.336 Y87.069 E15.57625
G1 X45.367 Y88.26 E15.69105
G1 X45.126 Y88.362 E15.70411
G1 X44.954 Y88.499 E15.71508
G1 X43.194 Y89.515 E15.81647
G1 X42.932 Y89.62 E15.83055
G1 X42.651 Y89.648 E15.84464
G1 X42.435 Y89.615 E15.85554
G1 X41.672 Y89.41 E15.89496
G1 X41.412 Y89.299 E15.90906
G1 X41.194 Y89.12 E15.92313
G1 X41.065 Y88.944 E15.93402
G1 X39.033 Y85.426 E16.13671
G1 X38.928 Y85.164 E16.15079
G1 X38.9 Y84.884 E16.16483
G1 X38.964 Y84.572 E16.18072
G1 X39.22 Y83.895 E16.21683
G1 X39.356 Y83.648 E16.23089
G1 X39.618 Y83.405 E16.24872
G1 X44.816 Y80.099 E16.55606
G1 X39.707 Y71.251 E17.06579
G1 X39.602 Y70.989 E17.07987
G1 X39.574 Y70.708 E17.09396
G1 X39.607 Y70.491 E17.10491
G1 X39.775 Y69.866 E17.1372
G1 X39.886 Y69.607 E17.15126
G1 X40.065 Y69.389 E17.16533
G1 X40.241 Y69.26 E17.17622
G0 F9000 X40.441 Y69.606
G1 F3600 X59.182 Y58.786 E18.25585
G1 X59.388 Y58.713 E18.26676
G1 X59.637 Y58.726 E18.2792
G1 X60.262 Y58.893 E18.31147
G1 X60.459 Y58.987 E18.32236
G1 X60.627 Y59.173 E18.33486
G1 X65.926 Y68.354 E18.86373
G1 X71.772 Y65.302 E19.19274
G1 X71.981 Y65.238 E19.20364
G1 X72.199 Y65.253 E19.21454
G1 X72.397 Y65.344 E19.22542
G1 X72.553 Y65.507 E19.23667
G1 X75.186 Y69.561 E19.47784
G1 X75.27 Y69.763 E19.48876
G1 X75.276 Y69.981 E19.49964
G1 X75.203 Y70.187 E19.51054
G1 X74.986 Y70.406 E19.52592
G1 X47.564 Y86.469 E21.11145
G1 X47.461 Y86.584 E21.11915
G1 X47.186 Y86.692 E21.13389
G1 X45.16 Y87.917 E21.25201
G1 X44.911 Y87.994 E21.26501
G1 X44.754 Y88.153 E21.27616
G1 X42.994 Y89.169 E21.37754
G1 X42.788 Y89.242 E21.38845
G1 X42.538 Y89.228 E21.40094
G1 X41.775 Y89.023 E21.44036
G1 X41.578 Y88.929 E21.45125
G1 X41.411 Y88.744 E21.46368
G1 X39.379 Y85.226 E21.66637
G1 X39.306 Y85.02 E21.67727
G1 X39.338 Y84.714 E21.69262
G1 X39.594 Y84.037 E21.72873
G1 X39.707 Y83.85 E21.73963
G1 X39.833 Y83.743 E21.74788
G1 X45.354 Y80.232 E22.0743
G1 X40.053 Y71.051 E22.60321
G1 X39.98 Y70.845 E22.61411
G1 X39.994 Y70.595 E22.62661
G1 X40.162 Y69.97 E22.65889
G1 X40.256 Y69.773 E22.66978
G1 X40.441 Y69.606 E22.68222
G0 F9000 X40.641 Y69.953
G1 F3600 X59.382 Y59.133 E23.76185
G1 X59.534 Y59.113 E23.7695
G1 X60.159 Y59.28 E23.80178
G1 X60.28 Y59.373 E23.80939
G1 X65.771 Y68.886 E24.35738
G1 X71.957 Y65.657 E24.70552
G1 X72.081 Y65.636 E24.71179
G1 X72.218 Y65.725 E24.71994
G1 X74.851 Y69.779 E24.96111
G1 X74.883 Y69.9 E24.96736
G1 X74.784 Y70.061 E24.97679
G1 X47.271 Y86.177 E26.56757
G1 X47.244 Y86.241 E26.57103
G1 X47.137 Y86.304 E26.57723
G1 X47.059 Y86.302 E26.58112
G1 X44.953 Y87.575 E26.70389
G1 X44.832 Y87.603 E26.71009
G1 X44.717 Y87.554 E26.71632
G1 X44.65 Y87.409 E26.72429
G1 X44.639 Y86.937 E26.74785
G1 X44.41 Y86.897 E26.75944
G1 X44.286 Y86.81 E26.767
G1 X44.184 Y87.194 E26.78682
G1 X44.57 Y87.47 E26.8105
G1 X44.644 Y87.571 E26.81674
G1 X44.644 Y87.696 E26.82298
G1 X44.554 Y87.806 E26.83007
G1 X42.794 Y88.822 E26.93146
G1 X42.642 Y88.842 E26.93911
G1 X41.879 Y88.637 E26.97852
G1 X41.758 Y88.544 E26.98614
G1 X39.726 Y85.026 E27.18883
G1 X39.712 Y84.855 E27.19738
G1 X39.968 Y84.178 E27.23349
G1 X40.048 Y84.08 E27.23981
G1 X45.892 Y80.363 E27.58534
G1 X40.4 Y70.851 E28.13332
G1 X40.38 Y70.699 E28.14097
G1 X40.548 Y70.074 E28.17325
G1 X40.641 Y69.953 E28.18087
G1 F1500 E21.68087
G0 F9000 X40.408 Y69.551
G0 X40.174 Y69.69
G0 X39.863 Y70.844
G0 X39.171 Y84.984
G0 X41.495 Y89.011
G0 X60.795 Y94.352
G1 F1500 E28.18087
G1 F3600 X61.107 Y94.124 E28.20015
G1 X70.962 Y88.434 E28.76788
G1 X71.308 Y88.28 E28.78678
G1 X71.854 Y88.193 E28.81436
G1 X73.901 Y88.184 E28.91649
G1 X74.278 Y88.222 E28.93539
G1 X74.639 Y88.339 E28.95432
G1 X74.866 Y88.459 E28.96713
G1 X78.796 Y90.924 E29.19858
G1 X82.63 Y92.051 E29.39795
G1 X88.062 Y92.142 E29.66899
G1 X91.352 Y91.269 E29.83881
G1 X102.141 Y85.039 E30.46037
G1 X102.487 Y84.885 E30.47926
G1 X102.714 Y84.828 E30.49094
G1 X104.361 Y84.524 E30.5745
G1 X104.739 Y84.495 E30.59341
G1 X105.117 Y84.546 E30.61244
G1 X106.823 Y84.965 E30.70008
G1 X107.18 Y85.094 E30.71902
G1 X107.405 Y85.224 E30.73199
G1 X108.856 Y86.209 E30.81948
G1 X109.101 Y86.409 E30.83526
G1 X119.831 Y96.869 E31.58285
G1 X120.023 Y97.089 E31.59742
G1 X122.451 Y100.379 E31.80142
G1 X122.601 Y100.619 E31.81554
G1 X125.202 Y105.634 E32.09739
G1 X125.347 Y106.013 E32.11763
G1 X129.616 Y122.55 E32.96971
G1 X129.671 Y122.925 E32.98862
G1 X129.662 Y123.203 E33.0025
G1 X129.335 Y126.091 E33.1475
G1 X129.253 Y126.46 E33.16636
G1 X129.095 Y126.805 E33.18529
G1 X128.907 Y127.066 E33.20134
G1 X127.992 Y128.123 E33.27109
G1 X127.715 Y128.382 E33.29001
G1 X127.531 Y128.504 E33.30102
G1 X116.499 Y134.872 E33.93652
G1 X115.062 Y136.248 E34.03578
G1 X112.629 Y139.479 E34.23757
G1 X111.327 Y142.622 E34.4073
G1 X110.486 Y147.659 E34.66207
G1 X110.836 Y150.094 E34.7848
G1 X110.85 Y150.472 E34.80367
G1 X110.784 Y150.845 E34.82257
G1 X110.703 Y151.072 E34.8346
G1 X109.844 Y153.034 E34.94145
G1 X109.656 Y153.363 E34.96036
G1 X109.404 Y153.646 E34.97926
G1 X109.095 Y153.871 E34.99833
G1 X98.977 Y159.712 E35.5812
G1 X98.473 Y159.909 E35.60819
G1 X97.639 Y160.097 E35.65085
G1 X97.262 Y160.141 E35.66978
G1 X96.885 Y160.105 E35.68868
G1 X96.535 Y159.996 E35.70697
G1 X95.368 Y159.497 E35.77029
G1 X95.038 Y159.312 E35.78916
G1 X94.753 Y159.062 E35.80807
G1 X94.517 Y158.742 E35.82791
G1 X87.658 Y146.863 E36.51226
G1 X87.465 Y146.377 E36.53834
G1 X87.222 Y145.348 E36.59109
G1 X87.175 Y144.867 E36.61521
G1 X87.366 Y139.71 E36.87267
G1 X87.42 Y139.335 E36.89157
G1 X87.488 Y139.122 E36.90272
G1 X88.672 Y136.091 E37.06507
G1 X88.847 Y135.755 E37.08397
G1 X89.088 Y135.462 E37.1029
G1 X89.384 Y135.226 E37.12178
G1 X89.724 Y135.058 E37.1407
G1 X89.683 Y134.813 E37.1531
G1 X89.685 Y134.434 E37.172
G1 X89.766 Y134.064 E37.1909
G1 X89.985 Y133.62 E37.2156
G1 X90.969 Y132.171 E37.30298
G1 X91.214 Y131.881 E37.32192
G1 X91.558 Y131.623 E37.34338
G1 X99.853 Y126.836 E37.82118
G1 X89.959 Y109.698 E38.80846
G1 X80.883 Y114.726 E39.3261
G1 X80.534 Y114.873 E39.345
G1 X80.162 Y114.945 E39.3639
G1 X79.869 Y114.945 E39.37852
G1 X78.886 Y114.867 E39.42771
G1 X78.513 Y114.798 E39.44664
G1 X78.163 Y114.652 E39.46556
G1 X77.852 Y114.436 E39.48445
G1 X77.818 Y114.4 E39.48692
G1 X77.745 Y114.469 E39.49193
G1 X77.42 Y114.665 E39.51087
G1 X77.062 Y114.788 E39.52975
G1 X76.695 Y114.834 E39.5482
G1 X75.535 Y114.858 E39.60609
G1 X75.062 Y114.804 E39.62984
G1 X73.009 Y114.291 E39.73542
G1 X72.623 Y114.146 E39.75599
G1 X68.533 Y112.045 E39.98539
G1 X68.216 Y111.838 E40.00427
G1 X66.998 Y110.843 E40.08274
G1 X66.732 Y110.574 E40.10161
G1 X66.559 Y110.316 E40.11711
G1 X59.685 Y97.8 E40.82951
G1 X59.539 Y97.45 E40.84843
G1 X59.469 Y97.078 E40.86732
G1 X59.478 Y96.699 E40.88623
G1 X59.567 Y96.33 E40.90517
G1 X59.731 Y95.989 E40.92405
G1 X59.912 Y95.754 E40.93885
G1 X59.969 Y95.538 E40.94999
G1 X60.186 Y95.135 E40.97283
G1 X60.543 Y94.636 E41.00344
G1 X60.795 Y94.352 E41.02238
G0 F9000 X61.094 Y94.622
G1 F3600 X61.307 Y94.471 E41.03541
G1 X71.162 Y88.781 E41.60314
G1 X71.469 Y88.649 E41.61981
G1 X71.856 Y88.593 E41.63932
G1 X73.903 Y88.584 E41.74145
G1 X74.235 Y88.622 E41.75812
G1 X74.653 Y88.798 E41.78075
G1 X78.63 Y91.293 E42.01497
G1 X82.569 Y92.45 E42.21979
G1 X88.112 Y92.543 E42.49637
G1 X91.506 Y91.643 E42.67155
G1 X102.341 Y85.386 E43.29577
G1 X102.787 Y85.221 E43.3195
G1 X104.434 Y84.917 E43.40305
G1 X104.767 Y84.896 E43.4197
G1 X105.022 Y84.934 E43.43256
G1 X106.728 Y85.353 E43.52021
G1 X107.18 Y85.555 E43.54491
G1 X108.631 Y86.54 E43.6324
G1 X108.822 Y86.696 E43.6447
G1 X119.552 Y97.156 E44.3923
G1 X119.701 Y97.327 E44.40361
G1 X122.129 Y100.617 E44.60761
G1 X122.246 Y100.803 E44.61857
G1 X124.847 Y105.818 E44.90042
G1 X124.96 Y106.113 E44.91618
G1 X129.229 Y122.65 E45.76826
G1 X129.273 Y122.981 E45.78492
G1 X129.264 Y123.158 E45.79377
G1 X128.937 Y126.046 E45.93877
G1 X128.86 Y126.371 E45.95543
G1 X128.708 Y126.668 E45.97208
G1 X128.604 Y126.804 E45.98062
G1 X127.689 Y127.861 E46.05037
G1 X127.331 Y128.157 E46.07354
G1 X116.258 Y134.549 E46.71141
G1 X114.76 Y135.982 E46.81484
G1 X112.279 Y139.278 E47.02065
G1 X110.941 Y142.507 E47.19503
G1 X110.081 Y147.657 E47.45553
G1 X110.44 Y150.151 E47.58123
G1 X110.448 Y150.484 E47.59785
G1 X110.336 Y150.911 E47.61988
G1 X109.477 Y152.873 E47.72673
G1 X109.308 Y153.161 E47.74339
G1 X109.075 Y153.401 E47.76008
G1 X108.895 Y153.524 E47.77096
G1 X98.777 Y159.365 E48.35382
G1 X98.385 Y159.519 E48.37483
G1 X97.551 Y159.707 E48.41748
G1 X97.219 Y159.741 E48.43413
G1 X96.888 Y159.695 E48.45081
G1 X96.693 Y159.628 E48.46109
G1 X95.526 Y159.129 E48.52441
G1 X95.236 Y158.962 E48.54111
G1 X94.995 Y158.731 E48.55777
G1 X94.864 Y158.542 E48.56924
G1 X88.005 Y146.663 E49.25358
G1 X87.854 Y146.285 E49.27389
G1 X87.611 Y145.256 E49.32664
G1 X87.575 Y144.882 E49.34538
G1 X87.766 Y139.725 E49.60284
G1 X87.861 Y139.268 E49.62613
G1 X89.045 Y136.237 E49.78848
G1 X89.203 Y135.942 E49.80517
G1 X89.426 Y135.693 E49.82185
G1 X89.701 Y135.505 E49.83847
G1 X90.014 Y135.387 E49.85516
G1 X90.275 Y135.355 E49.86828
G1 X90.261 Y135.331 E49.86966
G1 X90.13 Y135.023 E49.88636
G1 X90.075 Y134.694 E49.903
G1 X90.1 Y134.361 E49.91966
G1 X90.203 Y134.043 E49.93634
G1 X90.316 Y133.844 E49.94776
G1 X91.3 Y132.395 E50.03514
G1 X91.519 Y132.143 E50.0518
G1 X91.758 Y131.969 E50.06655
G1 X100.4 Y126.982 E50.56433
G1 X90.109 Y109.158 E51.59115
G1 X80.689 Y114.376 E52.1284
G1 X80.38 Y114.502 E52.14505
G1 X79.9 Y114.547 E52.1691
G1 X78.917 Y114.469 E52.2183
G1 X78.59 Y114.403 E52.23494
G1 X78.287 Y114.261 E52.25164
G1 X78.027 Y114.052 E52.26828
G1 X77.831 Y113.794 E52.28444
G1 X77.637 Y114.035 E52.29988
G1 X77.372 Y114.238 E52.31653
G1 X77.066 Y114.373 E52.33322
G1 X76.687 Y114.434 E52.35237
G1 X75.527 Y114.458 E52.41026
G1 X75.159 Y114.416 E52.42873
G1 X73.106 Y113.903 E52.53431
G1 X72.805 Y113.79 E52.55035
G1 X68.715 Y111.689 E52.77975
G1 X68.469 Y111.528 E52.79442
G1 X67.251 Y110.533 E52.87288
G1 X67.02 Y110.293 E52.8895
G1 X66.91 Y110.123 E52.8996
G1 X60.036 Y97.607 E53.612
G1 X59.911 Y97.297 E53.62868
G1 X59.863 Y96.966 E53.64537
G1 X59.895 Y96.634 E53.66201
G1 X60.005 Y96.318 E53.6787
G1 X60.187 Y96.038 E53.69536
G1 X60.27 Y95.945 E53.70158
G1 X60.366 Y95.625 E53.71825
G1 X60.511 Y95.367 E53.73301
G1 X60.868 Y94.868 E53.76362
G1 X61.094 Y94.622 E53.78029
G0 F9000 X61.389 Y94.897
G1 F3600 X61.507 Y94.817 E53.7874
G1 X71.362 Y89.127 E54.35514
G1 X71.624 Y89.022 E54.36922
G1 X71.858 Y88.993 E54.38098
G1 X73.905 Y88.984 E54.48311
G1 X74.184 Y89.023 E54.49716
G1 X74.44 Y89.137 E54.51114
G1 X78.464 Y91.661 E54.74813
G1 X82.507 Y92.849 E54.95836
G1 X88.159 Y92.944 E55.24038
G1 X91.66 Y92.015 E55.42109
G1 X102.541 Y85.732 E56.04795
G1 X102.859 Y85.615 E56.06485
G1 X104.506 Y85.311 E56.14841
G1 X104.927 Y85.323 E56.16942
G1 X106.633 Y85.742 E56.25706
G1 X106.956 Y85.886 E56.27471
G1 X108.407 Y86.871 E56.3622
G1 X108.543 Y86.982 E56.37096
G1 X119.273 Y97.442 E57.11855
G1 X119.38 Y97.564 E57.12665
G1 X121.808 Y100.854 E57.33065
G1 X121.891 Y100.988 E57.33851
G1 X124.492 Y106.003 E57.62036
G1 X124.572 Y106.213 E57.63157
G1 X128.841 Y122.75 E58.48365
G1 X128.867 Y123.113 E58.50181
G1 X128.54 Y126.001 E58.64681
G1 X128.469 Y126.274 E58.66089
G1 X128.302 Y126.542 E58.67664
G1 X127.387 Y127.599 E58.74639
G1 X127.131 Y127.811 E58.76297
G1 X116.014 Y134.228 E59.40337
G1 X114.462 Y135.713 E59.51053
G1 X111.93 Y139.077 E59.72059
G1 X110.553 Y142.401 E59.90009
