;FLAVOR:Marlin
;TIME:1272
;Filament used: 0.656858m
;Layer height: 0.3
;MINX:98.426
;MINY:88.426
;MINZ:0.3
;MAXX:121.574
;MAXY:96.574
;MAXZ:35.1
;Generated with Cura_SteamEngine 4.12.0
M140 S60
M105
M190 S60
M104 S224
M105
M109 S224
M82 ;absolute extrusion mode
G1 Z15.0 F2000 ;Move the platform
G28 ;Home
G29 ; Autolevel
;G92 X-4 Y-10 Z0; custom offset ??? Looks it does not work.
G92 E0
G92 E0
G1 F1500 E-6.5
;LAYER_COUNT:117
;LAYER:0
M107
M204 S1000
G0 F6000 X99.068 Y89.341 Z0.3
;TYPE:SKIRT
G1 F1500 E0
G1 F1200 X99.219 Y89.179 E0.01105
G1 X99.664 Y88.832 E0.0392
G1 X99.904 Y88.699 E0.05289
G1 X100.252 Y88.551 E0.07176
G1 X100.472 Y88.499 E0.08304
G1 X100.746 Y88.452 E0.09691
G1 X101.05 Y88.426 E0.11213
G1 X118.95 Y88.427 E1.00516
G1 X119.248 Y88.452 E1.02008
G1 X119.522 Y88.498 E1.03394
G1 X119.887 Y88.6 E1.05285
G1 X120.282 Y88.798 E1.07489
G1 X120.659 Y89.068 E1.09803
G1 X120.822 Y89.22 E1.10915
G1 X121.168 Y89.664 E1.13723
G1 X121.301 Y89.904 E1.15092
G1 X121.449 Y90.252 E1.16979
G1 X121.501 Y90.471 E1.18102
G1 X121.548 Y90.744 E1.19484
G1 X121.574 Y91.05 E1.21016
G1 X121.573 Y93.951 E1.35489
G1 X121.549 Y94.244 E1.36956
G1 X121.504 Y94.516 E1.38331
G1 X121.403 Y94.881 E1.40221
G1 X121.2 Y95.285 E1.42476
G1 X120.932 Y95.659 E1.44772
G1 X120.781 Y95.821 E1.45877
G1 X120.336 Y96.168 E1.48692
G1 X120.096 Y96.301 E1.50061
G1 X119.748 Y96.449 E1.51948
G1 X119.528 Y96.501 E1.53075
G1 X119.254 Y96.548 E1.54462
G1 X118.95 Y96.574 E1.55985
G1 X101.05 Y96.573 E2.45288
G1 X100.752 Y96.548 E2.4678
G1 X100.478 Y96.502 E2.48166
G1 X100.113 Y96.4 E2.50057
G1 X99.718 Y96.202 E2.52261
G1 X99.341 Y95.932 E2.54575
G1 X99.177 Y95.779 E2.55694
G1 X98.829 Y95.333 E2.58516
G1 X98.696 Y95.092 E2.59889
G1 X98.549 Y94.743 E2.61779
G1 X98.497 Y94.523 E2.62906
G1 X98.451 Y94.252 E2.64278
G1 X98.426 Y93.95 E2.6579
G1 X98.427 Y91.049 E2.80263
G1 X98.451 Y90.756 E2.81729
G1 X98.496 Y90.484 E2.83105
G1 X98.597 Y90.119 E2.84994
G1 X98.8 Y89.715 E2.8725
G1 X99.068 Y89.341 E2.89546
G0 F6000 X99.361 Y89.613
G1 F1200 X99.512 Y89.451 E2.9065
G1 X99.857 Y89.181 E2.92836
G1 X100.097 Y89.048 E2.94205
G1 X100.539 Y88.893 E2.96542
G1 X100.813 Y88.846 E2.97929
G1 X101.05 Y88.826 E2.99115
G1 X118.95 Y88.827 E3.88419
G1 X119.182 Y88.846 E3.8958
G1 X119.456 Y88.892 E3.90966
G1 X119.886 Y89.039 E3.93233
G1 X120.093 Y89.15 E3.94405
G1 X120.386 Y89.36 E3.96204
G1 X120.549 Y89.512 E3.97316
G1 X120.819 Y89.857 E3.99501
G1 X120.952 Y90.097 E4.0087
G1 X121.107 Y90.538 E4.03202
G1 X121.154 Y90.811 E4.04584
G1 X121.174 Y91.049 E4.05776
G1 X121.173 Y93.95 E4.20249
G1 X121.154 Y94.179 E4.21396
G1 X121.109 Y94.451 E4.22771
G1 X120.961 Y94.885 E4.25059
G1 X120.848 Y95.095 E4.26248
G1 X120.639 Y95.387 E4.2804
G1 X120.488 Y95.549 E4.29145
G1 X120.143 Y95.819 E4.3133
G1 X119.903 Y95.952 E4.32699
G1 X119.461 Y96.107 E4.35036
G1 X119.187 Y96.154 E4.36423
G1 X118.95 Y96.174 E4.3761
G1 X101.05 Y96.173 E5.26913
G1 X100.818 Y96.154 E5.28074
G1 X100.544 Y96.108 E5.29461
G1 X100.114 Y95.961 E5.31728
G1 X99.907 Y95.85 E5.329
G1 X99.614 Y95.64 E5.34698
G1 X99.45 Y95.487 E5.35817
G1 X99.179 Y95.139 E5.38018
G1 X99.046 Y94.898 E5.39391
G1 X98.892 Y94.456 E5.41726
G1 X98.846 Y94.185 E5.43097
G1 X98.826 Y93.951 E5.44269
G1 X98.827 Y91.05 E5.58742
G1 X98.846 Y90.821 E5.59889
G1 X98.891 Y90.549 E5.61264
G1 X99.039 Y90.115 E5.63552
G1 X99.152 Y89.905 E5.64742
G1 X99.361 Y89.613 E5.66533
G0 F6000 X99.653 Y89.886
G1 F1200 X99.804 Y89.724 E5.67638
G1 X100.051 Y89.531 E5.69202
G1 X100.291 Y89.398 E5.70571
G1 X100.607 Y89.287 E5.72242
G1 X100.881 Y89.24 E5.73629
G1 X101.05 Y89.226 E5.74475
G1 X118.95 Y89.227 E6.63778
G1 X119.116 Y89.241 E6.64609
G1 X119.39 Y89.287 E6.65995
G1 X119.697 Y89.392 E6.67614
G1 X119.904 Y89.503 E6.68786
G1 X120.113 Y89.653 E6.70069
G1 X120.276 Y89.805 E6.71181
G1 X120.469 Y90.051 E6.72741
G1 X120.602 Y90.291 E6.7411
G1 X120.713 Y90.606 E6.75776
G1 X120.76 Y90.879 E6.77158
G1 X120.774 Y91.049 E6.78009
G1 X120.773 Y93.95 E6.92483
G1 X120.76 Y94.113 E6.93298
G1 X120.715 Y94.385 E6.94674
G1 X120.609 Y94.696 E6.96313
G1 X120.496 Y94.906 E6.97503
G1 X120.347 Y95.114 E6.98779
G1 X120.196 Y95.276 E6.99884
G1 X119.949 Y95.469 E7.01448
G1 X119.709 Y95.602 E7.02817
G1 X119.393 Y95.713 E7.04488
G1 X119.119 Y95.76 E7.05875
G1 X118.95 Y95.774 E7.06721
G1 X101.05 Y95.773 E7.96024
G1 X100.884 Y95.759 E7.96856
G1 X100.61 Y95.713 E7.98242
G1 X100.303 Y95.608 E7.9986
G1 X100.096 Y95.497 E8.01032
G1 X99.887 Y95.347 E8.02316
G1 X99.723 Y95.194 E8.03435
G1 X99.529 Y94.946 E8.05006
G1 X99.396 Y94.705 E8.06379
G1 X99.286 Y94.389 E8.08048
G1 X99.24 Y94.118 E8.0942
G1 X99.226 Y93.951 E8.10256
G1 X99.227 Y91.05 E8.24729
G1 X99.24 Y90.887 E8.25545
G1 X99.285 Y90.615 E8.2692
G1 X99.391 Y90.304 E8.28559
G1 X99.504 Y90.094 E8.29749
G1 X99.653 Y89.886 E8.31025
G0 F6000 X100.097 Y89.997
G1 F1200 X100.245 Y89.881 E8.31964
G1 X100.485 Y89.748 E8.33333
G1 X100.675 Y89.682 E8.34336
G1 X100.949 Y89.635 E8.35723
G1 X101.05 Y89.626 E8.36229
G1 X118.95 Y89.627 E9.25532
G1 X119.049 Y89.635 E9.26028
G1 X119.323 Y89.681 E9.27414
G1 X119.715 Y89.855 E9.29554
G1 X120.003 Y90.097 E9.3143
G1 X120.119 Y90.245 E9.32369
G1 X120.252 Y90.485 E9.33738
G1 X120.318 Y90.674 E9.34736
G1 X120.365 Y90.947 E9.36118
G1 X120.374 Y91.049 E9.36629
G1 X120.373 Y93.95 E9.51102
G1 X120.365 Y94.048 E9.51593
G1 X120.32 Y94.32 E9.52968
G1 X120.143 Y94.716 E9.55132
G1 X119.903 Y95.003 E9.56999
G1 X119.755 Y95.119 E9.57937
G1 X119.515 Y95.252 E9.59306
G1 X119.325 Y95.318 E9.60309
G1 X119.051 Y95.365 E9.61696
G1 X118.95 Y95.374 E9.62202
G1 X101.05 Y95.373 E10.51506
G1 X100.951 Y95.365 E10.52001
G1 X100.677 Y95.319 E10.53387
G1 X100.285 Y95.145 E10.55527
G1 X99.996 Y94.902 E10.57411
G1 X99.88 Y94.753 E10.58353
G1 X99.747 Y94.512 E10.59726
G1 X99.68 Y94.322 E10.60731
G1 X99.634 Y94.051 E10.62103
G1 X99.626 Y93.951 E10.62603
G1 X99.627 Y91.05 E10.77076
G1 X99.635 Y90.952 E10.77567
G1 X99.68 Y90.68 E10.78942
G1 X99.857 Y90.284 E10.81106
G1 X100.097 Y89.997 E10.82973
G0 F6000 X100.209 Y90.473
G1 F1200 X100.39 Y90.27 E10.8433
G1 X100.439 Y90.231 E10.84642
G1 X100.679 Y90.098 E10.86011
G1 X100.742 Y90.076 E10.86344
G1 X101.016 Y90.029 E10.87731
G1 X101.05 Y90.026 E10.87901
G1 X118.95 Y90.027 E11.77205
G1 X118.983 Y90.03 E11.7737
G1 X119.257 Y90.076 E11.78756
G1 X119.526 Y90.208 E11.80251
G1 X119.73 Y90.39 E11.81615
G1 X119.769 Y90.439 E11.81928
G1 X119.902 Y90.679 E11.83296
G1 X119.924 Y90.742 E11.83629
G1 X119.971 Y91.015 E11.85011
G1 X119.974 Y91.049 E11.85182
G1 X119.973 Y93.95 E11.99655
G1 X119.97 Y93.983 E11.9982
G1 X119.925 Y94.255 E12.01196
G1 X119.791 Y94.527 E12.02708
G1 X119.61 Y94.73 E12.04065
G1 X119.561 Y94.769 E12.04378
G1 X119.321 Y94.902 E12.05747
G1 X119.258 Y94.924 E12.0608
G1 X118.984 Y94.971 E12.07466
G1 X118.95 Y94.974 E12.07637
G1 X101.05 Y94.973 E12.9694
G1 X101.017 Y94.97 E12.97106
G1 X100.743 Y94.924 E12.98492
G1 X100.474 Y94.792 E12.99987
G1 X100.269 Y94.609 E13.01358
G1 X100.23 Y94.56 E13.0167
G1 X100.097 Y94.319 E13.03043
G1 X100.075 Y94.255 E13.03381
G1 X100.029 Y93.984 E13.04752
G1 X100.026 Y93.951 E13.04918
G1 X100.027 Y91.05 E13.19391
G1 X100.03 Y91.017 E13.19556
G1 X100.075 Y90.745 E13.20932
G1 X100.209 Y90.473 E13.22444
G1 F1500 E6.72444
;MESH:Dongle Case.stl
G0 F6000 X100.692 Y90.874
G0 X100.911 Y94.234
G1 F1500 E13.22444
G0 F6000 X100.778 Y94.511
;TYPE:WALL-OUTER
G1 F1200 X100.562 Y94.339 E13.23822
G1 X100.442 Y94.089 E13.25205
G1 X100.426 Y93.939 E13.25958
G1 X100.427 Y91.059 E13.40326
G1 X100.489 Y90.777 E13.41767
G1 X100.661 Y90.562 E13.4314
G1 X100.911 Y90.442 E13.44524
G1 X101.061 Y90.426 E13.45277
G1 X118.941 Y90.427 E14.3448
G1 X119.222 Y90.489 E14.35916
G1 X119.438 Y90.661 E14.37293
G1 X119.558 Y90.911 E14.38677
G1 X119.574 Y91.061 E14.3943
G1 X119.573 Y93.941 E14.53798
G1 X119.511 Y94.222 E14.55234
G1 X119.339 Y94.438 E14.56611
G1 X119.089 Y94.558 E14.57995
G1 X118.939 Y94.574 E14.58747
G1 X101.059 Y94.573 E15.47951
G1 X100.778 Y94.511 E15.49387
G0 F6000 X100.622 Y94.387
G0 X100.897 Y94.043
G0 X100.954 Y94.14
;TYPE:WALL-INNER
G1 F1200 X100.833 Y93.978 E15.50395
G1 X100.826 Y93.916 E15.50707
G1 X100.827 Y91.103 E15.64741
G1 X100.86 Y90.953 E15.65507
G1 X101.022 Y90.833 E15.66513
G1 X101.084 Y90.826 E15.66824
G1 X118.896 Y90.827 E16.55688
G1 X119.046 Y90.86 E16.56455
G1 X119.167 Y91.022 E16.57463
G1 X119.174 Y91.084 E16.57775
G1 X119.173 Y93.896 E16.71804
G1 X119.14 Y94.046 E16.7257
G1 X118.978 Y94.167 E16.73579
G1 X118.916 Y94.174 E16.7389
G1 X101.104 Y94.173 E17.62755
G1 X100.954 Y94.14 E17.63521
G0 F6000 X101.226 Y93.773
G1 F1200 X101.227 Y91.226 E17.76228
G1 X118.774 Y91.227 E18.6377
G1 X118.773 Y93.774 E18.76477
G1 X101.226 Y93.773 E19.6402
G0 F6000 X101.616 Y93.383
;TYPE:SKIN
G1 F1200 X101.617 Y91.616 E19.72835
G1 X118.384 Y91.617 E20.56486
G1 X118.383 Y93.384 E20.65302
G1 X101.616 Y93.383 E21.48953
G0 F6000 X101.975 Y93.023
G1 F1200 X102.074 Y93.023 E21.49447
G1 X101.975 Y92.924 E21.50145
G1 X101.975 Y92.358 E21.52969
G1 X102.64 Y93.023 E21.57661
G1 X103.205 Y93.023 E21.6048
G1 X102.159 Y91.976 E21.67863
G1 X102.724 Y91.976 E21.70682
G1 X103.771 Y93.023 E21.78069
G1 X104.337 Y93.023 E21.80893
G1 X103.29 Y91.976 E21.8828
G1 X103.856 Y91.976 E21.91104
G1 X104.902 Y93.023 E21.98487
G1 X105.468 Y93.023 E22.01311
G1 X104.421 Y91.976 E22.08698
G1 X104.987 Y91.976 E22.11522
G1 X106.034 Y93.023 E22.18909
G1 X106.599 Y93.023 E22.21728
G1 X105.553 Y91.976 E22.29112
G1 X106.119 Y91.976 E22.31936
G1 X107.165 Y93.023 E22.39319
G1 X107.731 Y93.023 E22.42143
G1 X106.684 Y91.976 E22.4953
G1 X107.25 Y91.976 E22.52354
G1 X108.296 Y93.023 E22.59738
G1 X108.862 Y93.023 E22.62561
G1 X107.816 Y91.976 E22.69945
G1 X108.381 Y91.976 E22.72764
G1 X109.428 Y93.023 E22.80151
G1 X109.993 Y93.023 E22.8297
G1 X108.947 Y91.976 E22.90353
G1 X109.513 Y91.976 E22.93177
G1 X110.559 Y93.023 E23.00561
G1 X111.125 Y93.023 E23.03385
G1 X110.078 Y91.976 E23.10772
G1 X110.644 Y91.976 E23.13595
G1 X111.691 Y93.023 E23.20983
G1 X112.256 Y93.023 E23.23801
G1 X111.21 Y91.976 E23.31185
G1 X111.775 Y91.976 E23.34004
G1 X112.822 Y93.023 E23.41391
G1 X113.388 Y93.023 E23.44215
G1 X112.341 Y91.976 E23.51602
G1 X112.907 Y91.976 E23.54426
G1 X113.953 Y93.023 E23.61809
G1 X114.519 Y93.023 E23.64633
G1 X113.472 Y91.976 E23.7202
G1 X114.038 Y91.976 E23.74844
G1 X115.085 Y93.023 E23.82231
G1 X115.65 Y93.023 E23.8505
G1 X114.604 Y91.976 E23.92434
G1 X115.17 Y91.976 E23.95257
G1 X116.216 Y93.023 E24.02641
G1 X116.782 Y93.023 E24.05465
G1 X115.735 Y91.976 E24.12852
G1 X116.301 Y91.976 E24.15676
G1 X117.347 Y93.023 E24.23059
G1 X117.913 Y93.023 E24.25883
G1 X116.867 Y91.976 E24.33267
G1 X117.432 Y91.976 E24.36086
G1 X118.023 Y92.567 E24.40255
G1 X118.023 Y92.002 E24.43074
G0 F6000 X118.023 Y91.976
G1 F1200 X117.998 Y91.976 E24.43199
G0 F6000 X117.999 Y91.037
;MESH:NONMESH
G0 F300 X117.999 Y91.037 Z0.6
G0 F6000 X101.409 Y91.408
G0 X100.965 Y94.038
;TIME_ELAPSED:31.848770
;LAYER:1
M106 S38.3
;TYPE:WALL-INNER
;MESH:Dongle Case.stl
G1 F1200 X100.915 Y93.864 E24.44102
G1 X100.916 Y91.125 E24.57767
G1 X100.962 Y90.965 E24.58598
G1 X101.136 Y90.915 E24.59501
G1 X118.875 Y90.916 E25.48001
G1 X119.035 Y90.962 E25.48832
G1 X119.085 Y91.136 E25.49735
G1 X119.084 Y93.875 E25.634
G1 X119.038 Y94.035 E25.6423
G1 X118.864 Y94.085 E25.65134
G1 X101.125 Y94.084 E26.53634
G1 X100.965 Y94.038 E26.54464
G0 F4200 X100.876 Y94.449
G1 F1200 X100.718 Y94.362 E26.55364
G1 X100.605 Y94.236 E26.56209
G1 X100.515 Y93.921 E26.57843
G1 X100.516 Y91.092 E26.71957
G1 X100.551 Y90.876 E26.73049
G1 X100.638 Y90.718 E26.73949
G1 X100.764 Y90.605 E26.74793
G1 X101.079 Y90.515 E26.76427
G1 X118.908 Y90.516 E27.65377
G1 X119.124 Y90.551 E27.66468
G1 X119.282 Y90.638 E27.67368
G1 X119.395 Y90.764 E27.68213
G1 X119.485 Y91.079 E27.69847
G1 X119.484 Y93.908 E27.83961
G1 X119.449 Y94.124 E27.85053
G1 X119.362 Y94.282 E27.85952
G1 X119.236 Y94.395 E27.86797
G1 X118.921 Y94.485 E27.88431
G1 X101.092 Y94.484 E28.77381
G1 X100.876 Y94.449 E28.78472
G0 F4200 X100.743 Y94.833
;TYPE:WALL-OUTER
G1 F1200 X100.465 Y94.679 E28.80058
G1 X100.262 Y94.452 E28.81577
G1 X100.14 Y94.161 E28.83151
G1 X100.115 Y93.939 E28.84266
G1 X100.116 Y91.059 E28.98634
G1 X100.167 Y90.743 E29.00231
G1 X100.321 Y90.465 E29.01817
G1 X100.548 Y90.262 E29.03336
G1 X100.839 Y90.14 E29.0491
G1 X101.061 Y90.115 E29.06025
G1 X118.941 Y90.116 E29.95228
G1 X119.257 Y90.167 E29.96825
G1 X119.535 Y90.321 E29.98411
G1 X119.738 Y90.548 E29.9993
G1 X119.86 Y90.839 E30.01504
G1 X119.885 Y91.061 E30.02619
G1 X119.884 Y93.941 E30.16987
G1 X119.833 Y94.257 E30.18584
G1 X119.679 Y94.535 E30.2017
G1 X119.452 Y94.738 E30.21689
G1 X119.161 Y94.86 E30.23263
G1 X118.939 Y94.885 E30.24378
G1 X101.059 Y94.884 E31.13582
G1 X100.743 Y94.833 E31.15179
G0 F4200 X100.568 Y94.736
G0 X100.781 Y94.352
G0 X101.305 Y93.694
;TYPE:SKIN
G1 F1200 X101.306 Y91.305 E31.27097
G1 X118.695 Y91.306 E32.13851
G1 X118.694 Y93.695 E32.2577
G1 X101.305 Y93.694 E33.12524
G0 F4200 X101.026 Y93.693
G0 X118.331 Y93.974
G0 X118.332 Y93.335
G1 F1200 X118.332 Y93.233 E33.13033
G1 X118.231 Y93.335 E33.13749
G1 X117.665 Y93.335 E33.16573
G1 X118.332 Y92.667 E33.21283
G1 X118.333 Y92.101 E33.24106
G1 X117.099 Y93.335 E33.32813
G1 X116.534 Y93.335 E33.35632
G1 X118.203 Y91.665 E33.47411
G1 X117.637 Y91.665 E33.50235
G1 X115.968 Y93.335 E33.62014
G1 X115.402 Y93.335 E33.64838
G1 X117.072 Y91.665 E33.76621
G1 X116.506 Y91.665 E33.79444
G1 X114.836 Y93.335 E33.91227
G1 X114.271 Y93.335 E33.94046
G1 X115.94 Y91.665 E34.05825
G1 X115.375 Y91.665 E34.08644
G1 X113.705 Y93.335 E34.20427
G1 X113.139 Y93.335 E34.2325
G1 X114.809 Y91.665 E34.35033
G1 X114.243 Y91.665 E34.37857
G1 X112.574 Y93.335 E34.49636
G1 X112.008 Y93.335 E34.5246
G1 X113.678 Y91.665 E34.64243
G1 X113.112 Y91.665 E34.67067
G1 X111.442 Y93.335 E34.78849
G1 X110.877 Y93.335 E34.81668
G1 X112.546 Y91.665 E34.93447
G1 X111.98 Y91.665 E34.96271
G1 X110.311 Y93.335 E35.0805
G1 X109.745 Y93.335 E35.10874
G1 X111.415 Y91.665 E35.22657
G1 X110.849 Y91.665 E35.25481
G1 X109.18 Y93.335 E35.3726
G1 X108.614 Y93.335 E35.40084
G1 X110.283 Y91.665 E35.51863
G1 X109.718 Y91.665 E35.54682
G1 X108.048 Y93.335 E35.66464
G1 X107.483 Y93.335 E35.69283
G1 X109.153 Y91.665 E35.81066
G1 X108.587 Y91.665 E35.8389
G1 X106.917 Y93.335 E35.95673
G1 X106.351 Y93.335 E35.98496
G1 X108.021 Y91.665 E36.10279
G1 X107.456 Y91.665 E36.13098
G1 X105.786 Y93.335 E36.24881
G1 X105.22 Y93.335 E36.27704
G1 X106.89 Y91.665 E36.39487
G1 X106.324 Y91.665 E36.42311
G1 X104.654 Y93.335 E36.54094
G1 X104.088 Y93.335 E36.56917
G1 X105.759 Y91.665 E36.68704
G1 X105.193 Y91.665 E36.71528
G1 X103.523 Y93.335 E36.8331
G1 X102.957 Y93.335 E36.86134
G1 X104.627 Y91.665 E36.97917
G1 X104.062 Y91.665 E37.00736
G1 X102.391 Y93.335 E37.12522
G1 X101.826 Y93.335 E37.15341
G1 X103.496 Y91.665 E37.27123
G1 X102.93 Y91.665 E37.29947
G1 X101.664 Y92.93 E37.38876
G1 X101.664 Y92.365 E37.41695
G1 X102.365 Y91.665 E37.46637
G1 X101.799 Y91.665 E37.49461
G1 X101.664 Y91.799 E37.5041
G1 X101.664 Y91.665 E37.51078
G0 F4200 X100.726 Y91.664
;MESH:NONMESH
G0 F300 X100.726 Y91.664 Z0.9
G0 F4200 X100.981 Y94.194
;TIME_ELAPSED:46.876680
;LAYER:2
M106 S76.5
;TYPE:WALL-INNER
;MESH:Dongle Case.stl
G1 F1200 X100.81 Y94.042 E37.5222
G1 X100.782 Y93.871 E37.53084
G1 X100.783 Y91.126 E37.66779
G1 X100.841 Y90.904 E37.67924
G1 X100.979 Y90.806 E37.68768
G1 X101.128 Y90.782 E37.69521
G1 X118.875 Y90.783 E38.58062
G1 X119.021 Y90.806 E38.58799
G1 X119.19 Y90.958 E38.59933
G1 X119.218 Y91.129 E38.60797
G1 X119.217 Y93.874 E38.74492
G1 X119.194 Y94.019 E38.75225
G1 X119.042 Y94.19 E38.76366
G1 X118.87 Y94.218 E38.77236
G1 X101.126 Y94.217 E39.65761
G1 X100.981 Y94.194 E39.66493
G0 F2400 X100.827 Y94.574
G1 F1200 X100.532 Y94.365 E39.68297
G1 X100.426 Y94.173 E39.69391
G1 X100.382 Y93.905 E39.70746
G1 X100.383 Y91.093 E39.84775
G1 X100.426 Y90.827 E39.86119
G1 X100.535 Y90.63 E39.87243
G1 X100.825 Y90.426 E39.89012
G1 X101.095 Y90.382 E39.90376
G1 X118.907 Y90.383 E40.79241
G1 X119.175 Y90.426 E40.80595
G1 X119.466 Y90.632 E40.82374
G1 X119.574 Y90.826 E40.83482
G1 X119.618 Y91.095 E40.84841
