;FLAVOR:Marlin
;TIME:1698
;Filament used: 1.18551m
;Layer height: 0.2
;MINX:91.296
;MINY:77.669
;MINZ:0.2
;MAXX:128.699
;MAXY:125.331
;MAXZ:9.6
;Generated with Cura_SteamEngine 4.12.0
M140 S60
M105
M190 S60
M104 S224
M105
M109 S224
M82 ;absolute extrusion mode
G1 Z15.0 F2000 ;Move the platform
G28 ;Home
G29 ; Autolevel
;G92 X-4 Y-10 Z0; custom offset ??? Looks it does not work.
G92 E0
G92 E0
G1 F1500 E-6.5
;LAYER_COUNT:48
;LAYER:0
M107
M204 S1000
G0 F9000 X92.711 Y84.34 Z0.2
;TYPE:SKIRT
G1 F1500 E0
G1 F1800 X92.956 Y84.072 E0.01208
G1 X93.354 Y83.698 E0.03024
G1 X93.519 Y83.565 E0.03729
G1 X93.803 Y83.358 E0.04898
G1 X93.946 Y83.266 E0.05464
G1 X94.193 Y83.113 E0.0643
G1 X94.521 Y82.932 E0.07676
G1 X94.722 Y82.841 E0.0841
G1 X95.002 Y82.723 E0.0942
G1 X95.372 Y82.59 E0.10728
G1 X95.901 Y82.434 E0.12562
G1 X112.112 Y78.092 E0.68381
G1 X113.288 Y77.802 E0.7241
G1 X113.796 Y77.714 E0.74124
G1 X114.1 Y77.684 E0.7514
G1 X114.56 Y77.669 E0.76671
G1 X114.764 Y77.675 E0.7735
G1 X115.105 Y77.701 E0.78487
G1 X115.328 Y77.734 E0.79237
G1 X115.7 Y77.801 E0.80494
G1 X116.092 Y77.894 E0.81834
G1 X116.226 Y77.934 E0.82299
G1 X116.707 Y78.116 E0.8401
G1 X117.066 Y78.282 E0.85325
G1 X117.405 Y78.462 E0.86602
G1 X117.622 Y78.592 E0.87443
G1 X118.023 Y78.87 E0.89066
G1 X118.219 Y79.027 E0.89902
G1 X118.521 Y79.299 E0.91253
G1 X118.682 Y79.461 E0.92013
G1 X118.912 Y79.715 E0.93153
G1 X119.04 Y79.871 E0.93824
G1 X119.303 Y80.235 E0.95317
G1 X119.482 Y80.519 E0.96434
G1 X119.713 Y80.949 E0.98058
G1 X119.823 Y81.191 E0.98942
G1 X120.005 Y81.684 E1.0069
G1 X120.353 Y82.894 E1.04877
G1 X128.27 Y112.446 E2.06634
G1 X128.58 Y113.7 E2.1093
G1 X128.674 Y114.286 E2.12904
G1 X128.695 Y114.557 E2.13808
G1 X128.699 Y115.062 E2.15488
G1 X128.679 Y115.378 E2.16541
G1 X128.633 Y115.765 E2.17837
G1 X128.597 Y115.973 E2.18539
G1 X128.512 Y116.346 E2.19812
G1 X128.445 Y116.581 E2.20624
G1 X128.335 Y116.908 E2.21772
G1 X128.275 Y117.061 E2.22318
G1 X128.054 Y117.524 E2.24025
G1 X127.882 Y117.827 E2.25184
G1 X127.644 Y118.204 E2.26666
G1 X127.29 Y118.659 E2.28584
G1 X127.044 Y118.928 E2.29796
G1 X126.649 Y119.3 E2.31601
G1 X126.488 Y119.43 E2.32289
G1 X126.19 Y119.646 E2.33513
G1 X126.033 Y119.747 E2.34134
G1 X125.805 Y119.888 E2.35026
G1 X125.522 Y120.046 E2.36104
G1 X125.278 Y120.159 E2.36998
G1 X124.998 Y120.277 E2.38009
G1 X124.629 Y120.41 E2.39313
G1 X124.163 Y120.549 E2.40931
G1 X114.478 Y123.145 E2.7428
G1 X107.869 Y124.914 E2.97036
G1 X106.718 Y125.197 E3.00978
G1 X106.225 Y125.282 E3.02642
G1 X105.913 Y125.314 E3.03685
G1 X105.44 Y125.331 E3.05259
G1 X105.236 Y125.325 E3.05938
G1 X104.895 Y125.299 E3.07076
G1 X104.672 Y125.266 E3.07825
G1 X104.3 Y125.199 E3.09083
G1 X103.908 Y125.106 E3.10423
G1 X103.774 Y125.066 E3.10888
G1 X103.293 Y124.883 E3.12599
G1 X102.932 Y124.716 E3.13922
G1 X102.591 Y124.536 E3.15205
G1 X102.376 Y124.407 E3.16039
G1 X101.968 Y124.122 E3.17694
G1 X101.756 Y123.951 E3.186
G1 X101.445 Y123.669 E3.19996
G1 X101.296 Y123.517 E3.20704
G1 X101.075 Y123.27 E3.21807
G1 X100.948 Y123.114 E3.22476
G1 X100.702 Y122.773 E3.23874
G1 X100.536 Y122.512 E3.24903
G1 X100.337 Y122.155 E3.26262
G1 X100.246 Y121.968 E3.26954
G1 X100.125 Y121.69 E3.27962
G1 X100.091 Y121.602 E3.28276
G1 X99.989 Y121.298 E3.29343
G1 X99.643 Y120.091 E3.33519
G1 X91.73 Y90.553 E4.35227
G1 X91.42 Y89.297 E4.3953
G1 X91.326 Y88.709 E4.4151
G1 X91.305 Y88.435 E4.42424
G1 X91.296 Y88.052 E4.43699
G1 X91.302 Y87.852 E4.44364
G1 X91.328 Y87.513 E4.45495
G1 X91.365 Y87.242 E4.46405
G1 X91.4 Y87.037 E4.47096
G1 X91.481 Y86.677 E4.48324
G1 X91.537 Y86.476 E4.49018
G1 X91.642 Y86.158 E4.50131
G1 X91.713 Y85.972 E4.50794
G1 X91.944 Y85.481 E4.52598
G1 X92.122 Y85.167 E4.53799
G1 X92.362 Y84.788 E4.55291
G1 X92.711 Y84.34 E4.5718
G0 F9000 X93.006 Y84.61
G1 F1800 X93.251 Y84.342 E4.58387
G1 X93.605 Y84.01 E4.60002
G1 X93.77 Y83.877 E4.60707
G1 X94.022 Y83.693 E4.61744
G1 X94.157 Y83.606 E4.62279
G1 X94.404 Y83.453 E4.63245
G1 X94.695 Y83.292 E4.64351
G1 X94.877 Y83.209 E4.65016
G1 X95.157 Y83.091 E4.66027
G1 X95.486 Y82.973 E4.67189
G1 X96.005 Y82.82 E4.68989
G1 X112.208 Y78.48 E5.2478
G1 X113.384 Y78.19 E5.28809
G1 X113.836 Y78.112 E5.30334
G1 X114.14 Y78.082 E5.3135
G1 X114.548 Y78.068 E5.32708
G1 X114.752 Y78.074 E5.33387
G1 X115.087 Y78.102 E5.34505
G1 X115.257 Y78.128 E5.35077
G1 X115.629 Y78.195 E5.36334
G1 X115.977 Y78.278 E5.37524
G1 X116.111 Y78.318 E5.37989
G1 X116.539 Y78.479 E5.3951
G1 X116.898 Y78.645 E5.40826
G1 X117.2 Y78.805 E5.41962
G1 X117.417 Y78.935 E5.42804
G1 X117.773 Y79.182 E5.44245
G1 X117.969 Y79.339 E5.4508
G1 X118.238 Y79.581 E5.46284
G1 X118.399 Y79.743 E5.47043
G1 X118.603 Y79.969 E5.48056
G1 X118.731 Y80.125 E5.48727
G1 X118.964 Y80.449 E5.50054
G1 X119.143 Y80.733 E5.51171
G1 X119.349 Y81.115 E5.52614
G1 X119.459 Y81.357 E5.53499
G1 X119.621 Y81.795 E5.55052
G1 X119.967 Y82.998 E5.59215
G1 X127.881 Y112.542 E6.60943
G1 X128.191 Y113.796 E6.6524
G1 X128.275 Y114.317 E6.66995
G1 X128.296 Y114.588 E6.67899
G1 X128.3 Y115.037 E6.69393
G1 X128.28 Y115.353 E6.70446
G1 X128.239 Y115.697 E6.71598
G1 X128.203 Y115.905 E6.723
G1 X128.127 Y116.236 E6.7343
G1 X128.06 Y116.471 E6.74242
G1 X127.962 Y116.762 E6.75264
G1 X127.902 Y116.915 E6.7581
G1 X127.706 Y117.327 E6.77328
G1 X127.534 Y117.63 E6.78487
G1 X127.309 Y117.984 E6.79882
G1 X126.994 Y118.39 E6.81591
G1 X126.748 Y118.659 E6.82803
G1 X126.397 Y118.989 E6.84406
G1 X126.236 Y119.119 E6.85094
G1 X125.972 Y119.311 E6.8618
G1 X125.823 Y119.407 E6.86769
G1 X125.595 Y119.548 E6.87661
G1 X125.311 Y119.704 E6.88738
G1 X125.123 Y119.791 E6.89427
G1 X124.843 Y119.909 E6.90438
G1 X124.515 Y120.026 E6.91596
G1 X123.962 Y120.19 E6.93515
G1 X107.837 Y124.509 E7.49037
G1 X106.622 Y124.808 E7.53199
G1 X106.184 Y124.884 E7.54677
G1 X105.872 Y124.916 E7.55721
G1 X105.452 Y124.932 E7.57118
G1 X105.248 Y124.926 E7.57797
G1 X104.913 Y124.898 E7.58915
G1 X104.743 Y124.872 E7.59487
G1 X104.371 Y124.805 E7.60745
G1 X104.023 Y124.722 E7.61934
G1 X103.889 Y124.682 E7.624
G1 X103.46 Y124.52 E7.63925
G1 X103.099 Y124.353 E7.65248
G1 X102.797 Y124.193 E7.66384
G1 X102.582 Y124.064 E7.67218
G1 X102.219 Y123.811 E7.6869
G1 X102.007 Y123.64 E7.69596
G1 X101.731 Y123.389 E7.70837
G1 X101.582 Y123.237 E7.71545
G1 X101.385 Y123.017 E7.72527
G1 X101.258 Y122.861 E7.73196
G1 X101.04 Y122.558 E7.74438
G1 X100.874 Y122.297 E7.75466
G1 X100.697 Y121.98 E7.76674
G1 X100.606 Y121.793 E7.77366
G1 X100.498 Y121.546 E7.78262
G1 X100.464 Y121.458 E7.78576
G1 X100.373 Y121.188 E7.79524
G1 X100.029 Y119.987 E7.83679
G1 X92.118 Y90.457 E8.85359
G1 X91.808 Y89.201 E8.89662
G1 X91.724 Y88.679 E8.91421
G1 X91.703 Y88.405 E8.92335
G1 X91.695 Y88.064 E8.93469
G1 X91.701 Y87.864 E8.94135
G1 X91.725 Y87.563 E8.95139
G1 X91.76 Y87.309 E8.95992
G1 X91.795 Y87.104 E8.96684
G1 X91.866 Y86.784 E8.97774
G1 X91.922 Y86.583 E8.98468
G1 X92.015 Y86.301 E8.99455
G1 X92.086 Y86.115 E9.00118
G1 X92.292 Y85.678 E9.01724
G1 X92.47 Y85.364 E9.02925
G1 X92.696 Y85.008 E9.04327
G1 X93.006 Y84.61 E9.06005
G1 F1500 E2.56005
;MESH:Case.stl
G0 F9000 X94.924 Y86.248
G0 X95.76 Y86.936
G0 X107.857 Y94.346
;TYPE:WALL-INNER
G1 F1500 E9.06005
G1 F900 X108.277 Y94.233 E9.07452
G1 X109.681 Y99.464 E9.25466
G1 X109.307 Y99.758 E9.27048
G1 X107.857 Y94.346 E9.45684
G0 F9000 X107.367 Y94.063
G1 F900 X108.56 Y93.743 E9.49792
G1 X110.135 Y99.615 E9.70012
G1 X109.078 Y100.448 E9.74489
G1 X107.367 Y94.063 E9.96474
G0 F9000 X106.982 Y94.167
G1 F900 X106.878 Y93.78 E9.97807
G1 X108.842 Y93.253 E10.04571
G1 X108.945 Y93.639 E10.05899
G1 X110.59 Y99.766 E10.27
G1 X108.849 Y101.138 E10.34372
G1 X106.982 Y94.167 E10.58375
G0 F9000 X106.774 Y93.395
G1 F900 X109.125 Y92.763 E10.66472
G1 X111.044 Y99.917 E10.91107
G1 X108.86 Y101.638 E11.00356
G1 X108.647 Y101.929 E11.01555
G1 X106.388 Y93.498 E11.30586
G1 X106.774 Y93.395 E11.31915
G0 F9000 X106.003 Y93.602
G1 F900 X105.899 Y93.215 E11.33248
G1 X109.407 Y92.273 E11.45329
G1 X109.51 Y92.659 E11.46657
G1 X111.51 Y100.11 E11.72317
G1 X111.374 Y100.167 E11.72807
G1 X109.15 Y101.919 E11.82224
G1 X108.721 Y102.502 E11.84631
G1 X108.476 Y102.836 E11.86009
G1 X108.369 Y102.436 E11.86766
G1 X106.003 Y93.602 E12.17183
G0 F9000 X105.409 Y92.932
G1 F900 X109.69 Y91.783 E12.31926
G1 X111.986 Y100.342 E12.614
G1 X111.579 Y100.514 E12.62869
G1 X109.44 Y102.2 E12.71928
G1 X108.55 Y103.409 E12.76921
G1 X108.305 Y103.743 E12.78299
G1 X108.198 Y103.343 E12.79056
G1 X105.409 Y92.932 E13.14904
G0 F9000 X105.024 Y93.036
G1 F1800 X104.92 Y92.649 E13.16237
G1 X109.972 Y91.293 E13.33634
G1 X110.075 Y91.679 E13.34963
G1 X112.463 Y100.576 E13.65602
G1 X111.784 Y100.862 E13.68053
G1 X109.73 Y102.481 E13.76751
G1 X108.162 Y104.612 E13.85551
G1 X108.14 Y104.671 E13.8576
G1 X107.92 Y103.847 E13.88597
G1 X105.024 Y93.036 E14.25822
G0 F9000 X104.43 Y92.366
G1 F1800 X110.255 Y90.803 E14.45882
G1 X112.94 Y100.81 E14.80342
G1 X111.989 Y101.21 E14.83774
G1 X110.02 Y102.762 E14.92113
G1 X108.517 Y104.804 E15.00546
G1 X108.295 Y105.397 E15.02652
G1 X108.077 Y105.98 E15.04722
G1 X107.917 Y105.378 E15.05806
G1 X107.755 Y104.775 E15.07883
G1 X104.43 Y92.366 E15.50611
G0 F9000 X103.94 Y92.083
G1 F1800 X110.538 Y90.313 E15.73332
G1 X113.417 Y101.044 E16.10286
G1 X112.194 Y101.558 E16.14698
G1 X110.31 Y103.043 E16.22677
G1 X108.872 Y104.996 E16.30743
G1 X108.234 Y106.703 E16.36805
G1 X108.028 Y107.256 E16.38767
G1 X108.022 Y107.318 E16.38974
G1 X107.87 Y106.747 E16.40052
G1 X107.692 Y106.084 E16.42335
G1 X103.94 Y92.083 E16.90546
G0 F9000 X103.45 Y91.8
G1 F1800 X110.821 Y89.823 E17.15929
G1 X113.894 Y101.278 E17.55375
G1 X112.399 Y101.906 E17.60769
G1 X110.6 Y103.324 E17.68387
G1 X109.227 Y105.188 E17.76087
G1 X108.421 Y107.346 E17.83749
G1 X108.315 Y108.466 E17.87491
G1 X108.212 Y109.571 E17.91182
G1 X107.925 Y108.499 E17.93056
G1 X103.45 Y91.8 E18.50557
G0 F9000 X109.114 Y112.937
G1 F900 X109.224 Y113.169 E18.51411
G1 X109.179 Y113.181
G1 X109.114 Y112.937 E18.51454
G0 F9000 X109.328 Y113.554
G1 F1800 X108.896 Y113.67 E18.52942
G1 X102.96 Y91.517 E19.29223
G1 X111.104 Y89.333 E19.57267
G1 X114.371 Y101.512 E19.99206
G1 X112.604 Y102.254 E20.05581
G1 X110.89 Y103.605 E20.12839
G1 X109.582 Y105.38 E20.20173
G1 X108.814 Y107.436 E20.27473
G1 X108.611 Y109.594 E20.34682
G1 X108.994 Y111.76 E20.41998
G1 X109.792 Y113.43 E20.48154
G1 X109.328 Y113.554 E20.49751
G0 F9000 X108.613 Y114.16
G1 F1800 X102.47 Y91.234 E21.28693
G1 X111.387 Y88.843 E21.59399
G1 X114.857 Y101.78 E22.03949
G1 X114.726 Y101.797 E22.04388
G1 X112.809 Y102.602 E22.11303
G1 X111.18 Y103.886 E22.18202
G1 X109.937 Y105.572 E22.25169
G1 X109.207 Y107.526 E22.32107
G1 X109.014 Y109.578 E22.38962
G1 X109.378 Y111.637 E22.45916
G1 X110.279 Y113.522 E22.52865
G1 X110.415 Y113.677 E22.53551
G1 X108.613 Y114.16 E22.59756
G0 F9000 X108.717 Y114.545
G1 F1800 X108.33 Y114.649 E22.61089
G1 X101.98 Y90.951 E23.42689
G1 X111.67 Y88.353 E23.76057
G1 X115.362 Y102.12 E24.23464
G1 X114.83 Y102.187 E24.25247
G1 X113.014 Y102.95 E24.31799
G1 X111.47 Y104.167 E24.38338
G1 X110.292 Y105.764 E24.44938
G1 X109.6 Y107.616 E24.51514
G1 X109.417 Y109.562 E24.58015
G1 X109.762 Y111.514 E24.64608
G1 X110.616 Y113.3 E24.71192
G1 X111.138 Y113.897 E24.7383
G1 X110.519 Y114.062 E24.7596
G1 X108.717 Y114.545 E24.82166
G0 F9000 X108.047 Y115.139
G1 F1800 X101.49 Y90.668 E25.66428
G1 X111.953 Y87.863 E26.02457
G1 X115.867 Y102.459 E26.52718
G1 X114.935 Y102.577 E26.55843
G1 X113.219 Y103.298 E26.62033
G1 X111.76 Y104.448 E26.68212
G1 X110.647 Y105.956 E26.74446
G1 X109.993 Y107.706 E26.8066
G1 X109.82 Y109.546 E26.86807
G1 X110.146 Y111.391 E26.93038
G1 X110.953 Y113.078 E26.99258
G1 X111.438 Y113.634 E27.01712
G1 X111.861 Y114.117 E27.03848
G1 X108.047 Y115.139 E27.16981
G0 F9000 X108.151 Y115.524
G1 F1800 X107.764 Y115.628 E27.18313
G1 X101 Y90.385 E28.05234
G1 X112.236 Y87.373 E28.43924
G1 X116.372 Y102.798 E28.9704
G1 X115.04 Y102.967 E29.01506
G1 X113.424 Y103.646 E29.07336
G1 X112.05 Y104.729 E29.13155
G1 X111.002 Y106.149 E29.19025
G1 X110.386 Y107.796 E29.24873
G1 X110.223 Y109.53 E29.30666
G1 X110.53 Y111.268 E29.36536
G1 X111.29 Y112.856 E29.42392
G1 X112.423 Y114.152 E29.48117
G1 X112.663 Y114.316 E29.49084
G1 X108.151 Y115.524 E29.6462
G0 F9000 X107.481 Y116.118
G1 F1800 X100.51 Y90.102 E30.54202
G1 X112.519 Y86.883 E30.95554
G1 X116.892 Y103.194 E31.5172
G1 X116.544 Y103.179 E31.52879
G1 X115.145 Y103.357 E31.57569
G1 X113.629 Y103.994 E31.63039
G1 X112.34 Y105.01 E31.68498
G1 X111.357 Y106.342 E31.74004
G1 X110.779 Y107.886 E31.79487
G1 X110.626 Y109.514 E31.84926
G1 X110.914 Y111.145 E31.90434
G1 X111.627 Y112.634 E31.95925
G1 X112.69 Y113.85 E32.01297
G1 X113.251 Y114.232 E32.03554
G1 X113.61 Y114.476 E32.04998
G1 X113.19 Y114.588 E32.05786
G1 X107.481 Y116.118 E32.25444
G0 F9000 X107.198 Y116.608
G1 F1800 X100.02 Y89.819 E33.17688
G1 X112.802 Y86.393 E33.61702
G1 X117.277 Y103.09 E34.19196
G1 X117.419 Y103.617 E34.21011
G1 X116.561 Y103.58 E34.23868
G1 X115.25 Y103.747 E34.28263
G1 X113.834 Y104.342 E34.33372
G1 X112.63 Y105.291 E34.38471
G1 X111.712 Y106.535 E34.43613
G1 X111.172 Y107.976 E34.48731
G1 X111.029 Y109.498 E34.53816
G1 X111.298 Y111.022 E34.58963
G1 X111.964 Y112.412 E34.64089
G1 X112.957 Y113.548 E34.69108
G1 X114.21 Y114.401 E34.74149
G1 X114.756 Y114.583 E34.76064
G1 X114.293 Y114.707 E34.76645
G1 X107.198 Y116.608 E35.01075
G0 F9000 X106.915 Y117.098
G1 F1800 X99.53 Y89.536 E35.9598
G1 X113.085 Y85.903 E36.42656
G1 X117.976 Y104.149 E37.05485
G1 X117.416 Y104.017 E37.07398
G1 X116.578 Y103.981 E37.10188
G1 X115.355 Y104.137 E37.14289
G1 X114.039 Y104.69 E37.19036
G1 X112.92 Y105.572 E37.23775
G1 X112.067 Y106.728 E37.28554
G1 X111.565 Y108.067 E37.3331
G1 X111.432 Y109.482 E37.38037
G1 X111.682 Y110.899 E37.42823
G1 X112.301 Y112.19 E37.47585
G1 X113.224 Y113.246 E37.52249
G1 X114.389 Y114.039 E37.56937
G1 X115.767 Y114.498 E37.61768
G1 X116.491 Y114.532 E37.64178
G1 X115.825 Y114.71 E37.64785
G1 X114.86 Y114.968 E37.68107
G1 X106.915 Y117.098 E37.95465
G0 F9000 X119.648 Y113.685
G1 F900 X119.847 Y113.578 E37.96217
G1 X120.371 Y113.086 E37.98607
G1 X120.472 Y113.464 E37.99909
G1 X119.648 Y113.685 E38.02189
G0 F9000 X119.611 Y113.251
G1 F1800 X120.562 Y112.358 E38.06528
G1 X120.581 Y112.326 E38.06652
G1 X120.962 Y113.747 E38.11545
G1 X116.595 Y114.917 E38.26582
G1 X106.632 Y117.588 E38.60889
G1 X99.04 Y89.253 E39.58456
G1 X113.368 Y85.413 E40.07793
G1 X118.361 Y104.045 E40.7195
G1 X118.539 Y104.707 E40.7423
G1 X118.493 Y104.682 E40.74404
G1 X117.361 Y104.415 E40.78272
G1 X116.595 Y104.382 E40.80823
G1 X115.46 Y104.527 E40.84628
G1 X114.244 Y105.038 E40.89015
G1 X113.21 Y105.853 E40.93394
G1 X112.422 Y106.921 E40.97809
G1 X111.958 Y108.158 E41.02203
G1 X111.835 Y109.466 E41.06572
G1 X112.066 Y110.775 E41.10994
G1 X112.638 Y111.968 E41.15394
G1 X113.491 Y112.944 E41.19705
G1 X114.568 Y113.677 E41.24038
G1 X115.841 Y114.101 E41.28501
G1 X117.157 Y114.162 E41.32883
G1 X118.444 Y113.881 E41.37264
G1 X119.611 Y113.251 E41.41675
G0 F9000 X119.375 Y112.924
G1 F1800 X120.248 Y112.104 E41.45659
G1 X120.482 Y111.716 E41.47166
G1 X120.724 Y111.316 E41.48721
G1 X120.844 Y111.768 E41.4956
G1 X120.966 Y112.222 E41.51124
G1 X121.347 Y113.643 E41.56017
G1 X121.451 Y114.03 E41.5735
G1 X106.349 Y118.078 E42.09352
G1 X98.55 Y88.97 E43.09581
G1 X113.651 Y84.923 E43.61579
G1 X118.924 Y104.603 E44.29344
G1 X119.047 Y105.057 E44.30908
G1 X119.167 Y105.507 E44.32457
G1 X118.758 Y105.284 E44.33294
G1 X118.348 Y105.059 E44.34849
G1 X117.306 Y104.813 E44.3841
G1 X116.612 Y104.783 E44.40721
G1 X115.565 Y104.917 E44.44231
G1 X114.449 Y105.386 E44.48258
G1 X113.5 Y106.134 E44.52277
G1 X112.777 Y107.114 E44.56327
G1 X112.351 Y108.249 E44.60359
G1 X112.238 Y109.45 E44.64371
G1 X112.45 Y110.651 E44.68428
G1 X112.975 Y111.746 E44.72467
G1 X113.758 Y112.642 E44.76424
G1 X114.747 Y113.315 E44.80403
G1 X115.915 Y113.704 E44.84498
G1 X117.123 Y113.76 E44.8852
G1 X118.304 Y113.502 E44.92541
G1 X119.375 Y112.924 E44.96588
G0 F9000 X119.139 Y112.597
G1 F1800 X119.934 Y111.85 E45.00217
G1 X120.504 Y110.907 E45.03882
