;FLAVOR:Marlin
;TIME:2743
;Filament used: 1.75508m
;Layer height: 0.2
;MINX:91.296
;MINY:77.669
;MINZ:0.2
;MAXX:151.617
;MAXY:125.331
;MAXZ:9.6
;Generated with Cura_SteamEngine 4.12.0
M140 S60
M105
M190 S60
M104 S224
M105
M109 S224
M82 ;absolute extrusion mode
G1 Z15.0 F2000 ;Move the platform
G28 ;Home
G29 ; Autolevel
;G92 X-4 Y-10 Z0; custom offset ??? Looks it does not work.
G92 E0
G92 E0
G1 F1500 E-6.5
;LAYER_COUNT:48
;LAYER:0
M107
M204 S1000
G0 F9000 X92.711 Y84.34 Z0.2
;TYPE:SKIRT
G1 F1500 E0
G1 F1800 X92.956 Y84.072 E0.01208
G1 X93.354 Y83.698 E0.03024
G1 X93.519 Y83.565 E0.03729
G1 X93.803 Y83.358 E0.04898
G1 X93.946 Y83.266 E0.05464
G1 X94.193 Y83.113 E0.0643
G1 X94.521 Y82.932 E0.07676
G1 X94.722 Y82.841 E0.0841
G1 X95.002 Y82.723 E0.0942
G1 X95.372 Y82.59 E0.10728
G1 X95.901 Y82.434 E0.12562
G1 X112.112 Y78.092 E0.68381
G1 X113.288 Y77.802 E0.7241
G1 X113.796 Y77.714 E0.74124
G1 X114.1 Y77.684 E0.7514
G1 X114.561 Y77.669 E0.76674
G1 X114.762 Y77.675 E0.77343
G1 X115.099 Y77.7 E0.78467
G1 X115.328 Y77.734 E0.79237
G1 X116.383 Y77.925 E0.82803
G1 X117.783 Y78.205 E0.87552
G1 X120.52 Y78.672 E0.96787
G1 X123.188 Y79.05 E1.05749
G1 X125.901 Y79.356 E1.1483
G1 X128.625 Y79.586 E1.23922
G1 X131.315 Y79.737 E1.32883
G1 X134.079 Y79.813 E1.4208
G1 X136.794 Y79.811 E1.5111
G1 X138.93 Y79.757 E1.58217
G1 X139.466 Y79.784 E1.60002
G1 X139.792 Y79.84 E1.61102
G1 X140.052 Y79.897 E1.61987
G1 X140.566 Y80.05 E1.63771
G1 X141.051 Y80.278 E1.65553
G1 X141.461 Y80.548 E1.67186
G1 X141.641 Y80.685 E1.67938
G1 X142.043 Y81.041 E1.69724
G1 X142.515 Y81.644 E1.72271
G1 X142.623 Y81.817 E1.7295
G1 X142.872 Y82.291 E1.7473
G1 X142.988 Y82.597 E1.75819
G1 X143.089 Y82.916 E1.76932
G1 X143.233 Y83.432 E1.78714
G1 X151.253 Y113.366 E2.81786
G1 X151.518 Y114.437 E2.85455
G1 X151.607 Y114.966 E2.8724
G1 X151.617 Y115.502 E2.89023
G1 X151.581 Y115.848 E2.9018
G1 X151.546 Y116.076 E2.90947
G1 X151.426 Y116.599 E2.92732
G1 X151.146 Y117.259 E2.95116
G1 X151.048 Y117.438 E2.95795
G1 X150.756 Y117.888 E2.97579
G1 X150.4 Y118.289 E2.99363
G1 X150.195 Y118.475 E3.00283
G1 X150.039 Y118.605 E3.00959
G1 X149.602 Y118.916 E3.02743
G1 X148.955 Y119.226 E3.05129
G1 X148.523 Y119.373 E3.06647
G1 X147.684 Y119.614 E3.0955
G1 X132.045 Y123.803 E3.63399
G1 X130.934 Y124.076 E3.67204
G1 X130.235 Y124.176 E3.69553
G1 X130.19 Y124.178 E3.69703
G1 X129.795 Y124.174 E3.71016
G1 X128.775 Y124.107 E3.74416
G1 X126.047 Y123.97 E3.83501
G1 X123.317 Y123.91 E3.92583
G1 X120.587 Y123.928 E4.01663
G1 X117.858 Y124.022 E4.10746
G1 X115.128 Y124.194 E4.19844
G1 X112.414 Y124.442 E4.28908
G1 X109.741 Y124.763 E4.37862
G1 X106.285 Y125.278 E4.49484
G1 X106.03 Y125.306 E4.50337
G1 X105.822 Y125.322 E4.51031
G1 X105.44 Y125.331 E4.52302
G1 X105.236 Y125.325 E4.52981
G1 X104.895 Y125.299 E4.54118
G1 X104.672 Y125.266 E4.54868
G1 X104.3 Y125.199 E4.56125
G1 X103.908 Y125.106 E4.57465
G1 X103.774 Y125.066 E4.5793
G1 X103.293 Y124.883 E4.59642
G1 X102.932 Y124.716 E4.60965
G1 X102.591 Y124.536 E4.62247
G1 X102.376 Y124.407 E4.63081
G1 X101.977 Y124.13 E4.64697
G1 X101.776 Y123.969 E4.65553
G1 X101.466 Y123.689 E4.66943
G1 X101.306 Y123.527 E4.677
G1 X101.079 Y123.275 E4.68828
G1 X100.954 Y123.122 E4.69485
G1 X100.705 Y122.777 E4.709
G1 X100.537 Y122.513 E4.71941
G1 X100.334 Y122.148 E4.7333
G1 X100.243 Y121.96 E4.74025
G1 X100.137 Y121.721 E4.74895
G1 X100.108 Y121.648 E4.75156
G1 X99.995 Y121.315 E4.76325
G1 X99.643 Y120.091 E4.80561
G1 X91.73 Y90.554 E5.82266
G1 X91.42 Y89.3 E5.86563
G1 X91.325 Y88.709 E5.88554
G1 X91.304 Y88.433 E5.89474
G1 X91.296 Y88.052 E5.90742
G1 X91.302 Y87.852 E5.91407
G1 X91.327 Y87.521 E5.92511
G1 X91.368 Y87.223 E5.93512
G1 X91.404 Y87.018 E5.94204
G1 X91.48 Y86.682 E5.9535
G1 X91.535 Y86.483 E5.96036
G1 X91.642 Y86.158 E5.97174
G1 X91.713 Y85.972 E5.97837
G1 X91.944 Y85.481 E5.99641
G1 X92.122 Y85.167 E6.00842
G1 X92.362 Y84.788 E6.02334
G1 X92.711 Y84.34 E6.04223
G0 F9000 X93.006 Y84.61
G1 F1800 X93.251 Y84.342 E6.0543
G1 X93.605 Y84.01 E6.07045
G1 X93.77 Y83.877 E6.0775
G1 X94.022 Y83.693 E6.08787
G1 X94.157 Y83.606 E6.09322
G1 X94.404 Y83.453 E6.10288
G1 X94.695 Y83.292 E6.11394
G1 X94.877 Y83.209 E6.12059
G1 X95.157 Y83.091 E6.1307
G1 X95.486 Y82.973 E6.14232
G1 X96.005 Y82.82 E6.16032
G1 X112.208 Y78.48 E6.71823
G1 X113.384 Y78.19 E6.75852
G1 X113.836 Y78.112 E6.77377
G1 X114.14 Y78.082 E6.78393
G1 X114.549 Y78.068 E6.79755
G1 X114.75 Y78.074 E6.80423
G1 X115.053 Y78.098 E6.81434
G1 X115.257 Y78.128 E6.8212
G1 X116.305 Y78.317 E6.85662
G1 X117.743 Y78.604 E6.90539
G1 X120.434 Y79.064 E6.99619
G1 X123.124 Y79.445 E7.08656
G1 X125.859 Y79.753 E7.1781
G1 X128.602 Y79.985 E7.26965
G1 X131.317 Y80.137 E7.3601
G1 X134.068 Y80.213 E7.45163
G1 X136.804 Y80.211 E7.54263
G1 X138.94 Y80.157 E7.6137
G1 X139.445 Y80.184 E7.63052
G1 X139.706 Y80.23 E7.63933
G1 X139.966 Y80.287 E7.64819
G1 X140.45 Y80.434 E7.66501
G1 X140.905 Y80.655 E7.68183
G1 X141.219 Y80.867 E7.69443
G1 X141.399 Y81.004 E7.70196
G1 X141.776 Y81.341 E7.71878
G1 X142.175 Y81.855 E7.74042
G1 X142.283 Y82.028 E7.7472
G1 X142.516 Y82.477 E7.76403
G1 X142.609 Y82.722 E7.77274
G1 X142.704 Y83.024 E7.78327
G1 X142.847 Y83.536 E7.80095
G1 X150.864 Y113.462 E8.83139
G1 X151.129 Y114.533 E8.86809
G1 X151.212 Y115.032 E8.88491
G1 X151.186 Y115.788 E8.91007
G1 X151.151 Y116.016 E8.91775
G1 X151.035 Y116.508 E8.93456
G1 X150.795 Y117.067 E8.95479
G1 X150.697 Y117.246 E8.96158
G1 X150.42 Y117.669 E8.9784
G1 X149.939 Y118.167 E9.00143
G1 X149.783 Y118.297 E9.00818
G1 X149.37 Y118.589 E9.025
G1 X148.819 Y118.849 E9.04527
G1 X148.412 Y118.989 E9.05958
G1 X147.58 Y119.228 E9.08837
G1 X131.95 Y123.415 E9.62656
G1 X130.839 Y123.688 E9.66461
G1 X130.217 Y123.777 E9.68551
G1 X130.172 Y123.779 E9.68701
G1 X129.821 Y123.775 E9.69868
G1 X128.821 Y123.71 E9.73201
G1 X126.04 Y123.57 E9.82463
G1 X123.324 Y123.51 E9.91498
G1 X120.571 Y123.528 E10.00655
G1 X117.853 Y123.622 E10.097
G1 X115.105 Y123.795 E10.18858
G1 X112.363 Y124.045 E10.28016
G1 X109.671 Y124.369 E10.37034
G1 X106.226 Y124.882 E10.48619
G1 X105.791 Y124.924 E10.50072
G1 X105.452 Y124.932 E10.512
G1 X105.248 Y124.926 E10.51879
G1 X104.913 Y124.898 E10.52997
G1 X104.743 Y124.872 E10.53569
G1 X104.371 Y124.805 E10.54826
G1 X104.023 Y124.722 E10.56016
G1 X103.889 Y124.682 E10.56481
G1 X103.46 Y124.52 E10.58007
G1 X103.099 Y124.353 E10.5933
G1 X102.797 Y124.193 E10.60466
G1 X102.582 Y124.064 E10.613
G1 X102.227 Y123.818 E10.62737
G1 X102.026 Y123.657 E10.63593
G1 X101.75 Y123.408 E10.6483
G1 X101.59 Y123.246 E10.65587
G1 X101.389 Y123.022 E10.66588
G1 X101.264 Y122.869 E10.67245
G1 X101.042 Y122.562 E10.68505
G1 X100.874 Y122.298 E10.69546
G1 X100.694 Y121.974 E10.70779
G1 X100.509 Y121.573 E10.72247
G1 X100.48 Y121.5 E10.72509
G1 X100.379 Y121.204 E10.73549
G1 X100.029 Y119.987 E10.77761
G1 X92.119 Y90.458 E11.79437
G1 X91.809 Y89.204 E11.83734
G1 X91.724 Y88.679 E11.85503
G1 X91.703 Y88.403 E11.86423
G1 X91.695 Y88.064 E11.87551
G1 X91.701 Y87.864 E11.88217
G1 X91.724 Y87.57 E11.89197
G1 X91.762 Y87.293 E11.90127
G1 X91.798 Y87.088 E11.9082
G1 X91.866 Y86.789 E11.91839
G1 X91.921 Y86.59 E11.92526
G1 X92.015 Y86.301 E11.93537
G1 X92.086 Y86.115 E11.94199
G1 X92.292 Y85.678 E11.95806
G1 X92.47 Y85.364 E11.97006
G1 X92.696 Y85.008 E11.98409
G1 X93.006 Y84.61 E12.00087
G1 F1500 E5.50087
;MESH:Case.stl
G0 F9000 X94.924 Y86.248
G0 X95.76 Y86.936
G0 X107.857 Y94.346
;TYPE:WALL-INNER
G1 F1500 E12.00087
G1 F900 X108.277 Y94.233 E12.01534
G1 X109.681 Y99.464 E12.19548
G1 X109.307 Y99.758 E12.2113
G1 X107.857 Y94.346 E12.39765
G0 F9000 X107.367 Y94.063
G1 F900 X108.56 Y93.743 E12.43873
G1 X110.135 Y99.615 E12.64094
G1 X109.078 Y100.448 E12.6857
G1 X107.367 Y94.063 E12.90556
G0 F9000 X106.982 Y94.167
G1 F900 X106.878 Y93.78 E12.91889
G1 X108.842 Y93.253 E12.98652
G1 X108.945 Y93.639 E12.99981
G1 X110.59 Y99.766 E13.21081
G1 X108.849 Y101.138 E13.28454
G1 X106.982 Y94.167 E13.52457
G0 F9000 X106.774 Y93.395
G1 F900 X109.125 Y92.763 E13.60554
G1 X111.044 Y99.917 E13.85189
G1 X108.86 Y101.638 E13.94437
G1 X108.647 Y101.929 E13.95637
G1 X106.388 Y93.498 E14.24668
G1 X106.774 Y93.395 E14.25996
G0 F9000 X106.003 Y93.602
G1 F900 X105.899 Y93.215 E14.27329
G1 X109.407 Y92.273 E14.3941
G1 X109.51 Y92.659 E14.40739
G1 X111.51 Y100.11 E14.66398
G1 X111.374 Y100.167 E14.66889
G1 X109.15 Y101.919 E14.76305
G1 X108.721 Y102.502 E14.78713
G1 X108.476 Y102.836 E14.80091
G1 X108.369 Y102.436 E14.80847
G1 X106.003 Y93.602 E15.11265
G0 F9000 X105.409 Y92.932
G1 F900 X109.69 Y91.783 E15.26007
G1 X111.986 Y100.342 E15.55481
G1 X111.579 Y100.514 E15.56951
G1 X109.44 Y102.2 E15.6601
G1 X108.55 Y103.409 E15.71003
G1 X108.305 Y103.743 E15.7238
G1 X108.198 Y103.343 E15.73137
G1 X105.409 Y92.932 E16.08985
G0 F9000 X105.024 Y93.036
G1 F1800 X104.92 Y92.649 E16.10318
G1 X109.972 Y91.293 E16.27716
G1 X110.075 Y91.679 E16.29045
G1 X112.463 Y100.576 E16.59684
G1 X111.784 Y100.862 E16.62134
G1 X109.73 Y102.481 E16.70833
G1 X108.162 Y104.612 E16.79633
G1 X108.14 Y104.671 E16.79842
G1 X107.92 Y103.847 E16.82679
G1 X105.024 Y93.036 E17.19904
G0 F9000 X104.43 Y92.366
G1 F1800 X110.255 Y90.803 E17.39963
G1 X112.94 Y100.81 E17.74424
G1 X111.989 Y101.21 E17.77855
G1 X110.02 Y102.762 E17.86194
G1 X108.517 Y104.804 E17.94627
G1 X108.295 Y105.397 E17.96733
G1 X108.077 Y105.98 E17.98803
G1 X107.917 Y105.378 E17.99888
G1 X107.755 Y104.775 E18.01964
G1 X104.43 Y92.366 E18.44693
G0 F9000 X103.94 Y92.083
G1 F1800 X110.538 Y90.313 E18.67414
G1 X113.417 Y101.044 E19.04367
G1 X112.194 Y101.558 E19.0878
G1 X110.31 Y103.043 E19.16758
G1 X108.872 Y104.996 E19.24825
G1 X108.234 Y106.703 E19.30886
G1 X108.028 Y107.256 E19.32849
G1 X108.022 Y107.318 E19.33056
G1 X107.87 Y106.747 E19.34134
G1 X107.692 Y106.084 E19.36417
G1 X103.94 Y92.083 E19.84628
G0 F9000 X103.45 Y91.8
G1 F1800 X110.821 Y89.823 E20.1001
G1 X113.894 Y101.278 E20.49457
G1 X112.399 Y101.906 E20.5485
G1 X110.6 Y103.324 E20.62469
G1 X109.227 Y105.188 E20.70169
G1 X108.421 Y107.346 E20.77831
G1 X108.315 Y108.466 E20.81573
G1 X108.212 Y109.571 E20.85264
G1 X107.925 Y108.499 E20.87138
G1 X103.45 Y91.8 E21.44638
G0 F9000 X109.114 Y112.937
G1 F900 X109.224 Y113.169 E21.45492
G1 X109.179 Y113.181
G1 X109.114 Y112.937 E21.45536
G0 F9000 X109.328 Y113.554
G1 F1800 X108.896 Y113.67 E21.47024
G1 X102.96 Y91.517 E22.23304
G1 X111.104 Y89.333 E22.51348
G1 X114.371 Y101.512 E22.93288
G1 X112.604 Y102.254 E22.99662
G1 X110.89 Y103.605 E23.06921
G1 X109.582 Y105.38 E23.14254
G1 X108.814 Y107.436 E23.21554
G1 X108.611 Y109.594 E23.28763
G1 X108.994 Y111.76 E23.36079
G1 X109.792 Y113.43 E23.42235
G1 X109.328 Y113.554 E23.43833
G0 F9000 X108.613 Y114.16
G1 F1800 X102.47 Y91.234 E24.22775
G1 X111.387 Y88.843 E24.53481
G1 X114.857 Y101.78 E24.9803
G1 X114.726 Y101.797 E24.9847
G1 X112.809 Y102.602 E25.05385
G1 X111.18 Y103.886 E25.12284
G1 X109.937 Y105.572 E25.19251
G1 X109.207 Y107.526 E25.26188
G1 X109.014 Y109.578 E25.33043
G1 X109.378 Y111.637 E25.39998
G1 X110.279 Y113.522 E25.46947
G1 X110.415 Y113.677 E25.47633
G1 X108.613 Y114.16 E25.53838
G0 F9000 X108.717 Y114.545
G1 F1800 X108.33 Y114.649 E25.55171
G1 X101.98 Y90.951 E26.36771
G1 X111.67 Y88.353 E26.70138
G1 X115.362 Y102.12 E27.17546
G1 X114.83 Y102.187 E27.19329
G1 X113.014 Y102.95 E27.2588
G1 X111.47 Y104.167 E27.32419
G1 X110.292 Y105.764 E27.3902
G1 X109.6 Y107.616 E27.45595
G1 X109.417 Y109.562 E27.52096
G1 X109.762 Y111.514 E27.58689
G1 X110.616 Y113.3 E27.65274
G1 X111.138 Y113.897 E27.67911
G1 X110.519 Y114.062 E27.70042
G1 X108.717 Y114.545 E27.76247
G0 F9000 X108.047 Y115.139
G1 F1800 X101.49 Y90.668 E28.60509
G1 X111.953 Y87.863 E28.96538
G1 X115.867 Y102.459 E29.468
G1 X114.935 Y102.577 E29.49924
G1 X113.219 Y103.298 E29.56115
G1 X111.76 Y104.448 E29.62294
G1 X110.647 Y105.956 E29.68528
G1 X109.993 Y107.706 E29.74741
G1 X109.82 Y109.546 E29.80888
G1 X110.146 Y111.391 E29.8712
G1 X110.953 Y113.078 E29.9334
G1 X111.438 Y113.634 E29.95794
G1 X111.861 Y114.117 E29.97929
G1 X108.047 Y115.139 E30.11062
G0 F9000 X108.151 Y115.524
G1 F1800 X107.764 Y115.628 E30.12395
G1 X101 Y90.385 E30.99315
G1 X112.236 Y87.373 E31.38006
G1 X116.372 Y102.798 E31.91122
G1 X115.04 Y102.967 E31.95588
G1 X113.424 Y103.646 E32.01418
G1 X112.05 Y104.729 E32.07237
G1 X111.002 Y106.149 E32.13107
G1 X110.386 Y107.796 E32.18955
G1 X110.223 Y109.53 E32.24748
G1 X110.53 Y111.268 E32.30618
G1 X111.29 Y112.856 E32.36473
G1 X112.423 Y114.152 E32.42199
G1 X112.663 Y114.316 E32.43166
G1 X108.151 Y115.524 E32.58701
G0 F9000 X107.481 Y116.118
G1 F1800 X100.51 Y90.102 E33.48283
G1 X112.519 Y86.883 E33.89635
G1 X116.892 Y103.194 E34.45802
G1 X116.544 Y103.179 E34.4696
G1 X115.145 Y103.357 E34.51651
G1 X113.629 Y103.994 E34.5712
G1 X112.34 Y105.01 E34.62579
G1 X111.357 Y106.342 E34.68085
G1 X110.779 Y107.886 E34.73569
G1 X110.626 Y109.514 E34.79007
G1 X110.914 Y111.145 E34.84516
G1 X111.627 Y112.634 E34.90007
G1 X112.69 Y113.85 E34.95379
G1 X113.251 Y114.232 E34.97636
G1 X113.61 Y114.476 E34.9908
G1 X113.19 Y114.588 E34.99868
G1 X107.481 Y116.118 E35.19526
G0 F9000 X107.198 Y116.608
G1 F1800 X100.02 Y89.819 E36.1177
G1 X112.802 Y86.393 E36.55783
G1 X117.277 Y103.09 E37.13278
G1 X117.419 Y103.617 E37.15093
G1 X116.561 Y103.58 E37.17949
G1 X115.25 Y103.747 E37.22345
G1 X113.834 Y104.342 E37.27454
G1 X112.63 Y105.291 E37.32552
G1 X111.712 Y106.535 E37.37695
G1 X111.172 Y107.976 E37.42813
G1 X111.029 Y109.498 E37.47897
G1 X111.298 Y111.022 E37.53045
G1 X111.964 Y112.412 E37.58171
G1 X112.957 Y113.548 E37.63189
G1 X114.21 Y114.401 E37.68231
G1 X114.756 Y114.583 E37.70145
G1 X114.293 Y114.707 E37.70726
G1 X107.198 Y116.608 E37.95157
G0 F9000 X106.915 Y117.098
G1 F1800 X99.53 Y89.536 E38.90062
G1 X113.085 Y85.903 E39.36737
G1 X117.976 Y104.149 E39.99566
G1 X117.416 Y104.017 E40.0148
G1 X116.578 Y103.981 E40.0427
G1 X115.355 Y104.137 E40.0837
G1 X114.039 Y104.69 E40.13118
G1 X112.92 Y105.572 E40.17857
G1 X112.067 Y106.728 E40.22635
G1 X111.565 Y108.067 E40.27392
G1 X111.432 Y109.482 E40.32119
G1 X111.682 Y110.899 E40.36904
G1 X112.301 Y112.19 E40.41666
G1 X113.224 Y113.246 E40.46331
G1 X114.389 Y114.039 E40.51018
G1 X115.767 Y114.498 E40.55849
G1 X116.491 Y114.532 E40.5826
G1 X115.825 Y114.71 E40.58866
G1 X114.86 Y114.968 E40.62188
G1 X106.915 Y117.098 E40.89547
G0 F9000 X119.648 Y113.685
G1 F900 X119.847 Y113.578 E40.90298
G1 X120.371 Y113.086 E40.92689
G1 X120.472 Y113.464 E40.9399
G1 X119.648 Y113.685 E40.96271
G0 F9000 X119.611 Y113.251
G1 F1800 X120.562 Y112.358 E41.0061
G1 X120.581 Y112.326 E41.00734
G1 X120.962 Y113.747 E41.05627
G1 X116.595 Y114.917 E41.20664
G1 X106.632 Y117.588 E41.54971
G1 X99.04 Y89.253 E42.52538
G1 X113.368 Y85.413 E43.01875
G1 X118.361 Y104.045 E43.66032
G1 X118.539 Y104.707 E43.68312
G1 X118.493 Y104.682 E43.68486
G1 X117.361 Y104.415 E43.72354
G1 X116.595 Y104.382 E43.74904
G1 X115.46 Y104.527 E43.7871
G1 X114.244 Y105.038 E43.83097
G1 X113.21 Y105.853 E43.87476
G1 X112.422 Y106.921 E43.9189
G1 X111.958 Y108.158 E43.96284
G1 X111.835 Y109.466 E44.00654
G1 X112.066 Y110.775 E44.05075
G1 X112.638 Y111.968 E44.09476
G1 X113.491 Y112.944 E44.13787
G1 X114.568 Y113.677 E44.1812
G1 X115.841 Y114.101 E44.22583
G1 X117.157 Y114.162 E44.26964
G1 X118.444 Y113.881 E44.31346
G1 X119.611 Y113.251 E44.35757
G0 F9000 X119.375 Y112.924
G1 F1800 X120.248 Y112.104 E44.3974
G1 X120.482 Y111.716 E44.41247
G1 X120.724 Y111.316 E44.42802
G1 X120.844 Y111.768 E44.43642
G1 X120.966 Y112.222 E44.45205
G1 X121.347 Y113.643 E44.50098
G1 X121.451 Y114.03 E44.51431
G1 X106.349 Y118.078 E45.03434
G1 X98.55 Y88.97 E46.03662
G1 X113.651 Y84.923 E46.55661
G1 X118.924 Y104.603 E47.23425
G1 X119.047 Y105.057 E47.2499
G1 X119.167 Y105.507 E47.26539
G1 X118.758 Y105.284 E47.27375
G1 X118.348 Y105.059 E47.28931
G1 X117.306 Y104.813 E47.32492
G1 X116.612 Y104.783 E47.34802
G1 X115.565 Y104.917 E47.38313
G1 X114.449 Y105.386 E47.42339
G1 X113.5 Y106.134 E47.46358
G1 X112.777 Y107.114 E47.50409
G1 X112.351 Y108.249 E47.54441
G1 X112.238 Y109.45 E47.58453
G1 X112.45 Y110.651 E47.62509
G1 X112.975 Y111.746 E47.66548
