;FLAVOR:Marlin
;TIME:1067
;Filament used: 0.575023m
;Layer height: 0.2
;MINX:117.467
;MINY:79.764
;MINZ:0.2
;MAXX:151.617
;MAXY:124.174
;MAXZ:5
;Generated with Cura_SteamEngine 4.12.0
M140 S60
M105
M190 S60
M104 S224
M105
M109 S224
M82 ;absolute extrusion mode
G1 Z15.0 F2000 ;Move the platform
G28 ;Home
G29 ; Autolevel
;G92 X-4 Y-10 Z0; custom offset ??? Looks it does not work.
G92 E0
G92 E0
G1 F1500 E-6.5
;LAYER_COUNT:25
;LAYER:0
M107
M204 S1000
G0 F9000 X118.15 Y86.288 Z0.2
;TYPE:SKIRT
G1 F1500 E0
G1 F1800 X118.367 Y85.991 E0.01223
G1 X118.761 Y85.572 E0.03136
G1 X118.92 Y85.428 E0.0385
G1 X119.523 Y84.986 E0.06337
G1 X119.547 Y84.972 E0.06429
G1 X120.029 Y84.737 E0.08212
G1 X120.357 Y84.625 E0.09365
G1 X121.552 Y84.279 E0.13503
G1 X137.049 Y80.128 E0.66863
G1 X138.11 Y79.865 E0.70499
G1 X138.639 Y79.775 E0.72284
G1 X139.175 Y79.764 E0.74067
G1 X139.463 Y79.792 E0.75029
G1 X139.69 Y79.823 E0.75791
G1 X140.215 Y79.935 E0.77577
G1 X140.717 Y80.124 E0.79361
G1 X141.1 Y80.331 E0.80809
G1 X141.358 Y80.491 E0.81819
G1 X141.792 Y80.806 E0.83602
G1 X142.173 Y81.183 E0.85385
G1 X142.515 Y81.644 E0.87294
G1 X142.623 Y81.817 E0.87972
G1 X142.872 Y82.291 E0.89753
G1 X142.988 Y82.597 E0.90842
G1 X143.089 Y82.916 E0.91955
G1 X143.233 Y83.432 E0.93736
G1 X151.253 Y113.366 E1.96809
G1 X151.518 Y114.437 E2.00478
G1 X151.607 Y114.966 E2.02262
G1 X151.617 Y115.502 E2.04046
G1 X151.581 Y115.848 E2.05203
G1 X151.546 Y116.076 E2.0597
G1 X151.426 Y116.599 E2.07754
G1 X151.146 Y117.259 E2.10139
G1 X151.048 Y117.438 E2.10818
G1 X150.756 Y117.888 E2.12602
G1 X150.4 Y118.289 E2.14385
G1 X150.195 Y118.475 E2.15306
G1 X150.039 Y118.605 E2.15982
G1 X149.602 Y118.916 E2.17765
G1 X148.955 Y119.226 E2.20152
G1 X148.523 Y119.373 E2.21669
G1 X147.684 Y119.614 E2.24573
G1 X132.041 Y123.804 E2.78436
G1 X130.933 Y124.076 E2.8223
G1 X130.404 Y124.165 E2.84014
G1 X129.868 Y124.174 E2.85797
G1 X129.337 Y124.103 E2.87579
G1 X129.047 Y124.03 E2.88574
G1 X128.678 Y123.92 E2.89855
G1 X128.176 Y123.729 E2.91641
G1 X127.709 Y123.466 E2.93424
G1 X127.286 Y123.136 E2.95208
G1 X127.036 Y122.885 E2.96386
G1 X126.875 Y122.707 E2.97185
G1 X126.546 Y122.283 E2.9897
G1 X126.283 Y121.816 E3.00752
G1 X126.158 Y121.513 E3.01842
G1 X126.014 Y121.089 E3.03332
G1 X125.757 Y120.192 E3.06435
G1 X117.842 Y90.646 E4.08171
G1 X117.556 Y89.488 E4.12138
G1 X117.467 Y88.959 E4.13922
G1 X117.481 Y88.164 E4.16567
G1 X117.504 Y87.986 E4.17164
G1 X117.612 Y87.46 E4.1895
G1 X117.805 Y86.938 E4.20801
G1 X117.889 Y86.756 E4.21467
G1 X118.15 Y86.288 E4.2325
G0 F9000 X118.5 Y86.483
G1 F1800 X118.679 Y86.241 E4.24251
G1 X119.03 Y85.868 E4.25954
G1 X119.189 Y85.724 E4.26668
G1 X119.725 Y85.332 E4.28876
G1 X119.749 Y85.318 E4.28969
G1 X120.204 Y85.098 E4.3065
G1 X120.469 Y85.009 E4.3158
G1 X121.656 Y84.665 E4.3569
G1 X137.145 Y80.516 E4.89023
G1 X138.206 Y80.253 E4.92659
G1 X138.705 Y80.171 E4.9434
G1 X139.409 Y80.188 E4.96683
G1 X139.636 Y80.219 E4.97445
G1 X140.13 Y80.327 E4.99127
G1 X140.601 Y80.511 E5.00808
G1 X140.89 Y80.671 E5.01907
G1 X141.148 Y80.831 E5.02917
G1 X141.555 Y81.13 E5.04597
G1 X141.91 Y81.49 E5.06278
G1 X142.175 Y81.855 E5.07778
G1 X142.283 Y82.028 E5.08457
G1 X142.516 Y82.477 E5.10139
G1 X142.609 Y82.722 E5.11011
G1 X142.704 Y83.024 E5.12064
G1 X142.847 Y83.536 E5.13832
G1 X150.864 Y113.462 E6.16876
G1 X151.129 Y114.533 E6.20545
G1 X151.212 Y115.032 E6.22228
G1 X151.186 Y115.788 E6.24744
G1 X151.151 Y116.016 E6.25511
G1 X151.035 Y116.508 E6.27192
G1 X150.795 Y117.067 E6.29216
G1 X150.697 Y117.246 E6.29894
G1 X150.42 Y117.669 E6.31576
G1 X149.939 Y118.167 E6.33879
G1 X149.783 Y118.297 E6.34554
G1 X149.37 Y118.589 E6.36237
G1 X148.819 Y118.849 E6.38263
G1 X148.412 Y118.989 E6.39695
G1 X147.58 Y119.228 E6.42574
G1 X131.946 Y123.416 E6.96406
G1 X130.838 Y123.688 E7.00201
G1 X130.339 Y123.769 E7.01882
G1 X129.833 Y123.771 E7.03565
G1 X129.161 Y123.647 E7.05838
G1 X128.792 Y123.537 E7.07119
G1 X128.32 Y123.354 E7.08802
G1 X127.883 Y123.1 E7.10483
G1 X127.333 Y122.617 E7.12918
G1 X127.172 Y122.439 E7.13716
G1 X126.863 Y122.038 E7.154
G1 X126.535 Y121.377 E7.17854
G1 X126.399 Y120.979 E7.19253
G1 X126.143 Y120.088 E7.22337
G1 X118.23 Y90.55 E8.24045
G1 X117.944 Y89.392 E8.28012
G1 X117.862 Y88.893 E8.29694
G1 X117.877 Y88.215 E8.31949
G1 X117.9 Y88.037 E8.32546
G1 X118.005 Y87.542 E8.34229
G1 X118.169 Y87.106 E8.35779
G1 X118.253 Y86.924 E8.36445
G1 X118.5 Y86.483 E8.38127
G1 F1500 E1.88127
;MESH:Cover.stl
G0 F9000 X120.592 Y87.898
G0 X121.516 Y88.482
G0 X128.986 Y92.842
;TYPE:WALL-INNER
G1 F1500 E8.38127
G1 F900 X134.781 Y91.289 E8.58081
G1 X134.963 Y91.968 E8.60419
G1 X129.168 Y93.521 E8.80373
G1 X128.986 Y92.842 E8.82712
G0 F9000 X128.496 Y92.559
G1 F900 X135.064 Y90.799 E9.05327
G1 X135.453 Y92.251 E9.10327
G1 X128.885 Y94.011 E9.32943
G1 X128.496 Y92.559 E9.37943
G0 F9000 X128.006 Y92.276
G1 F900 X135.346 Y90.309 E9.63217
G1 X135.449 Y90.695 E9.64546
G1 X135.838 Y92.147 E9.69546
G1 X135.942 Y92.534 E9.70878
G1 X128.989 Y94.396 E9.94819
G1 X128.602 Y94.5 E9.96152
G1 X128.006 Y92.276 E10.0381
G0 F9000 X127.516 Y91.993
G1 F900 X135.629 Y89.819 E10.31746
G1 X136.432 Y92.816 E10.42066
G1 X136.046 Y92.919 E10.43394
G1 X128.706 Y94.885 E10.68668
G1 X128.319 Y94.989 E10.70001
G1 X127.516 Y91.993 E10.80317
G0 F9000 X127.026 Y91.71
G1 F900 X135.912 Y89.329 E11.10915
G1 X136.922 Y93.098 E11.23893
G1 X136.536 Y93.201 E11.25221
G1 X128.423 Y95.374 E11.53157
G1 X128.036 Y95.478 E11.54489
G1 X127.026 Y91.71 E11.67464
G0 F9000 X126.641 Y91.814
G1 F900 X126.537 Y91.427 E11.68797
G1 X136.195 Y88.839 E12.02053
G1 X137.412 Y93.38 E12.17689
G1 X137.026 Y93.483 E12.19018
G1 X128.14 Y95.863 E12.49615
G1 X127.753 Y95.967 E12.50948
G1 X126.641 Y91.814 E12.65247
G0 F9000 X126.047 Y91.144
G1 F1800 X136.478 Y88.349 E13.01165
G1 X137.902 Y93.663 E13.19463
G1 X127.857 Y96.352 E13.54049
G1 X127.47 Y96.456 E13.55382
G1 X126.047 Y91.144 E13.73673
G0 F9000 X125.557 Y90.861
G1 F1800 X136.761 Y87.859 E14.12252
G1 X138.392 Y93.945 E14.33208
G1 X138.006 Y94.048 E14.34537
G1 X127.574 Y96.841 E14.70456
G1 X127.187 Y96.945 E14.71789
G1 X125.557 Y90.861 E14.92738
G0 F9000 X125.172 Y90.965
G1 F1800 X125.068 Y90.578 E14.94071
G1 X136.657 Y87.474 E15.33974
G1 X137.044 Y87.37 E15.35307
G1 X138.777 Y93.841 E15.57588
G1 X138.899 Y94.294 E15.59149
G1 X138.523 Y94.324 E15.60403
G1 X127.28 Y97.334 E15.99115
G1 X126.924 Y97.507 E16.00431
G1 X126.802 Y97.049 E16.02007
G1 X125.172 Y90.965 E16.22957
G0 F9000 X124.964 Y90.193
G1 F1800 X136.94 Y86.985 E16.64193
G1 X137.327 Y86.881 E16.65526
G1 X139.284 Y94.19 E16.90692
G1 X139.409 Y94.655 E16.92294
G1 X138.591 Y94.72 E16.95023
G1 X127.421 Y97.71 E17.33483
G1 X126.663 Y98.079 E17.36287
G1 X124.578 Y90.296 E17.63086
G1 X124.964 Y90.193 E17.64414
G0 F9000 X124.193 Y90.4
G1 F1800 X124.089 Y90.013 E17.65747
G1 X137.609 Y86.391 E18.12301
G1 X137.712 Y86.777 E18.13629
G1 X139.794 Y94.551 E18.40397
G1 X139.955 Y95.15 E18.4246
G1 X139.531 Y95.047 E18.43911
G1 X138.659 Y95.116 E18.46821
G1 X127.562 Y98.086 E18.85029
G1 X126.701 Y98.505 E18.88213
G1 X126.435 Y98.771 E18.89464
G1 X126.278 Y98.183 E18.91489
G1 X124.193 Y90.4 E19.18288
G0 F9000 X123.704 Y90.117
G1 F1800 X123.6 Y89.73 E19.19621
G1 X137.505 Y86.006 E19.67499
G1 X137.892 Y85.902 E19.68832
G1 X140.533 Y95.762 E20.02782
G1 X140.358 Y95.659 E20.03458
G1 X139.499 Y95.451 E20.06397
G1 X138.727 Y95.512 E20.08973
G1 X127.702 Y98.463 E20.46933
G1 X126.936 Y98.835 E20.49765
G1 X126.274 Y99.497 E20.52879
G1 X126.236 Y99.572 E20.53159
G1 X126.05 Y98.875 E20.55558
G1 X123.704 Y90.117 E20.85714
G0 F9000 X131.002 Y117.356
G1 F900 X131.174 Y117.459 E20.86381
G1 X132.029 Y117.655 E20.89299
G1 X132.759 Y117.609 E20.91731
G1 X132.067 Y117.794 E20.9215
G1 X131.573 Y117.926 E20.93376
G1 X131.183 Y118.031 E20.9472
G1 X131.002 Y117.356 E20.97044
G0 F9000 X143.83 Y114.643
G1 F900 X144.465 Y114.361 E20.99355
G1 X145.122 Y113.785 E21.02261
G1 X145.289 Y113.514 E21.0332
G1 X145.473 Y114.202 E21.04891
G1 X144.493 Y114.465 E21.07146
G1 X143.83 Y114.643 E21.07445
G0 F9000 X143.934 Y115.028
G1 F1800 X130.9 Y118.521 E21.52326
G1 X130.426 Y116.751 E21.5842
G1 X130.299 Y116.279 E21.60046
G1 X130.663 Y116.687 E21.60702
G1 X131.325 Y117.083 E21.63268
G1 X132.062 Y117.252 E21.65783
G1 X132.726 Y117.21 E21.67996
G1 X143.668 Y114.277 E22.05674
G1 X144.247 Y114.02 E22.07781
G1 X144.813 Y113.524 E22.10284
G1 X145.224 Y112.855 E22.12895
G1 X145.36 Y112.235 E22.15007
G1 X145.505 Y112.779 E22.15647
G1 X145.674 Y113.41 E22.1782
G1 X145.963 Y114.485 E22.21522
G1 X143.934 Y115.028 E22.28508
G0 F9000 X144.857 Y110.355
G1 F900 X144.532 Y109.993 E22.30126
G1 X144.643 Y109.556 E22.31626
G1 X144.857 Y110.355 E22.32832
G0 F9000 X144.133 Y107.653
G1 F900 X143.818 Y107.301 E22.34403
G1 X143.865 Y107.207 E22.34753
G1 X143.908 Y106.814 E22.36068
G1 X144.023 Y107.245 E22.36455
G1 X144.133 Y107.653 E22.36797
G0 F9000 X143.402 Y104.923
G1 F900 X143.336 Y104.816 E22.37215
G1 X143.089 Y104.619 E22.38266
G1 X143.103 Y104.593 E22.38364
G1 X143.187 Y104.12 E22.39962
G1 X143.402 Y104.923 E22.41136
G0 F9000 X142.683 Y102.241
G1 F900 X142.38 Y101.901 E22.42651
G1 X142.46 Y101.406 E22.44319
G1 X142.578 Y101.848 E22.44679
G1 X142.683 Y102.241 E22.44993
G0 F9000 X141.944 Y99.482
G1 F900 X141.634 Y99.201 E22.46385
G1 X141.738 Y98.711 E22.48051
G1 X141.944 Y99.482 E22.49197
G0 F9000 X141.234 Y96.832
G1 F1800 X140.869 Y96.422 E22.51023
G1 X140.207 Y96.034 E22.53575
G1 X139.467 Y95.855 E22.56107
G1 X138.795 Y95.908 E22.58349
G1 X127.842 Y98.84 E22.96062
G1 X127.171 Y99.165 E22.98541
G1 X126.603 Y99.734 E23.01215
G1 X126.235 Y100.466 E23.0394
G1 X126.174 Y100.884 E23.05345
G1 X125.851 Y99.676 E23.09504
G1 X123.11 Y89.448 E23.44723
G1 X123.496 Y89.345 E23.46052
G1 X137.788 Y85.517 E23.95263
G1 X138.175 Y85.413 E23.96596
G1 X141.107 Y96.358 E24.34282
G1 X141.234 Y96.832 E24.3475
G0 F9000 X140.139 Y99.111
G0 X139.88 Y99.336
G0 X139.587 Y99.468
G0 X137.036 Y100.141
G0 X126.897 Y103.582
G1 F900 X126.691 Y102.814 E24.37395
G1 X126.991 Y103.085 E24.38739
G1 X126.98 Y103.106 E24.38818
G1 X126.897 Y103.582 E24.38875
G0 F9000 X127.621 Y106.286
G1 F900 X127.407 Y105.486 E24.41629
G1 X127.718 Y105.788 E24.43071
G1 X127.705 Y105.813 E24.43165
G1 X127.621 Y106.286 E24.43175
G0 F9000 X128.349 Y109.003
G1 F900 X128.236 Y108.579 E24.44635
G1 X128.126 Y108.17 E24.46043
G1 X128.441 Y108.523 E24.46552
G1 X128.349 Y109.003 E24.47072
G0 F9000 X129.177 Y111.211
G1 F900 X129.071 Y111.696 E24.48723
G1 X128.864 Y110.924 E24.49883
G1 X129.177 Y111.211 E24.51295
G0 F9000 X129.899 Y113.938
G1 F900 X129.788 Y114.374 E24.52792
G1 X129.575 Y113.576 E24.55539
G1 X129.899 Y113.938 E24.5561
G0 F9000 X127.493 Y102.99
G1 F1800 X127.363 Y103.237 E24.56538
G1 X127.253 Y103.864 E24.58655
G1 X127.331 Y104.507 E24.6081
G1 X127.64 Y105.155 E24.63198
G1 X128.177 Y105.676 E24.65686
G1 X128.218 Y105.695 E24.65836
G1 X128.088 Y105.944 E24.66461
G1 X127.977 Y106.57 E24.68575
G1 X128.052 Y107.2 E24.70686
G1 X128.318 Y107.784 E24.7282
G1 X128.748 Y108.266 E24.74968
G1 X128.944 Y108.381 E24.75724
G1 X128.846 Y108.539 E24.76343
G1 X128.693 Y109.332 E24.79029
G1 X128.837 Y110.089 E24.81592
G1 X129.169 Y110.661 E24.83791
G1 X129.645 Y111.095 E24.85934
G1 X129.583 Y111.228 E24.86422
G1 X129.424 Y111.951 E24.88884
G1 X129.502 Y112.607 E24.91081
G1 X129.769 Y113.194 E24.93226
G1 X130.196 Y113.67 E24.95353
G1 X130.396 Y113.789 E24.96127
G1 X130.316 Y113.919 E24.96635
G1 X130.158 Y114.545 E24.98782
G1 X130.198 Y115.203 E25.00975
G1 X130.481 Y115.883 E25.03424
G1 X130.921 Y116.375 E25.0562
G1 X131.476 Y116.707 E25.07771
G1 X132.095 Y116.849 E25.09883
G1 X132.661 Y116.813 E25.11769
G1 X143.534 Y113.899 E25.49209
G1 X144.029 Y113.679 E25.51011
G1 X144.504 Y113.263 E25.53111
G1 X144.848 Y112.703 E25.55297
G1 X145.007 Y111.98 E25.57759
G1 X144.929 Y111.324 E25.59956
G1 X144.662 Y110.737 E25.62101
G1 X144.235 Y110.261 E25.64228
G1 X144.035 Y110.142 E25.65002
G1 X144.115 Y110.012 E25.6551
G1 X144.273 Y109.386 E25.67657
G1 X144.233 Y108.728 E25.6985
G1 X143.95 Y108.048 E25.723
G1 X143.51 Y107.556 E25.74495
G1 X143.304 Y107.433 E25.75293
G1 X143.475 Y107.092 E25.76562
G1 X143.557 Y106.348 E25.79051
G1 X143.405 Y105.692 E25.81291
G1 X143.032 Y105.085 E25.83661
G1 X142.583 Y104.727 E25.8557
G1 X142.72 Y104.463 E25.8656
G1 X142.83 Y103.84 E25.88664
G1 X142.755 Y103.207 E25.90784
G1 X142.488 Y102.623 E25.9292
G1 X142.058 Y102.141 E25.95068
G1 X141.855 Y102.022 E25.95851
G1 X141.995 Y101.778 E25.96786
G1 X142.109 Y101.066 E25.99185
G1 X142.003 Y100.412 E26.01388
G1 X141.654 Y99.759 E26.03851
G1 X141.163 Y99.314 E26.06055
G1 X141.23 Y99.178 E26.06559
G1 X141.384 Y98.45 E26.09034
G1 X141.306 Y97.796 E26.11225
G1 X141.039 Y97.214 E26.13354
G1 X140.612 Y96.735 E26.15489
G1 X140.056 Y96.409 E26.17632
G1 X139.435 Y96.259 E26.19757
G1 X138.863 Y96.304 E26.21666
G1 X127.982 Y99.217 E26.5913
G1 X127.406 Y99.496 E26.61259
G1 X126.931 Y99.971 E26.63493
G1 X126.621 Y100.588 E26.6579
G1 X126.525 Y101.245 E26.67998
G1 X126.659 Y101.975 E26.70467
G1 X126.998 Y102.552 E26.72693
G1 X127.471 Y102.979 E26.74812
G1 X127.493 Y102.99 E26.74894
G0 F9000 X127.695 Y102.643
G1 F1800 X128.073 Y102.822 E26.76285
G1 X127.99 Y102.904
G1 X127.746 Y103.368 E26.78029
G1 X127.657 Y103.875 E26.79741
G1 X127.72 Y104.394 E26.8148
G1 X127.97 Y104.918 E26.83411
G1 X128.407 Y105.342 E26.85436
G1 X128.8 Y105.524 E26.86876
G1 X128.712 Y105.612
G1 X128.471 Y106.074 E26.88609
G1 X128.381 Y106.581 E26.90322
G1 X128.442 Y107.091 E26.9203
G1 X128.657 Y107.563 E26.93756
G1 X129.005 Y107.953 E26.95494
G1 X129.452 Y108.215 E26.97217
G1 X129.508 Y108.228 E26.97408
G1 X129.225 Y108.687 E26.99202
G1 X129.1 Y109.333 E27.0139
G1 X129.217 Y109.947 E27.03469
G1 X129.484 Y110.407 E27.05238
G1 X129.869 Y110.758 E27.06971
G1 X130.236 Y110.929 E27.08318
G1 X129.959 Y111.38 E27.10078
G1 X129.829 Y111.971 E27.12091
G1 X129.892 Y112.498 E27.13856
G1 X130.108 Y112.973 E27.15592
G1 X130.453 Y113.358 E27.17311
G1 X130.899 Y113.624 E27.19038
G1 X130.958 Y113.638 E27.1924
G1 X130.689 Y114.076 E27.2095
G1 X130.561 Y114.583 E27.22689
G1 X130.593 Y115.112 E27.24451
G1 X130.824 Y115.667 E27.26451
G1 X131.178 Y116.063 E27.28218
G1 X131.627 Y116.331 E27.29957
G1 X132.128 Y116.446 E27.31666
G1 X132.596 Y116.416 E27.33226
G1 X143.4 Y113.521 E27.70428
G1 X143.811 Y113.338 E27.71924
G1 X144.195 Y113.002 E27.73622
G1 X144.472 Y112.551 E27.75382
G1 X144.602 Y111.96 E27.77395
G1 X144.539 Y111.433 E27.7916
G1 X144.323 Y110.958 E27.80895
G1 X143.978 Y110.573 E27.82615
G1 X143.532 Y110.307 E27.84342
G1 X143.473 Y110.293 E27.84544
G1 X143.742 Y109.855 E27.86253
G1 X143.87 Y109.348 E27.87993
G1 X143.838 Y108.819 E27.89755
G1 X143.607 Y108.264 E27.91755
G1 X143.253 Y107.868 E27.93521
G1 X142.804 Y107.6 E27.9526
G1 X142.736 Y107.584 E27.95493
G1 X142.825 Y107.496 E27.95661
G1 X143.085 Y106.977 E27.97591
G1 X143.152 Y106.372 E27.99616
G1 X143.03 Y105.846 E28.01412
G1 X142.728 Y105.354 E28.03332
G1 X142.251 Y104.974 E28.0536
G1 X142.003 Y104.888 E28.06233
G1 X142.096 Y104.796 E28.06267
G1 X142.337 Y104.333 E28.08003
G1 X142.426 Y103.829 E28.09705
G1 X142.365 Y103.316 E28.11423
G1 X142.149 Y102.844 E28.1315
G1 X141.801 Y102.454 E28.14888
G1 X141.354 Y102.191 E28.16613
G1 X141.304 Y102.178 E28.16785
G1 X141.612 Y101.642 E28.18841
G1 X141.704 Y101.066 E28.20781
G1 X141.619 Y100.542 E28.22547
G1 X141.334 Y100.009 E28.24557
G1 X140.939 Y99.651 E28.2633
G1 X140.571 Y99.479 E28.27681
G1 X140.853 Y99.026 E28.29456
G1 X140.979 Y98.432 E28.31476
G1 X140.916 Y97.906 E28.33238
G1 X140.7 Y97.435 E28.34961
G1 X140.355 Y97.048 E28.36685
G1 X139.905 Y96.784 E28.38421
G1 X139.403 Y96.663 E28.40138
G1 X138.931 Y96.7 E28.41713
G1 X136.454 Y97.363 E28.50241
G1 X128.122 Y99.594 E28.7893
G1 X127.641 Y99.827 E28.80708
G1 X127.259 Y100.208 E28.82502
G1 X127.007 Y100.71 E28.8437
G1 X126.93 Y101.237 E28.86142
G1 X127.04 Y101.833 E28.88157
G1 X127.312 Y102.297 E28.89946
G1 X127.695 Y102.643 E28.91663
G0 F9000 X127.919 Y102.306
G1 F900 X128.277 Y102.475 E28.9298
G1 X128.66 Y102.524 E28.94264
G1 X128.917 Y102.493 E28.95125
G1 X139.641 Y99.62 E29.32051
